/* XPM */
static char *_c4095b976134d1b9129f011addf49e9yRkFq81tF6CNDkl7[] = {
/* columns rows colors chars-per-pixel */
"395 519 249 2 ",
"   c #010101",
".  c #090806",
"X  c #0C0C0C",
"o  c #110000",
"O  c #100E0C",
"+  c #0F100E",
"@  c #14130C",
"#  c #131313",
"$  c #191A16",
"%  c #1B1B1B",
"&  c #220000",
"*  c #241308",
"=  c #331100",
"-  c #043004",
";  c #1F211E",
":  c #23221D",
">  c #2A281E",
",  c #352814",
"<  c #1F233C",
"1  c #242423",
"2  c #272826",
"3  c #2B2B25",
"4  c #2C212A",
"5  c #2B2C2B",
"6  c #312F26",
"7  c #2F302E",
"8  c #31322E",
"9  c #39372A",
"0  c #333433",
"q  c #373936",
"w  c #3A3A35",
"e  c #3B3B3B",
"r  c #47130A",
"t  c #770202",
"y  c #7D1A19",
"u  c #442211",
"i  c #552211",
"p  c #562B1B",
"a  c #503312",
"s  c #682713",
"d  c #663311",
"f  c #7B1E23",
"g  c #48362C",
"h  c #7C2229",
"j  c #663322",
"k  c #673B2D",
"l  c #773322",
"z  c #7A2838",
"x  c #166511",
"c  c #167511",
"v  c #3E403D",
"b  c #46452F",
"n  c #444233",
"m  c #494633",
"M  c #4A4833",
"N  c #41423D",
"B  c #484639",
"V  c #4D4A3B",
"C  c #544D34",
"Z  c #514F3D",
"A  c #664525",
"S  c #764422",
"D  c #744D33",
"F  c #272E58",
"G  c #782D44",
"H  c #7A314B",
"J  c #6F3357",
"K  c #773657",
"L  c #6E3B68",
"P  c #7D3D63",
"I  c #743D68",
"U  c #6D3F72",
"Y  c #434443",
"T  c #454844",
"R  c #4A4A44",
"E  c #4B4D4B",
"W  c #534D42",
"Q  c #4E504D",
"!  c #575546",
"~  c #5D5A4A",
"^  c #545553",
"/  c #585A54",
"(  c #5C5D5B",
")  c #625E4A",
"_  c #5D625B",
"`  c #67624C",
"'  c #716D4D",
"]  c #656251",
"[  c #6A6755",
"{  c #6E6B5A",
"}  c #716E5B",
"|  c #75725D",
" . c #7A755B",
".. c #4B4A6C",
"X. c #76406D",
"o. c #7D416C",
"O. c #6C4176",
"+. c #6C437B",
"@. c #744273",
"#. c #7B4777",
"$. c #73457A",
"%. c #646463",
"&. c #686966",
"*. c #6B6C6B",
"=. c #6D706E",
"-. c #797664",
";. c #7C7A64",
":. c #787977",
">. c #8C1C15",
",. c #861D19",
"<. c #941D14",
"1. c #9B1F12",
"2. c #921F18",
"3. c #A11F11",
"4. c #8D231C",
"5. c #8A271D",
"6. c #9B2215",
"7. c #96261A",
"8. c #94231C",
"9. c #9B2B1B",
"0. c #9E321E",
"q. c #A22C19",
"w. c #A5351D",
"e. c #892628",
"r. c #952925",
"t. c #8F312E",
"y. c #993626",
"u. c #842A34",
"i. c #882B37",
"p. c #8A3339",
"a. c #933634",
"s. c #A53B22",
"d. c #F5191E",
"f. c #914931",
"g. c #875533",
"h. c #AA4729",
"j. c #B14B27",
"k. c #B6582E",
"l. c #A85030",
"z. c #A95435",
"x. c #B55D32",
"c. c #8C6738",
"v. c #BA6535",
"b. c #BB713F",
"n. c #C16935",
"m. c #C4753C",
"M. c #853245",
"N. c #893243",
"B. c #8A3547",
"V. c #83344C",
"C. c #833956",
"Z. c #803E62",
"A. c #8F4B4D",
"S. c #8C6E4E",
"D. c #976643",
"F. c #AA6644",
"G. c #B16B52",
"H. c #BB7755",
"J. c #814268",
"K. c #804770",
"L. c #827E69",
"P. c #8F7D79",
"I. c #B87865",
"U. c #C77C41",
"Y. c #198A14",
"T. c #26991E",
"R. c #32AF28",
"E. c #43B938",
"W. c #47C93A",
"Q. c #749270",
"!. c #53D545",
"~. c #5CE64D",
"^. c #67E956",
"/. c #89846A",
"(. c #95906A",
"). c #888674",
"_. c #928E75",
"`. c #98947A",
"'. c #A2956C",
"]. c #AA9574",
"[. c #CB8444",
"{. c #D0886A",
"}. c #364080",
"|. c #6B4683",
" X c #6D4985",
".X c #674A8D",
"XX c #6A4A8B",
"oX c #754C87",
"OX c #78508A",
"+X c #664D94",
"@X c #6A4E92",
"#X c #654F98",
"$X c #6C5095",
"%X c #65519D",
"&X c #6A529B",
"*X c #745395",
"=X c #535CA4",
"-X c #6555A4",
";X c #6B58A7",
":X c #6357AA",
">X c #6359AD",
",X c #715BA6",
"<X c #625BB4",
"1X c #6A5DB3",
"2X c #615EBB",
"3X c #6B61B7",
"4X c #6360BE",
"5X c #5F62C4",
"6X c #5364CA",
"7X c #5E65CC",
"8X c #5D67D0",
"9X c #5D69D4",
"0X c #5C6AD6",
"qX c #5C6CDB",
"wX c #5B6DDD",
"eX c #5F71DD",
"rX c #6162C2",
"tX c #6266CA",
"yX c #7077C6",
"uX c #6069D2",
"iX c #5B6EE0",
"pX c #5B6EE1",
"aX c #6678E3",
"sX c #858684",
"dX c #8C8D8B",
"fX c #909089",
"gX c #979688",
"hX c #989896",
"jX c #A19D83",
"kX c #9FA19E",
"lX c #AAA687",
"zX c #B2AC8B",
"xX c #ADAB93",
"cX c #BBB694",
"vX c #9894A9",
"bX c #A7A8A6",
"nX c #B4B3A6",
"mX c #B7B8B5",
"MX c #C1BC98",
"NX c #C3BEA0",
"BX c #CAC39D",
"VX c #D1CDAD",
"CX c #E1DCBC",
"ZX c #8C8BC8",
"AX c #D7D6CB",
"SX c #F4F1D5",
"DX c #E7E8E6",
"FX c #FFFDE2",
"GX c #FEFEFB",
/* pixels */
"pXpXpXpXpXpXpXpXpXpXpXpXpXpXpXpXpXpXpXpXpXpXpXpXpXpXpXpXpXpXpXpXpXpXpXpXpX7X7X7X7XpXpXpXpXpX7X7X7X7X5X5X5X5XpXpXpXpX8X8X8X8X8XpXpXpXpXwXwXwXwXpXpXpXpXpXpXpXpXpXpXpXpXpXpXpXpXpXpXpXpXpXpXpXpXpXpXpXpXpXpXpXpXpXpXpXpXpXpXpX9X9X9X9X9X9X9X9X9X9X9X9X9XqXqXqXqXqXqXqXqXpXpXpXpXwXwXwXwXwXpXpXpXpXpXpXpXpXpXpXpXpXpXpXpXpXpXpXpXpXpXpXpXpXpXpXpXpXpXpXpXpXpXpXpXpXpXpXqXqXqXqXpXpXpXpXpXpXpXpXpXpXpXpXpX5X5X5X5X5X7X7X7X7X5X5X5X5X5X5X5X5XpXpXpXpXpXpXpXpXpXwXwXwXwX9X9X9X9XqXpXpXpXpXpXpXpXpXpXpXpXpXpXpXpXpXpXpXpXpXpXpXpXpXpXpXpXpXpXpXpXpXpXpXpXpXpXpXpXpXpXpXpXpXpXpXpXpXpXpXpXpXpXpXpXpXpXpXpXpXpXpXpXpXpXpXpXpXpXpXpXpXpXpXpXpXpXpXpXpXpXpXpXpXpXpXpXpXpXpXpXpXpXpXpXpXpXpXpXpXpXpXpXpXpXpXpXpXpXpXpXpXpXpXpXpXpXpXpXpXpXpXpXpXpXpXpXpXpXpXpXpXpXpXpXpXpXpXpXpXpXpXpXpXpXpXpXpXpXpXpXpXpXpXpXpXpXpXpXpXpXpXpXpXpX",
"pXpXpXpXpXpXpXpXpXpXpXpXpXpXpXpXpXpXpXpXpXpXpXpXpXpXpXpXpXpXpXpXpXpXpXpXpX7X7X7X7XpXpXpXpXpX7X7X7X7X5X5X5X5XpXpXpXpX8X8X8X8X8XpXpXpXpXwXwXwXwXpXpXpXpXpXpXpXpXpXpXpXpXpXpXpXpXpXpXpXpXpXpXpXpXpXpXpXpXpXpXpXpXpXpXpXpXpXpXpX9X9X9X9X9X9X9X9X9X9X9X9X9XqXqXqXqXqXqXqXqXpXpXpXpXwXwXwXwXwXpXpXpXpXpXpXpXpXpXpXpXpXpXpXpXpXpXpXpXpXpXpXpXpXpXpXpXpXpXpXpXpXpXpXpXpXpXpXqXqXqXqXpXpXpXpXpXpXpXpXpXpXpXpXpX5X5X5X5X5X7X7X7X7X5X5X5X5X5X5X5X5XpXpXpXpXpXpXpXpXpXwXwXwXwX9X9X9X9X9XpXpXpXpXpXpXpXpXpXpXpXpXpXpXpXpXpXpXpXpXpXpXpXpXpXpXpXpXpXpXpXpXpXpXpXpXpXpXpXpXpXpXpXpXpXpXpXpXpXpXpXpXpXpXpXpXpXpXpXpXpXpXpXpXpXpXpXpXpXpXpXpXpXpXpXpXpXpXpXpXpXpXpXpXpXpXpXpXpXpXpXpXpXpXpXpXpXpXpXpXpXpXpXpXpXpXpXpXpXpXpXpXpXpXpXpXpXpXpXpXpXpXpXpXpXpXpXpXpXpXpXpXpXpXpXpXpXpXpXpXpXpXpXpXpXpXpXpXpXpXpXpXpXpXpXpXpXpXpXpXpXpXpXpXpX",
"pXpXpXpXpXpXpXpXpXpXpXpXpXpXpXpXpXpXpXpXpXpXpXpXpXpXpXpXpXpXpXpXpXpXpXpXpX7X7X7X7XpXpXpXpXpX7X7X7X7X5X5X5X5XpXpXpXpX8X8X8X8X8XpXpXpXpXwXwXwXwXpXpXpXpXpXpXpXpXpXpXpXpXpXpXpXpXpXpXpXpXpXpXpXpXpXpXpXpXpXpXpXpXpXpXpXpXpXpXpX9X9X9X9X9X9X9X9X9X9X9X9X9XqX9XqXqXqXqXqXqXpXpXpXpXwXwXwXwXwXpXpXpXpXpXpXpXpXpXpXpXpXpXpXpXpXpXpXpXpXpXpXpXpXpXpXpXpXpXpXpXpXpXpXpXpXpXpXqXqXqXqXpXpXpXpXpXpXpXpXpXpXpXpXpX5X5X5X5X5X7X7X7X7X5X5X5X5X5X5X5X5XpXpXpXpXpXpXpXpXpXwXwXwXwX9X9X9X9XqXpXpXpXpXpXpXpXpXpXpXpXpXpXpXpXpXpXpXpXpXpXpXpXpXpXpXpXpXpXpXpXpXpXpXpXpXpXpXpXpXpXpXpXpXpXpXpXpXpXpXpXpXpXpXpXpXpXpXpXpXpXpXpXpXpXpXpXpXpXpXpXpXpXpXpXpXpXpXpXpXpXpXpXpXpXpXpXpXpXpXpXpXpXpXpXpXpXpXpXpXpXpXpXpXpXpXpXpXpXpXpXpXpXpXpXpXpXpXpXpXpXpXpXpXpXpXpXpXpXpXpXpXpXpXpXpXpXpXpXpXpXpXpXpXpXpXpXpXpXpXpXpXpXpXpXpXpXpXpXpXpXpXpXpXpX",
"pXpXpXpXpXpXpXpXpXpXpXpXpXpXpXpXpXpXpXpXpXpXpXpXpXpXpXpX9X9X9X9X9XpXpXpXpX9X9X9X9X<X<X<X<X<XpXpXpXpXqXqXqXqX7X7X7X7X8X8X8X8X8X7X7X7X7X9X9X9X9XwXwXwXwXpXpXpXpXpXpXpXpXpXpXpXpXpXpXpXpXpXpXpXpXpXpXqXqXqXqXqXqXqXqX7X7X7X7X7XpXpXpXpXpXpXpXpX5X5X5X5X5X7X7X7X7XpXpXpXpXpXpXpXpXqXqXqXqXqXqXqXqXqXwXwXwXwXwXwXwXwXwXpXpXpXpXpXpXpXpXpXpXpXpXpXpXpXpXpXpXpXpXpXwXwXwXwXpXpXpXpXpXpXpXpXpXwXpXpXpX<X<X<X<X7X7X7X7X7XpXpXpXpX9X9X9X9XpXpXpXpX>X>X>X<X>X8X8X8X8XpXpXpXpXpXpXpXpXpXqXqX9X9XpXpXpXpXpXpXpXpXpXpXpXpXpXpXpXpXpXpXpXpXpXpXpXpXpXpXpXpXpXpXpXpXpXpXpXpXpXpXpXpXpXpXpXpXpXpXpXpXpXpXpXpXpXpXpXpXpXpXpXpXpXpXpXpXpXpXpXpXpXpXpXpXpXpXpXpXpXpXpXpXpXpXpXpXpXpXpXpXpXpXpXpXpXpXpXpXpXpXpXpXpXpXpXpXpXpXpXpXpXpXpXpXpXpXpXpXpXpXpXpXpXpXpXpXpXpXpXpXpXpXpXpXpXpXpXpXpXpXpXpXpXpXpXpXpXpXpXpXpXpXpXpXpXpXpXpXpXpXpXpXpX",
"pXpXpXpXpXpXpXpXpXpXpXpXpXpXpXpXpXpXpXpXpXpXpXpXpXpXpXpX9X9X9X9X9XpXpXpXpX9X9X9X9X<X<X<X<X<XpXpXpXpXqXqXqXqX7X7X7X7X8X8X8X8X8X7X7X7X7X9X9X9X9XwXwXwXwXpXpXpXpXpXpXpXpXpXpXpXpXpXpXpXpXpXpXpXpXpXpXqXqXqXqXqXqXqXqX7X7X7X7X7XpXpXpXpXpXpXpXpX5X5X5X5X5X7X7X7X7XpXpXpXpXpXpXpXpXqXqXqX9X9XqXqXqXqXwXwXwXwXwXwXwXwXwXpXpXpXpXpXpXpXpXpXpXpXpXpXpXpXpXpXpXpXpXpXwXwXwXwXpXpXpXpXpXpXpXpXpXwXwXwXpX<X<X<X<X7X7X7X7X7XpXpXpXpX9X9X9X9XpXpXpXpX>X>X>X<X>X8X8X8X8XpXpXpXpXpXpXpXpXpX9X9X9X9XpXpXpXpXpXpXpXpXpXpXpXpXpXpXpXpXpXpXpXpXpXpXpXpXpXpXpXpXpXpXpXpXpXpXpXpXpXpXpXpXpXpXpXpXpXpXpXpXpXpXpXpXpXpXpXpXpXpXpXpXpXpXpXpXpXpXpXpXpXpXpXpXpXpXpXpXpXpXpXpXpXpXpXpXpXpXpXpXpXpXpXpXpXpXpXpXpXpXpXpXpXpXpXpXpXpXpXpXpXpXpXpXpXpXpXpXpXpXpXpXpXpXpXpXpXpXpXpXpXpXpXpXpXpXpXpXpXpXpXpXpXpXpXpXpXpXpXpXpXpXpXpXpXpXpXpXpXpXpXpXpX",
"pXpXpXpXpXpXpXpXpXpXpXpXpXpXpXpXpXpXpXpXpXpXpXpXpXpXpXpX9X9X9X9X9XpXpXpXpX9X9X9X9X<X<X<X<X<XpXpXpXpXqXqXqXqX7X7X7X7X8X8X8X8X8X7X7X7X7X9X9X9X9XwXwXwXwXpXpXpXpXpXpXpXpXpXpXpXpXpXpXpXpXpXpXpXpXpXpXqXqXqXqXqX9XqXqX7X7X7X7X7XpXpXpXpXpXpXpXpX5X5X5X5X5X7X7X7X7XpXpXpXpXpXpXpXpXqXqXqXqX9XqXqXqXqXwXwXwXwXwXwXwXwXwXpXpXpXpXpXpXpXpXpXpXpXpXpXpXpXpXpXpXpXpXpXwXwXwXwXpXpXpXpXpXpXpXpXpXwXwXwXwX<X<X<X<X7X7X7X7X7XpXpXpXpX9X9X9X9XpXpXpXpX>X>X>X>X>X8X8X8X8XpXpXpXpXpXpXpXpXpX9X9X9X9XpXpXpXpXpXpXpXpXpXpXpXpXpXpXpXpXpXpXpXpXpXpXpXpXpXpXpXpXpXpXpXpXpXpXpXpXpXpXpXpXpXpXpXpXpXpXpXpXpXpXpXpXpXpXpXpXpXpXpXpXpXpXpXpXpXpXpXpXpXpXpXpXpXpXpXpXpXpXpXpXpXpXpXpXpXpXpXpXpXpXpXpXpXpXpXpXpXpXpXpXpXpXpXpXpXpXpXpXpXpXpXpXpXpXpXpXpXpXpXpXpXpXpXpXpXpXpXpXpXpXpXpXpXpXpXpXpXpXpXpXpXpXpXpXpXpXpXpXpXpXpXpXpXpXpXpXpXpXpXpXpX",
"pXpXpXpXpXpXpXpXpXpXpXpXpXpXpXpXpXpXpXpXpXpXpXpXpXpXpXpX9X9X9X9X9XpXpXpXpX9X9X9X9X<X<X<X<X<XpXpXpXpXqXqXqXqX7X7X7X7X8X8X8X8X8X7X7X7X7X9X9X9X9XwXwXwXwXpXpXpXpXpXpXpXpXpXpXpXpXpXpXpXpXpXpXpXpXpXpXqXqXqX9X9X9X9XqX7X7X7X7X7XpXpXpXpXpXpXpXpX5X5X5X5X5X7X7X7X7XpXpXpXpXpXpXpXpXqXqXqXqX9XqXqXqXqXwXwXwXwXwXwXwXwXwXpXpXpXpXpXpXpXpXpXpXpXpXpXpXpXpXpXpXpXpXpXwXwXwXwXpXpXpXpXpXpXpXpXpXwXwXwXpX<X<X<X<X7X7X7X7X7XpXpXpXpX9X9X9X9XpXpXpXpX>X>X>X>X>X8X8X8X8XpXpXpXpXpXpXpXpXpX9X9X9X9XpXpXpXpXpXpXpXpXpXpXpXpXpXpXpXpXpXpXpXpXpXpXpXpXpXpXpXpXpXpXpXpXpXpXpXpXpXpXpXpXpXpXpXpXpXpXpXpXpXpXpXpXpXpXpXpXpXpXpXpXpXpXpXpXpXpXpXpXpXpXpXpXpXpXpXpXpXpXpXpXpXpXpXpXpXpXpXpXpXpXpXpXpXpXpXpXpXpXpXpXpXpXpXpXpXpXpXpXpXpXpXpXpXpXpXpXpXpXpXpXpXpXpXpXpXpXpXpXpXpXpXpXpXpXpXpXpXpXpXpXpXpXpXpXpXpXpXpXpXpXpXpXpXpXpXpXpXpXpXpXpX",
"pXpXpXpXpXpXpXpXpXpXpXpXpXpXpXpXpXpXpXpXpXpXpXpXpXpXpXpXpXpXpXpXpX7X7X7X7X9X9X9X9X9X9X9X9X9X-X-X-X-X7X7X7X7X:X:X:X:X<X<X<X<X<XpXpXpXpXqXqXqXqXqXqXqXqXpXpXpXpXpXpXpXpXpXpXpXpXpXpXpXpXpXpXpXpXpXpXpXpXpXpX7X7X7X7X>X>X>X>X>XpXpXpXpX8X8X8X8XwXwXwXwXwX4X4X4X4XwXwXwXwX8X8X8X8XwXwXwXwXwX8X8X8X8X8X8X8X8X8X8X8X8X8XwXwXwXwXpXpXpXpX9X9X9X9XpXpXpXpXpXwXwXwXwXqXqXqXqX7X7X7X7X8X8X8X8X8X<X<X<X<X:X:X:X:X7X7X7X7X7X5X5X5X5X<X<X<X<X7X7X7X7XpXpXpXpXpX2X2X2X2X<X<X<X<XpXpXpXpXpXpXpXpXpXwXwXwXwXpXpXpXpXpXpXpXpXpXpXpXpXpXpXpXpXpXpXpXpXpXpXpXpXpXpXpXpXpXpXpXpXpXpXpXpXpXpXpXpXpXpXpXpXpXpXpXpXpXpXpXpXpXpXpXpXpXpXpXpXpXpXpXpXpXpXpXpXpXpXpXpXpXpXpXpXpXpXpXpXpXpXpXpXpXpXpXpXpXpXpXpXpXpXpXpXpXpXpXpXpXpXpXpXpXpXpXpXpXpXpXpXpXpXpXpXpXpXpXpXpXpXpXpXpXpXpXpXpXpXpXpXpXpXpXpXpXpXpXpXpXpXpXpXpXpXpXpXpXpXpXpXpXpXpXpXpX",
"pXpXpXpXpXpXpXpXpXpXpXpXpXpXpXpXpXpXpXpXpXpXpXpXpXpXpXpXpXpXpXpXpX7X7X7X7X9X9X9X9X9X9X9X9X9X-X-X-X-X7X7X7X7X:X:X:X:X<X<X<X<X<XpXpXpXpXqXqXqXqXqXqXqXqXpXpXpXpXpXpXpXpXpXpXpXpXpXpXpXpXpXpXpXpXpXpXpXpXpXpX7X7X7X7X>X>X>X>X>XpXpXpXpX8X8X8X8XwXwXwXwXwXrXrXrXrXwXwXwXwX8X8X8X8XwXwXwXwXwX8X8X8X8X8X8X8X8X8X8X8X8X8XwXpXpXwXpXpXpXpXqX9X9X9XpXpXpXpXpXwXwXwXwXqXqXqXqX7X7X7X7X8X8X8X8X8X<X<X<X<X:X:X:X:X7XtXtXtX7XrXrX5X5X<X<X<X<X7X7X7X7XpXpXpXpXpX2X2X2X2X<X<X<X<XpXpXpXpXpXpXpXpXpXwXwXwXwXpXpXpXpXpXpXpXpXpXpXpXpXpXpXpXpXpXpXpXpXpXpXpXpXpXpXpXpXpXpXpXpXpXpXpXpXpXpXpXpXpXpXpXpXpXpXpXpXpXpXpXpXpXpXpXpXpXpXpXpXpXpXpXpXpXpXpXpXpXpXpXpXpXpXpXpXpXpXpXpXpXpXpXpXpXpXpXpXpXpXpXpXpXpXpXpXpXpXpXpXpXpXpXpXpXpXpXpXpXpXpXpXpXpXpXpXpXpXpXpXpXpXpXpXpXpXpXpXpXpXpXpXpXpXpXpXpXpXpXpXpXpXpXpXpXpXpXpXpXpXpXpXpXpXpXpXpX",
"pXpXpXpXpXpXpXpXpXpXpXpXpXpXpXpXpXpXpXpXpXpXpXpXpXpXpXpXpXpXpXpXpX7X7X7X7X9X9X9X9X9X9X9X9X9X-X-X-X-X7X7X7X7X:X:X:X:X<X<X<X<X<XpXpXpXpXqXqXqXqXqXqXqXqXpXpXpXpXpXpXpXpXpXpXpXpXpXpXpXpXpXpXpXpXpXpXpXpXpXpX7X7X7X7X>X>X>X>X>XpXpXpXpX8X8X8X8XwXwXwXwXwXrXrXrXrXwXwXwXwX8X8X8X8XwXwXwXwXwX8X8X8X8X8X8X8X8X8X8X8X8X9XpXpXpXwXpXpXpXpXqX9X9X9XpXpXpXpXpXwXwXwXwXqXqXqXqX7X7X7X7X8X8X8X8X8X<X<X<X<X:X:X:X:X7XtXtX7X7X5X5X5X5X<X<X<X<X7X7X7X7XpXpXpXpXpX2X2X2X2X<X<X<X<XpXpXpXpXpXpXpXpXpXwXwXwXwXpXpXpXpXpXpXpXpXpXpXpXpXpXpXpXpXpXpXpXpXpXpXpXpXpXpXpXpXpXpXpXpXpXpXpXpXpXpXpXpXpXpXpXpXpXpXpXpXpXpXpXpXpXpXpXpXpXpXpXpXpXpXpXpXpXpXpXpXpXpXpXpXpXpXpXpXpXpXpXpXpXpXpXpXpXpXpXpXpXpXpXpXpXpXpXpXpXpXpXpXpXpXpXpXpXpXpXpXpXpXpXpXpXpXpXpXpXpXpXpXpXpXpXpXpXpXpXpXpXpXpXpXpXpXpXpXpXpXpXpXpXpXpXpXpXpXpXpXpXpXpXpXpXpXpXpXpX",
"pXpXpXpXpXpXpXpXpXpXpXpXpXpXpXpXpXpXpXpXpXpXpXpXpXpXpXpXpXpXpXpXpX7X7X7X7X9X9X9X9X9X9X9X9X9X-X-X-X-X7X7X7X7X:X:X:X:X<X<X<X<X<XpXpXpXpXqXqXqXqXqXqXqXqXpXpXpXpXpXpXpXpXpXpXpXpXpXpXpXpXpXpXpXpXpXpXpXpXpXpX7X7X7X7X>X>X>X>X>XpXpXpXpX8X8X9X9XwXwXwXwXwXrX2XrXrXwXwXwXwX8X8X8X8XwXwXwXwXwX8X8X8X8X9X9X8X8X8X8X8X8X8XwXpXpXwXpXpXpXpX9X9X9X9XpXpXpXpXpXwXwXwXwXqXqXqXqX7X7X7X7X8X8X8X8X8X<X<X<X<X:X:X:X:X7XtXtXtXtX5X5X5X5X<X<X<X<X7X7X7X7XpXpXpXpXpX2X2X2X2X<X<X<X<XpXpXpXpXpXpXpXpXpXwXwXwXwXpXpXpXpXpXpXpXpXpXpXpXpXpXpXpXpXpXpXpXpXpXpXpXpXpXpXpXpXpXpXpXpXpXpXpXpXpXpXpXpXpXpXpXpXpXpXpXpXpXpXpXpXpXpXpXpXpXpXpXpXpXpXpXpXpXpXpXpXpXpXpXpXpXpXpXpXpXpXpXpXpXpXpXpXpXpXpXpXpXpXpXpXpXpXpXpXpXpXpXpXpXpXpXpXpXpXpXpXpXpXpXpXpXpXpXpXpXpXpXpXpXpXpXpXpXpXpXpXpXpXpXpXpXpXpXpXpXpXpXpXpXpXpXpXpXpXpXpXpXpXpXpXpXpXpXpXpX",
"pXpXpXpXpXpXpXpXpXpXpXpXpXpXpXpXpXpXpXpXpXpXpXpXpXpXpXpX5X5X5X5X5X<X<X<X<XqXqXqXqX1X1X1X1X1X#.$.$.$.rXrXrXrX1X1X1X1X>X>X>X>X>X9X9X9X9XpXpXpXpX9X9X9X9XpXpXpXpXpXpXpXpXpXpXpXpXpXpXpXpXpXpXpXpXpXpX5X5X5X5X9X9X9X9X<X<X<X<X<X7X7X7X7X@X@X@X@X-X-X-X-X-X5X5X5X5XpXpXpXpX<X<X<X<X>X>X>X>X>X5X5X5X5XpXpXpXpXpXpXpXpXpX7X7X7X7X7X7X7X7X9X9X9X9XwXwXwXwXwXpXpXpXpXqXqXqXqX5X5X5X5X9X9X9X9X9X7X7X7X7X,X,X,X,X*X*X*X*X*X<X<X<X<XqXqXqXqX;X;X;X;XP P P P P %X%X%X%X5X5X5X5XpXpXpXpXpX9X9X9X9XpXpXpXpXpXpXpXpXpXpXpXpXpXpXpXpXpXpXpXpXpXpXpXpXpXpXpXpXpXpXpXpXpXpXpXpXpXpXpXpXpXpXpXpXpXpXpXpXpXpXpXpXpXpXpXpXpXpXpXpXpXpXpXpXpXpXpXpXpXpXpXpXpXpXpXpXpXpXpXpXpXpXpXpXpXpXpXpXpXpXpXpXpXpXpXpXpXpXpXpXpXpXpXpXpXpXpXpXpXpXpXpXpXpXpXpXpXpXpXpXpXpXpXpXpXpXpXpXpXpXpXpXpXpXpXpXpXpXpXpXpXpXpXpXpXpXpXpXpXpXpXpXpXpXpXpXpXpXpXpXpX",
"pXpXpXpXpXpXpXpXpXpXpXpXpXpXpXpXpXpXpXpXpXpXpXpXpXpXpXpX5X5X5X5X5X<X<X<X<XqXqXqXqX1X1X1X1X1X$.$.$.$.rXrXrXrX1X1X1X1X>X>X>X>X>X9X9X9X9XpXpXpXpX9X9X9X9XpXpXpXpXpXpXpXpXpXpXpXpXpXpXpXpXpXpXpXpXpXpX5X5X5X5X9X9X9X9X<X<X<X<X<X7X7X7X7X@X@X@X@X-X-X-X-X-X5X5X5X5XpXpXpXpX<X<X<X<X>X>X>X>X>X5X5X5X5XpXpXpXpXpXpXpXpXpX7X7X7X7X7X7X7X7X9X9X9X9XwXwXwXwXwXpXpXpXpXqXqXqXqX5X5X5X5X9X9X9X9X9X7XuX7X7X,X,X,X>X*X*X*X*X*X<X<X4X4XqXqXqXqX;X;X;X;XP P P P P %X%X%X%X5X5X5X5XpXpXpXpXpX9X9X9X9XpXpXpXpXpXpXpXpXpXpXpXpXpXpXpXpXpXpXpXpXpXpXpXpXpXpXpXpXpXpXpXpXpXpXpXpXpXpXpXpXpXpXpXpXpXpXpXpXpXpXpXpXpXpXpXpXpXpXpXpXpXpXpXpXpXpXpXpXpXpXpXpXpXpXpXpXpXpXpXpXpXpXpXpXpXpXpXpXpXpXpXpXpXpXpXpXpXpXpXpXpXpXpXpXpXpXpXpXpXpXpXpXpXpXpXpXpXpXpXpXpXpXpXpXpXpXpXpXpXpXpXpXpXpXpXpXpXpXpXpXpXpXpXpXpXpXpXpXpXpXpXpXpXpXpXpXpXpXpXpXpX",
"pXpXpXpXpXpXpXpXpXpXpXpXpXpXpXpXpXpXpXpXpXpXpXpXpXpXpXpX5X5X5X5X5X<X<X<X<XqXqXqXqX1X1X1X1X1X$.$.$.$.rXrXrXrX1X1X1X1X>X>X>X>X>X9X9X9X9XpXpXpXpX9X9X9X9XpXpXpXpXpXpXpXpXpXpXpXpXpXpXpXpXpXpXpXpXpXpX5X5X5X5X9X8X8X9X<X<X<X<X<X7X7X7X7X@X@X@X@X-X-X-X-X-X5X5X5X5XpXpXpXpX<X<X<X<X>X>X>X>X>X5X5X5X5XpXpXpXpXpXpXpXpXpX7X7X7X7X7X7X7X7X9X9X9X9XwXwXwXwXwXpXpXpXpXqXqXqXqX5X5X5X5X9X9X9X9X9X7X7X7X7X,X,X,X>X*X*X*X*X*X<X<X2X4XqXqXqXqX;X;X;X;XP P P P P %X%X%X%X5X5X5X5XpXpXpXpXpX9X9X9X9XpXpXpXpXpXpXpXpXpXpXpXpXpXpXpXpXpXpXpXpXpXpXpXpXpXpXpXpXpXpXpXpXpXpXpXpXpXpXpXpXpXpXpXpXpXpXpXpXpXpXpXpXpXpXpXpXpXpXpXpXpXpXpXpXpXpXpXpXpXpXpXpXpXpXpXpXpXpXpXpXpXpXpXpXpXpXpXpXpXpXpXpXpXpXpXpXpXpXpXpXpXpXpXpXpXpXpXpXpXpXpXpXpXpXpXpXpXpXpXpXpXpXpXpXpXpXpXpXpXpXpXpXpXpXpXpXpXpXpXpXpXpXpXpXpXpXpXpXpXpXpXpXpXpXpXpXpXpXpXpXpX",
"pXpXpXpXpXpXpXpXpXpXpXpXpXpXpXpXpXpXpXpXpXpXpXpXpXpXpXpX5X5X5X5X5X<X<X<X<XqXqXqXqX1X1X1X1X1X$.$.$.$.rXrXrXrX1X1X<X1X>X>X>X>X>X9X9X9X9XpXpXpXpX9X9X9X9XpXpXpXpXpXpXpXpXpXpXpXpXpXpXpXpXpXpXpXpXpXpX5X5X5X5X8X9X8X9X<X<X<X<X<X7X7X7X7X@X@X@X@X:X:X-X:X-X5X5X5X5XpXpXpXpX<X<X<X<X>X>X>X>X>X5X5X5X5XpXpXpXpXpXpXpXpXpX7X7X7X7X7X7X7X7X9X9X9X9XwXwXwXwXwXpXpXpXpXqXqXqXqX5X5X5X5X9X9X9X9X9X7X7X7X7X,X,X,X>X*X*X*X*X*X<X2X2X4XqXqXqXqX;X;X;X;XP P P P P %X%X%X%X5X5X5X5XpXpXpXpXpX9X9X9X9XpXpXpXpXpXpXpXpXpXpXpXpXpXpXpXpXpXpXpXpXpXpXpXpXpXpXpXpXpXpXpXpXpXpXpXpXpXpXpXpXpXpXpXpXpXpXpXpXpXpXpXpXpXpXpXpXpXpXpXpXpXpXpXpXpXpXpXpXpXpXpXpXpXpXpXpXpXpXpXpXpXpXpXpXpXpXpXpXpXpXpXpXpXpXpXpXpXpXpXpXpXpXpXpXpXpXpXpXpXpXpXpXpXpXpXpXpXpXpXpXpXpXpXpXpXpXpXpXpXpXpXpXpXpXpXpXpXpXpXpXpXpXpXpXpXpXpXpXpXpXpXpXpXpXpXpXpXpXpXpXpX",
"pXpXpXpXpXpXpXpXpXpXpXpXpXpXpXpXpXpXpXpXpXpXpXpXpXpXpXpXpXpXpXpXpX2X2X4X4XqXqXqXqX;X;X;X;X;XP P P P rXrXrXrX4X4XrX4X-X-X-X-X-X<X<X<X<X5X5X5X5X9X9X9X9XwXwXwXwXwXpXpXpXpXpXpXpXpXpXpXpXpXpXqXqXqXqX5X5X5X5X5X5X5X5XqXqXqXqXqX&X&X*X*XC.C.C.C.@X@X@X@X@X%X%X%X%XqXwXqXqX-X-X-X-X4X4X4X4X4X<X<X<X<X7X7X7X7X7X7X7X7X7X>X>X>X>X<X<X<X<XpXpXpXpX5X5X5X5X5XpXpXpXpXpXpXpXpX5X5X5X5XwXwXwXwXwXqXqXqXqX;X&X&X&XOXOXOXOXOX<X<X<X<XtXtXtXtX;X;X;X;XOXOXOXOXOXuXuXuXuX9X9X9X9XpXpXpXpXpX5X5X5X5XwXwXwXwXpXpXpXpXpXpXpXpXpXpXpXpXpXpXpXpXpXpXpXpXpXpXpXpXpXpXpXpXpXpXpXpXpXpXpXpXpXpXpXpXpXpXpXpXpXpXpXpXpXpXpXpXpXpXpXpXpXpXpXpXpXpXpXpXpXpXpXpXpXpXpXpXpXpXpXpXpXpXpXpXpXpXpXpXpXpXpXpXpXpXpXpXpXpXpXpXpXpXpXpXpXpXpXpXpXpXpXpXpXpXpXpXpXpXpXpXpXpXpXpXpXpXpXpXpXpXpXpXpXpXpXpXpXpXpXpXpXpXpXpXpXpXpXpXpXpXpXpXpXpXpXpXpXpXpXpXpX",
"pXpXpXpXpXpXpXpXpXpXpXpXpXpXpXpXpXpXpXpXpXpXpXpXpXpXpXpXpXpXpXpXpX2X2X2X2XqXqXqXqX;X;X;X;X;XP P P P rXrXrXrX4X4X4X4X-X-X-X-X-X<X<X<X<X5X5X5X5X9X9X9X9XwXwXwXwXwXpXpXpXpXpXpXpXpXpXpXpXpXpXqXqXqXwX5X5X5X5X5X5X5XrXqXqXqXqXqX*X*X*X*XC.C.C.C.@X@X@X@X@X%X%X%X%XqXqXqXqX-X-X-X-X4X4X4X4X4X<X<X<X<X7X7X7X7X7X7X7X7X7X>X>X>X>X<X<X<X<XpXpXpXpX5X5X5X5X5XpXpXpXpXpXpXpXpX5X5X5X5XwXwXwXwXwXqXqXqXqX;X&X&X&XOXOXOXOXOX1X1X1X1X7X7XtXtX;X;X;X;XOXOXOXOXOXuXuXuXuX9X9X9X9XpXpXpXpXpX5X5X5X5XwXwXwXwXpXpXpXpXpXpXpXpXpXpXpXpXpXpXpXpXpXpXpXpXpXpXpXpXpXpXpXpXpXpXpXpXpXpXpXpXpXpXpXpXpXpXpXpXpXpXpXpXpXpXpXpXpXpXpXpXpXpXpXpXpXpXpXpXpXpXpXpXpXpXpXpXpXpXpXpXpXpXpXpXpXpXpXpXpXpXpXpXpXpXpXpXpXpXpXpXpXpXpXpXpXpXpXpXpXpXpXpXpXpXpXpXpXpXpXpXpXpXpXpXpXpXpXpXpXpXpXpXpXpXpXpXpXpXpXpXpXpXpXpXpXpXpXpXpXpXpXpXpXpXpXpXpXpXpXpXpX",
"pXpXpXpXpXpXpXpXpXpXpXpXpXpXpXpXpXpXpXpXpXpXpXpXpXpXpXpXpXpXpXpXpX2X2X2X2XqXqXqXqX;X;X;X;X;XP P P P rXrXrXtX4X4X4X4X-X-X-X-X-X<X<X<X<X5X5X5X5X9X9X9X9XwXwXwXwXwXpXpXpXpXpXpXpXpXpXpXpXpXpXqXqXqXwX5X5X5X5X5X5X5XrXqXqXqXqXqX*X*X*X*XC.C.C.C.@X@X@X@X@X%X%X%X%XqXqXqXqX-X-X-X-X4X4X4X4X4X<X<X<X<X7X7X7X7X7X7X7X7X7X>X>X>X>X2X2X<X<XpXpXpXpX5X5X5X5X5XpXpXpXpXpXpXpXpX5X5X5X5XwXwXwXwXwXqXqXqXqX;X&X&X&XOXOXOXOXOX1X1X1X1X7X7XtXtX;X;X;X;XOXOXOXOXOXuXuXuXuX9X9X9X9XpXpXpXpXpX5X5X5X5XwXwXwXwXpXpXpXpXpXpXpXpXpXpXpXpXpXpXpXpXpXpXpXpXpXpXpXpXpXpXpXpXpXpXpXpXpXpXpXpXpXpXpXpXpXpXpXpXpXpXpXpXpXpXpXpXpXpXpXpXpXpXpXpXpXpXpXpXpXpXpXpXpXpXpXpXpXpXpXpXpXpXpXpXpXpXpXpXpXpXpXpXpXpXpXpXpXpXpXpXpXpXpXpXpXpXpXpXpXpXpXpXpXpXpXpXpXpXpXpXpXpXpXpXpXpXpXpXpXpXpXpXpXpXpXpXpXpXpXpXpXpXpXpXpXpXpXpXpXpXpXpXpXpXpXpXpXpXpXpXpX",
"pXpXpXpXpXpXpXpXpXpXpXpXpXpXpXpXpXpXpXpXpXpXpXpXpXpXpXpXpXpXpXpXpX2X2X2X2XqXqXqXqX;X;X;X;X;XP P P P rXrXrXrX4X4X4X4X-X-X-X-X-X<X<X<X<X5X5X5X5X9X9X9X9XwXwXwXwXwXpXpXpXpXpXpXpXpXpXpXpXpXpXqXqXqXwX5X5X5X5X5X5X5XrXqXqXqXqXqX*X*X&X*XC.C.C.C.@X@X@X@X@X%X%X%X%XqXqXqXwX-X-X-X-X4X4X4X4X4X<X<X<X<X7X7X7X7X7X7X7X7X7X>X>X>X>X2X<X<X<XpXpXpXpX5X5X5X5X5XpXpXpXpXpXpXpXpX5X5X5X5XwXwXwXwXwXqXqXqXqX;X&X&X&XOXOXOXOXOX1X<X1X1X7X7XtXtX;X;X;X;XOXOXOXOXOXuXuXuXuX9X9X9X9XpXpXpXpXpX5X5X5X5XwXwXwXwXpXpXpXpXpXpXpXpXpXpXpXpXpXpXpXpXpXpXpXpXpXpXpXpXpXpXpXpXpXpXpXpXpXpXpXpXpXpXpXpXpXpXpXpXpXpXpXpXpXpXpXpXpXpXpXpXpXpXpXpXpXpXpXpXpXpXpXpXpXpXpXpXpXpXpXpXpXpXpXpXpXpXpXpXpXpXpXpXpXpXpXpXpXpXpXpXpXpXpXpXpXpXpXpXpXpXpXpXpXpXpXpXpXpXpXpXpXpXpXpXpXpXpXpXpXpXpXpXpXpXpXpXpXpXpXpXpXpXpXpXpXpXpXpXpXpXpXpXpXpXpXpXpXpXpXpXpX",
"pXpXpXpXpXpXpXpXpXpXpXpXpXpXpXpXpXpXpXpXpXpXpXpXpXpXpXpXpXpXpXpXpX2X2X2X2XqXqXqXqX;X;X;X;X;XP P P P rXrXrXrX4X4X4X4X-X-X-X-X-X<X<X<X<X5X5X5X5X9X9X9X9XwXwXwXwXwXpXpXpXpXpXpXpXpXpXpXpXpXpXqXqXqXwX5X5X5X5X5X5X5X5XqXqXqXqXqX&X&X&X&XC.C.C.C.@X@X@X@X@X%X%X%X%XqXqXwXwX-X-X-X-X4X4X4X4X4X<X<X<X<X7X7X7X7X7X7X7X7X7X>X>X>X>X2X<X2X<XpXpXpXpX5X5X5X5X5XpXpXpXpXpXpXpXpX5X5X5X5XwXwXwXwXwXqXqXqXqX;X;X&X&XOXOXOXOXOX<X<X<X<X7X7XtXtX;X;X;X;XOXOXOXOXOXuXuXuXuX9X9X9X9XpXpXpXpXpX5X5X5X5XwXwXwXwXpXpXpXpXpXpXpXpXpXpXpXpXpXpXpXpXpXpXpXpXpXpXpXpXpXpXpXpXpXpXpXpXpXpXpXpXpXpXpXpXpXpXpXpXpXpXpXpXpXpXpXpXpXpXpXpXpXpXpXpXpXpXpXpXpXpXpXpXpXpXpXpXpXpXpXpXpXpXpXpXpXpXpXpXpXpXpXpXpXpXpXpXpXpXpXpXpXpXpXpXpXpXpXpXpXpXpXpXpXpXpXpXpXpXpXpXpXpXpXpXpXpXpXpXpXpXpXpXpXpXpXpXpXpXpXpXpXpXpXpXpXpXpXpXpXpXpXpXpXpXpXpXpXpXpXpXpX",
"pXpXpXpXpXpXpXpXpXpXpXpXpXpXpXpXpXpXpXpXpXpXpXpXqXqXqXqX5X5X5X5X5X:X:X:X:XwXwXwXqXXXXXXXXXXX#.#.#.#.P P P P -X-X-X-XrXrXrXrXrXuX8X8X8XwXqXwXwXpXpXpXpXpXpXpXpXpXwXwXwXwXwXwXwXwX9X9X9XqXqXwXwXwXwXwXwXwXwX<X<X<X<X+X+X+X@X@X$X$X$X$XV.V.V.V.@.@.@.@.@.>X>X>X>X%X%X%X%XwXwXwXwXuXuXuXuXuX9X9XuXuX:X:X:X:XpXpXpXpXpX-X-X-X-X$X$X$X$X-X-X-X-XwXwXwXpXpXwXwXwXwXpXpXpXpXpXpXpXpX>X>X>X>X>XpXpXpXpXrXrXrXrXo.o.o.o.o.X.X.X.X.9X9X9XuX;X;X;X;XOXOXOXOXOX$.$.$.$.rXrXrXrX9X9X9X8X8XpXpXpXpXpXpXpXpXpXpXpXpXpXpXpXpXpXpXpXpXpXpXpXpXpXpXpXpXpXpXpXpXpXpXpXpXpXpXpXpXpXpXpXpXpXpXpXpXpXpXpXpXpXpXpXpXpXpXpXpXpXpXpXpXpXpXpXpXpXpXpXpXpXpXpXpXpXpXpXpXpXpXpXpXpXpXpXpXpXpXpXpXpXpXpXpXpXpXpXpXpXpXpXpXpXpXpXpXpXpXpXpXpXpXpXpXpXpXpXpXpXpXpXpXpXpXpXpXpXpXpXpXpXpXpXpXpXpXpXpXpXpXpXpXpXpXpXpXpXpXpXpXpXpXpXpXpXpXpXpXpXpXpXpXpX",
"pXpXpXpXpXpXpXpXpXpXpXpXpXpXpXpXpXpXpXpXpXpXpXpXqXqXqXqX5X5X5X5X5X:X:X:X:XwXwXwXqXXXXXXXXXXX#.#.#.#.P P P P -X-X-X-XrXrXrXrXrXuX8X8X8XwXqXwXqXpXpXpXpXpXpXpXpXpXwXwXwXwXwXwXwXwX9X9XqXqXqXwXwXwXwXwXwXwXwX<X<X<X<X+X+X+X@X@X$X$X$X$XV.V.V.V.@.@.@.@.@.>X>X>X>X%X%X%X%XwXwXwXwXuXuXuXuXuX9X9X9X9X:X:X:X:XpXpXpXpXpX-X-X-X-X$X$X$X$X-X-X-X-XwXwXwXpXpXwXwXwXwXpXpXpXpXpXpXpXpX>X>X>X>X>XpXpXpXpXrXrXrXrXo.o.o.o.o.X.I X.X.9X8X9XuX;X;X;X;XOXOXOXOXOX$.$.$.$.rXrXrXrX9X9X9X8X8XpXpXpXpXpXpXpXpXpXpXpXpXpXpXpXpXpXpXpXpXpXpXpXpXpXpXpXpXpXpXpXpXpXpXpXpXpXpXpXpXpXpXpXpXpXpXpXpXpXpXpXpXpXpXpXpXpXpXpXpXpXpXpXpXpXpXpXpXpXpXpXpXpXpXpXpXpXpXpXpXpXpXpXpXpXpXpXpXpXpXpXpXpXpXpXpXpXpXpXpXpXpXpXpXpXpXpXpXpXpXpXpXpXpXpXpXpXpXpXpXpXpXpXpXpXpXpXpXpXpXpXpXpXpXpXpXpXpXpXpXpXpXpXpXpXpXpXpXpXpXpXpXpXpXpXpXpXpXpXpXpXpXpXpXpX",
"pXpXpXpXpXpXpXpXpXpXpXpXpXpXpXpXpXpXpXpXpXpXpXpXqXqXqXqX5X5X5X5X5X:X:X:X:XwXwXwXqXXXXXXXXXXX#.#.#.#.P P P P ;X;X;X;XrXrXrXrXrX8X8X8X8XwXqXqXqXpXpXpXpXpXpXpXpXpXwXwXwXwXwXwXwXwX9X9XqXqXqXwXwXwXwXwXwXwXwX<X<X<X<X+X+X+X@X@X$X$X$X$XV.V.V.V.@.@.@.@.@.>X>X>X>X%X%X%X%XwXwXwXwXuXuXuXuXuX9X9X9X9X:X:X:X:XpXpXpXpXpX-X-X-X-X$X$X$X$X-X-X-X-XpXpXpXpXpXwXwXwXwXpXpXpXpXpXpXpXpX>X>X>X>X>XpXpXpXpXrXrXrXrXo.o.o.o.o.X.X.X.X.9X9X9X9X;X;X;X;XOXOXOXOXOX#.$.$.$.rXrXrXrX9X8X8X8X8XpXpXpXpXpXpXpXpXpXpXpXpXpXpXpXpXpXpXpXpXpXpXpXpXpXpXpXpXpXpXpXpXpXpXpXpXpXpXpXpXpXpXpXpXpXpXpXpXpXpXpXpXpXpXpXpXpXpXpXpXpXpXpXpXpXpXpXpXpXpXpXpXpXpXpXpXpXpXpXpXpXpXpXpXpXpXpXpXpXpXpXpXpXpXpXpXpXpXpXpXpXpXpXpXpXpXpXpXpXpXpXpXpXpXpXpXpXpXpXpXpXpXpXpXpXpXpXpXpXpXpXpXpXpXpXpXpXpXpXpXpXpXpXpXpXpXpXpXpXpXpXpXpXpXpXpXpXpXpXpXpXpXpXpXpX",
"pXpXpXpXpXpXpXpXpXpXpXpXpXpXpXpXpXpXpXpXpXpXpXpXqXqXqXqX5X5X5X5X5X:X:X:X:XwXwXwXqXXXXXXXXXXX#.#.#.#.P P P P ;X;X;X-XrXrXrXrXrX8X8X8X8XwXwXqXqXpXpXpXpXpXpXpXpXpXwXwXwXwXwXwXwXwX9X9XqXqXqXwXwXwXwXwXwXwXwX<X<X<X<X+X+X+X@X@X$X$X$X$XV.V.V.V.@.@.@.@.@.>X>X>X>X%X%X%X%XwXwXwXwXuXuXuXuXuX9X9X9X9X:X:X:X:XpXpXpXpXpX-X-X-X-X$X$X$X&X:X:X:X-XpXpXpXpXpXwXwXwXwXpXpXpXpXpXpXpXpX>X>X>X>X>XpXpXpXpXrXrXrXrXo.o.o.o.o.X.X.X.X.9X9X9X9X;X;X;X;XOXOXOXOXOX#.$.$.$.rXrXrXrX8X8X8X8X8XpXpXpXpXpXpXpXpXpXpXpXpXpXpXpXpXpXpXpXpXpXpXpXpXpXpXpXpXpXpXpXpXpXpXpXpXpXpXpXpXpXpXpXpXpXpXpXpXpXpXpXpXpXpXpXpXpXpXpXpXpXpXpXpXpXpXpXpXpXpXpXpXpXpXpXpXpXpXpXpXpXpXpXpXpXpXpXpXpXpXpXpXpXpXpXpXpXpXpXpXpXpXpXpXpXpXpXpXpXpXpXpXpXpXpXpXpXpXpXpXpXpXpXpXpXpXpXpXpXpXpXpXpXpXpXpXpXpXpXpXpXpXpXpXpXpXpXpXpXpXpXpXpXpXpXpXpXpXpXpXpXpXpXpXpX",
"pXpXpXpXpXpXpXpXpXpXpXpXpXpXpXpXpXpXpXpXpXpXpXpXpXpXpXpXpXpXpXpXpXpXpXpXpXqXqXqXqXpXpXqXqXqX4X4X4X4X@X@X@X@X2X2X2X2X5X5X5X5X5X:X:X:X:XqXwXwXwX7X7X7X7X8X9X9X9X9XpXpXpXpXpXpXpXpX2X2X2X2X2XpXpXpXpX8X8X8X8X7X7X7X7X.X.X.X.X.XK K K K a.a.a.a.J.J.J.J.J.V.V.V.V.&X&X&X&X-X-X-X-XqXwXwXwXwXpXpXpXpX9X9X9X9X7X7X7X7X7X@.@.@.X.#.#.#.#.4X4X4X4X-X-X-X-X-X>X>X>X>XwXwXwXwXpXpXpXpX8X9X9X8X8X4X4X4X4XpXpXpXpXuXuXuXuXuX9X9X9XuX-X-X:X:X5X5X5X5X&X&X&X&X&XuX9X9X9X<X<X<X<XpXpXpXpXpX7X7X7X7XqXqXqXqXpXpXpXpXpXpXpXpXpXpXpXpXpXpXpXpXpXpXpXpXpXpXpXpXpXpXpXpXpXpXpXpXpXpXpXpXpXpXpXpXpXpXpXpXpXpXpXpXpXpXpXpXpXpXpXpXpXpXpXpXpXpXpXpXpXpXpXpXpXpXpXpXpXpXpXpXpXpXpXpXpXpXpXpXpXpXpXpXpXpXpXpXpXpXpXpXpXpXpXpXpXpXpXpXpXpXpXpXpXpXpXpXpXpXpXpXpXpXpXpXpXpXpXpXpXpXpXpXpXpXpXpXpXpXpXpXpXpXpXpXpXpXpXpXpXpXpXpXpXpXpXpXpXpXpXpXpX",
"pXpXpXpXpXpXpXpXpXpXpXpXpXpXpXpXpXpXpXpXpXpXpXpXpXpXpXpXpXpXpXpXpXpXpXpXpXqXqXqXqXpXpXqXqXqX4X4X4X4X@X$X@X@X2X2X2X2X5X5X5X5X5X:X:X:X:XqXwXwXwX7X7X7X7X8X8X8X9X9XpXpXpXpXpXpXpXpX2X2X2X2X2XpXpXpXpX8X8X8X8X7X7X7X7X.X.X.X.X.XK K K K a.a.a.a.J.J.J.J.J.V.V.V.V.%X&X&X&X-X-X-X-XwXwXwXwXwXpXpXpXpX9X9X9X9X7X7X7X7X7X@.@.@.X.#.#.#.#.4X4X4X4X-X-X-X-X-X>X>X>X>XwXwXwXwXpXpXpXpX8X8X9X8X8X4X4X4X4XpXpXpXpXuXuXuXtXtX9X9X9X9X-X-X:X:X5X5X5X5X&X&X&X&X&XuX9X9X9X<X<X<X<XpXpXpXpXpX7X7X7X7XqXqXqXqXpXpXpXpXpXpXpXpXpXpXpXpXpXpXpXpXpXpXpXpXpXpXpXpXpXpXpXpXpXpXpXpXpXpXpXpXpXpXpXpXpXpXpXpXpXpXpXpXpXpXpXpXpXpXpXpXpXpXpXpXpXpXpXpXpXpXpXpXpXpXpXpXpXpXpXpXpXpXpXpXpXpXpXpXpXpXpXpXpXpXpXpXpXpXpXpXpXpXpXpXpXpXpXpXpXpXpXpXpXpXpXpXpXpXpXpXpXpXpXpXpXpXpXpXpXpXpXpXpXpXpXpXpXpXpXpXpXpXpXpXpXpXpXpXpXpXpXpXpXpXpXpXpXpXpXpXpX",
"pXpXpXpXpXpXpXpXpXpXpXpXpXpXpXpXpXpXpXpXpXpXpXpXpXpXpXpXpXpXpXpXpXpXpXpXpXqXqXqXqXpXqXqXqXqX4X4X4X4X@X@X@X$X4X2X2X2XrX5X5X5X5X:X:X:X:XqXwXwXwX7X7X7X7X8X8X8X8X8XpXpXpXpXpXpXpXpX2X2X2X2X2XpXpXpXpX8X8X8X8X7X7X7X7X.X.X.X.X.XK K K K a.a.a.a.J.J.J.C.C.V.V.V.V.&X&X&X&X-X-X-X-XwXwXwXwXwXpXpXpXpX9X9X9X9X7X7X7X7X7X@.@.@.X.#.#.#.#.4X4X4X4X-X-X-X-X-X>X>X>X>XwXwXwXwXpXpXpXpX8X8X8X9X8X4X4X4X4XpXpXpXpXuXtXtXtXtX9X9X9X9X-X-X:X:X5X5X5X5X&X&X&X&X&XuXuX9X9X<X<X<X<XpXpXpXpXpX7X7X7X7XqXqXqXqXpXpXpXpXpXpXpXpXpXpXpXpXpXpXpXpXpXpXpXpXpXpXpXpXpXpXpXpXpXpXpXpXpXpXpXpXpXpXpXpXpXpXpXpXpXpXpXpXpXpXpXpXpXpXpXpXpXpXpXpXpXpXpXpXpXpXpXpXpXpXpXpXpXpXpXpXpXpXpXpXpXpXpXpXpXpXpXpXpXpXpXpXpXpXpXpXpXpXpXpXpXpXpXpXpXpXpXpXpXpXpXpXpXpXpXpXpXpXpXpXpXpXpXpXpXpXpXpXpXpXpXpXpXpXpXpXpXpXpXpXpXpXpXpXpXpXpXpXpXpXpXpXpXpXpXpXpX",
"pXpXpXpXpXpXpXpXpXpXpXpXpXpXpXpXpXpXpXpXpXpXpXpXpXpXpXpXpXpXpXpXpXpXpXpXpXqXqXqXqXpXqXqXqXqX4X4X4X4X@X@X@X@X2X2X4X4XrX5X5X5X5X:X:X:X:XqXwXwXwX7X7X7X7X8X8X8X8X8XpXpXpXpXpXpXpXpX2X2X2X2X2XpXpXpXpX8X8X8X8X7X7X7X7X.X.X.X.X.XK K K K a.a.a.a.J.J.J.C.C.V.C.V.V.&X&X&X&X-X-X-X-XwXqXqXwXwXpXpXpXpX9X9X9X9X7X7X7X7X7X@.@.@.@.#.#.#.#.4X4X4X4X-X-X-X-X-X>X>X>X>XwXwXwXwXpXpXpXpX8X8X8X9X9X4X4X4X4XpXpXpXpXuXtXtXtXtX9X9X9X9X-X-X:X:X5X5X5X5X%X%X&X&X&XuXuX9X9X<X<X<X<XpXpXpXpXpX7X7X7X7XqXqXqXqXpXpXpXpXpXpXpXpXpXpXpXpXpXpXpXpXpXpXpXpXpXpXpXpXpXpXpXpXpXpXpXpXpXpXpXpXpXpXpXpXpXpXpXpXpXpXpXpXpXpXpXpXpXpXpXpXpXpXpXpXpXpXpXpXpXpXpXpXpXpXpXpXpXpXpXpXpXpXpXpXpXpXpXpXpXpXpXpXpXpXpXpXpXpXpXpXpXpXpXpXpXpXpXpXpXpXpXpXpXpXpXpXpXpXpXpXpXpXpXpXpXpXpXpXpXpXpXpXpXpXpXpXpXpXpXpXpXpXpXpXpXpXpXpXpXpXpXpXpXpXpXpXpXpXpXpXpX",
"qX9X9X9X9X9X9XpXpXpXpXqXqXqXqXqXpXpXpXpXpXpXpXpXwXwXwXwX7X7X7X7X7XpXpXpXpX7X7X7X7X:X:X:X:X:X&X&X&X&XZ.Z.Z.P <X<X<X<X7X7X7X7X7XpXpXpXpXpXpXpXpX2X2X2X2X5X5X5X5X5XpXpXpXpXpXpXpXpX:X:X:X:X:X:X:X:X:X<X<X<X<X>X>X>X:XU U U U U X.X.I I i.i.i.i.o.o.o.o.o.K.K.K.K. X X X X4X4X4X5X X X X X X>X>X>X>X<X<X<X<XXXXXXXXXXX@.@.@.@.K.K.K.#.4X4X4X4XqXqXqXqXqXpXpXpXpXpXpXpXpXpXpXpXpX9X9X9X9X9XpXpXpXpX7X5X7X7X5X5X5X5X5X<X<X<X<X>X>X>X>X>X>X>X>XpXpXpXpXpX2X<X<X<XqXqXqXqX9X9X9X9X9XpXpXpXpXqXqXqXqXqXqXwXwXpXpXpXpXpXqXqXqXqXpXpXpXpXwXwXwXwXwXpXpXpXpXpXpXpXpXpXpXpXpXpXpXpXpXpXpXpXpXpXpXpXpXpXpXpXpXpXpXpXpXpXpXpXpXpXpXpXpXpXpXpXpXpXpXpXpXpXpXpXpXpXpXpXpXpXpXpXpXpXpXpXpXpXpXpXpXpXpXpXpXpXpXpXpXpXpXpXpXpXpXpXpXpXpXpXpXpXpXpXpXpXpXpXpXpXpXpXpXpXpXpXpXpXpXpXpXpXpXpXpXpXpXpXpXpXpXpXpXpXpXpXpXpXpXpXpXpXpXpXpXpXpXpX",
"qX9XqX9X9X9X9XpXpXpXpXqXqXqXqXqXpXpXpXpXpXpXpXpXwXwXwXwX7X7X7X7X7XpXpXpXpX7X7X7X7X:X:X:X:X:X&X&X&X&XZ.Z.Z.P <X<X<X<X7X7X7X7X7XpXpXpXpXpXpXpXpX2X2X2X2X5X5X5X5X5XpXpXpXpXpXpXpXpX:X:X:X:X:X:X:X:X:X<X<X<X<X>X>X>X:XU U U U U X.X.I I i.i.i.i.o.o.o.o.o.K.K.K.K. X X X X4X4X4X4X X X X X X>X>X>X>X<X<X<X<XXXXXXXXXXX@.@.@.@.K.K.K.#.4X4X4X4XqXqXqXqXqXpXpXpXpXpXpXpXpXpXpXpXpX9X9X9X9X9XpXpXpXpX7X7X7X7X5X5X5X5X5X<X<X<X<X>X>X>X>X>X>X>X>XpXpXpXpXpX2X2X<X<XqXqXqXqX9X9X9X9X9XpXpXpXpXqXqXqXqXqXqXwXwXpXpXpXpXpXqXqXqXqXpXpXpXpXwXwXwXwXwXpXpXpXpXpXpXpXpXpXpXpXpXpXpXpXpXpXpXpXpXpXpXpXpXpXpXpXpXpXpXpXpXpXpXpXpXpXpXpXpXpXpXpXpXpXpXpXpXpXpXpXpXpXpXpXpXpXpXpXpXpXpXpXpXpXpXpXpXpXpXpXpXpXpXpXpXpXpXpXpXpXpXpXpXpXpXpXpXpXpXpXpXpXpXpXpXpXpXpXpXpXpXpXpXpXpXpXpXpXpXpXpXpXpXpXpXpXpXpXpXpXpXpXpXpXpXpXpXpXpXpXpXpXpXpX",
"qXqX9X9X9X9X9XpXpXpXpXqXqXqXqXqXpXpXpXpXpXpXpXpXwXwXwXwX7X7X7X7X7XpXpXpXpX7X7X7X7X:X:X:X:X:X&X&X&X&XZ.Z.Z.Z.<X<X<X<X7X7X7X7X7XpXpXpXpXpXpXpXpX2X2X2X2X5X5X5X5X5XpXpXpXpXpXpXpXpX:X:X:X:X:X:X:X:X:X<X<X<X<X:X>X>X:XU U U U U X.X.X.X.i.i.i.i.o.o.o.o.o.K.K.K.K. X X X X4X4X4X5X X X X X X>X>X>X>X<X<X<X<XXXXXXXXXXX@.@.@.@.#.K.K.#.4X4X4X4XqXqXqXqXqXpXpXpXpXpXpXpXpXpXpXpXpX9X9X9X9X9XpXpXpXpX7X7X7X5X5X5X5X5X5X<X<X<X<X>X>X>X>X>X>X>X>XpXpXpXpXpX2X<X<X2XqXqXqXqX9X9X9X9X9XpXpXpXpXqXqXqXqXwXwXwXwXpXpXpXpXpXqXqXqXqXpXpXpXpXwXwXwXwXwXpXpXpXpXpXpXpXpXpXpXpXpXpXpXpXpXpXpXpXpXpXpXpXpXpXpXpXpXpXpXpXpXpXpXpXpXpXpXpXpXpXpXpXpXpXpXpXpXpXpXpXpXpXpXpXpXpXpXpXpXpXpXpXpXpXpXpXpXpXpXpXpXpXpXpXpXpXpXpXpXpXpXpXpXpXpXpXpXpXpXpXpXpXpXpXpXpXpXpXpXpXpXpXpXpXpXpXpXpXpXpXpXpXpXpXpXpXpXpXpXpXpXpXpXpXpXpXpXpXpXpXpXpXpXpX",
"9X9XqX9X9X9X9XpXpXpXpXqXqXqXqXqXpXpXpXpXpXpXpXpXwXwXwXwX7X7X7X7X7XpXpXpXpX7X7X7X7X:X:X:X:X:X&X&X&X&XZ.Z.Z.Z.<X<X<X<X7X7X7X7X7XpXpXpXpXpXpXpXpX2X2X2X2X5X5X5X5X5XpXpXpXpXpXpXpXpX:X:X:X:X:X:X:X:X:X<X<X<X<X>X>X>X:XU U U U U @.@.@.X.i.i.i.i.o.o.o.o.o.K.K.K.K. X X X X4X4X4X4XXX X X X X>X>X>X>X<X<X<X<XXXXXXXXXXX$.@.@.@.#.K.K.#.4X4X4X4XqXqXqXqXqXpXpXpXpXpXpXpXpXpXpXpXpX9X9X9X9X9XpXpXpXpX7X7X7X5X5X5X5X5X5X<X<X<X<X>X>X>X>X>X>X>X>XpXpXpXpXpX4X2X2X2XqXqXqXqX9X9X9X9X9XpXpXpXpXqXqXqXqXwXwXwXwXpXpXpXpXpXqXqXqXqXpXpXpXpXwXwXwXwXwXpXpXpXpXpXpXpXpXpXpXpXpXpXpXpXpXpXpXpXpXpXpXpXpXpXpXpXpXpXpXpXpXpXpXpXpXpXpXpXpXpXpXpXpXpXpXpXpXpXpXpXpXpXpXpXpXpXpXpXpXpXpXpXpXpXpXpXpXpXpXpXpXpXpXpXpXpXpXpXpXpXpXpXpXpXpXpXpXpXpXpXpXpXpXpXpXpXpXpXpXpXpXpXpXpXpXpXpXpXpXpXpXpXpXpXpXpXpXpXpXpXpXpXpXpXpXpXpXpXpXpXpXpXpXpX",
"9X9X9X9X9X9X9XpXpXpXpXqXqXqXqXqXpXpXpXpXpXpXpXpXwXwXwXwX7X7X7X7X7XpXpXpXpX7X7X7X7X:X:X:X:X-X&X&X&X&XP Z.Z.Z.<X<X<X<X7X7X7X7X7XpXpXpXpXpXpXpXpX2X2X2X2X5X5X5X5X5XpXpXpXpXpXpXpXpX:X:X:X:X:X:X:X:X:X<X<X<X<X>X>X>X:XU U U U U X.X.X.X.i.i.i.i.o.o.o.o.o.K.K.K.K. X X X X4X4X4X4X X X X X X>X>X>X>X<X<X<X<XXXXXXXXXXX$.@.@.@.K.K.K.K.4X4X4X4XwXqXqXqXqXpXpXpXpXpXpXpXpXpXpXpXpX9X9X9X9X9XpXpXpXpX7X7X5X5X5X5X5X5X5X<X<X<X<X:X:X:X:X>X>X>X>XpXpXpXpXpX2X2X2X2XqXqXqXqX9X9X9X9X9XpXpXpXpXqXqXqXqXwXwXwXwXpXpXpXpXpXqXqXqXqXpXpXpXpXwXwXwXwXwXpXpXpXpXpXpXpXpXpXpXpXpXpXpXpXpXpXpXpXpXpXpXpXpXpXpXpXpXpXpXpXpXpXpXpXpXpXpXpXpXpXpXpXpXpXpXpXpXpXpXpXpXpXpXpXpXpXpXpXpXpXpXpXpXpXpXpXpXpXpXpXpXpXpXpXpXpXpXpXpXpXpXpXpXpXpXpXpXpXpXpXpXpXpXpXpXpXpXpXpXpXpXpXpXpXpXpXpXpXpXpXpXpXpXpXpXpXpXpXpXpXpXpXpXpXpXpXpXpXpXpXpXpXpXpX",
"5X5X5X5X5X5X5X5X7X7X7X7X7X7X7X7XpXpXpXpXpXpXpXpXpXpXpXpX7X7X7X7X7X5X5X5X5X<X<X<X<X.X.X.X.X.X@X@X@X@XZ.C.C.C.+.+.+.+.-X-X-X-X-XpXpXpXpX<X<X<X<XpXpXpXpXpXpXpXpXpX4XrXrXrX<X>X>X>XqXqXqXqXqX<X<X<X<X+X+X+X+X|.|.|.|..X.X.XXXXXI I I I V.V.V.V.J.J.J.J.J.M.M.M.M.oXoXoX$.$X$X$X&X:X:X:X:X:X<X<X<X<XK K K K C.C.C.C.C.@X@X@X@XP P P P X.X.X.X.@X@X@X@X@X-X-X:X:X5XrX5X5X<X<X<X<XpXpXpXpXpX9X9X9X9XpXpXpXpXpXpXpXpXpX7X7X7X7XpXpXpXpXpXpXpXpXpXpXpXpXpXpXpXpXpX5X5X5X5XpXpXpXpXpX7X7X7X7XpXpXpXpX8X8X8X8X8X8X8X8X7XpXpXpXpXpXpXpXpX9X9X9X9X9XpXpXpXpXpXpXpXpXpXpXpXpXpXpXpXpXpXpXpXpXpXpXpXpXpXpXpXpXpXpXpXpXpXpXpXpXpXpXpXpXpXpXpXpXpXpXpXpXpXpXpXpXpXpXpXpXpXpXpXpXpXpXpXpXpXpXpXpXpXpXpXpXpXpXpXpXpXpXpXpXpXpXpXpXpXpXpXpXpXpXpXpXpXpXpXpXpXpXpXpXpXpXpXpXpXpXpXpXpXpXpXpXpXpXpXpXpXpXpXpXpXpXpXpXpXpXpXpXpXpXpXpXpXpXpX",
"5X5X5X5X5X5X5X7X7X7X7X7X7X7X7X7XpXpXpXpXpXpXpXpXpXpXpXpX7X7X7X7X7X5X5X5X5X<X<X<X<X.X.X.X.X.X@X@X@X@XZ.Z.C.Z.$.+.$.$.-X-X-X-X-XpXpXpXpX<X<X<X<XpXpXpXpXpXpXpXpXpXrXrXrXrX<X>X>X>XqXqXqXqXqX<X<X<X<X+X+X+X+X|.|.|.|..X.X.XXXXXI I I I V.V.V.V.J.J.J.J.J.M.M.M.M.oXoXoXoX&X$X$X&X:X:X:X:X:X<X<X<X<XK K K K C.C.C.C.C.@X@XXX@XP P P P X.X.X.X.@X@X@X@X@X:X-X:X:XrXrX5X5X<X<X<X<XpXpXpXpXpX9X9X9X9XpXpXpXpXpXpXpXpXpX7X7X7X7XpXpXpXpXpXpXpXpXpXpXpXpXpXpXpXpXpX5X5X5X5XpXpXpXpXpX7X7X7X7XpXpXpXpX8X8X8X8X7X7X8X7X7XpXpXpXpXpXpXpXpX9X9X9X9X9XpXpXpXpXpXpXpXpXpXpXpXpXpXpXpXpXpXpXpXpXpXpXpXpXpXpXpXpXpXpXpXpXpXpXpXpXpXpXpXpXpXpXpXpXpXpXpXpXpXpXpXpXpXpXpXpXpXpXpXpXpXpXpXpXpXpXpXpXpXpXpXpXpXpXpXpXpXpXpXpXpXpXpXpXpXpXpXpXpXpXpXpXpXpXpXpXpXpXpXpXpXpXpXpXpXpXpXpXpXpXpXpXpXpXpXpXpXpXpXpXpXpXpXpXpXpXpXpXpXpXpXpXpXpXpX",
"5X5X5X5X5X5X5X7X7X7X7X7X7X7X7X7XpXpXpXpXpXpXpXpXpXpXpXpX7X7X7X7X7X5X5X5X5X<X<X<X<X.X.X.X.X.X@X@X@X@XZ.Z.C.C.$.$.+.$.-X-X-X-X-XpXpXpXpX<X<X<X<XpXpXpXpXpXpXpXpXpX2XrXrXrX<X>X>X>X9XqXqXqXqX<X<X<X<X+X+X+X+X|.|.|.|..X.X.XXXXXI I I I V.V.V.V.J.J.J.J.J.M.M.M.M.oXoXoXoX&X$X$X&X:X:X:X:X:X<X<X<X<XK K K K C.C.C.C.C.@X@XXX@XP P P P X.X.X.X.@X@X@X@X@X:X:X:X:X5X5X5X5X<X<X<X<XpXpXpXpXpX9X9X9X9XpXpXpXpXpXpXpXpXpX7X7X7X7XpXpXpXpXpXpXpXpXpXpXpXpXpXpXpXpXpX5X5X5X5XpXpXpXpXpX7X7X7X7XpXpXpXpX8X8X8X8X7X8X8X7X7XpXpXpXpXpXpXpXpX9X9X9X9X9XpXpXpXpXpXpXpXpXpXpXpXpXpXpXpXpXpXpXpXpXpXpXpXpXpXpXpXpXpXpXpXpXpXpXpXpXpXpXpXpXpXpXpXpXpXpXpXpXpXpXpXpXpXpXpXpXpXpXpXpXpXpXpXpXpXpXpXpXpXpXpXpXpXpXpXpXpXpXpXpXpXpXpXpXpXpXpXpXpXpXpXpXpXpXpXpXpXpXpXpXpXpXpXpXpXpXpXpXpXpXpXpXpXpXpXpXpXpXpXpXpXpXpXpXpXpXpXpXpXpXpXpXpXpXpX",
"5X5X5X5X5X5X5X7X7X7X7X7X7X7X7X7XpXpXpXpXpXpXpXpXpXpXpXpX7X7X7X7X7X5X5X5X5X<X<X<X<X.X.X.X.X.X@X@X@X@XZ.Z.Z.Z.+.+.+.+.-X-X-X-X-XpXpXpXpX<X<X<X<XpXpXpXpXpXpXpXpXpX4XrXrXrX>X>X>X>X9XqXqXqX9X<X<X<X<X+X+X+X+X+.+.+.|..X.X.X.X.XI I I I V.V.V.V.J.J.J.J.J.M.M.M.M.$.$.#.#.&X&X&X&X>X:X:X>X>X<X<X<X<XK K K K C.C.C.C.C.XXXXXX@XP P P P X.X.X.X.@X@X@X@X@X-X-X-X-X5X5X5X5X<X<X<X<XpXpXpXpXpX9X9X9X9XpXpXpXpXpXpXpXpXpX7X7X7X7XpXpXpXpXpXpXpXpXpXpXpXpXpXpXpXpXpX5X5X5X5XpXpXpXpXpX7X7X7X7XpXpXpXpX8X9X9X9X8X8X8X8X7XpXpXpXpXpXpXpXpX9X9X9X9X9XpXpXpXpXpXpXpXpXpXpXpXpXpXpXpXpXpXpXpXpXpXpXpXpXpXpXpXpXpXpXpXpXpXpXpXpXpXpXpXpXpXpXpXpXpXpXpXpXpXpXpXpXpXpXpXpXpXpXpXpXpXpXpXpXpXpXpXpXpXpXpXpXpXpXpXpXpXpXpXpXpXpXpXpXpXpXpXpXpXpXpXpXpXpXpXpXpXpXpXpXpXpXpXpXpXpXpXpXpXpXpXpXpXpXpXpXpXpXpXpXpXpXpXpXpXpXpXpXpXpXpXpXpXpXpX",
"7X7X7XpXpXpXpXpXpXpXpXpXpXpXpXpX<X<X<X2XpXpXpXpXqXqXqXqXqXqXqXqXqX9X9X9X9X5X5X5X5XXXXXXXXXXX1X1X<X<XV.V.V.V.P P P P tXtXtXtXtX<X<X<X<X2X2X2X2XwXwXwXwXwXwXwXwXwX%X%X%X%X<X<X<X<X<X<X<X<X<X%X%X%X%XP P P P i.i.i.i.z z z z z L L L L O.O.O.O.+.+.+.+.+.L L L L @X@X@X$X@.@.@.@.C.C.C.C.C.K K K K K K K K M.M.M.M.V.$.$.$.$.K K K K +.+.+.+.@X+X+X+X+X<X<X<X<X9X9X9X9X<X<X>X<X8X8X8X8X8X5X5X5X5X8X8X8X8XpXpXpXpXpX5X5X5X5X5X5X5X5X<X<X<X<XpXpXpXpXpX<X<X<X<X5X5X5X5XpXpXpXpXpXpXpXpXpX7X7X7X7XpXpXpXpX2X2X2X2X2XpXpXpXpXpXpXpXpXpXpXpXpXpXpXpXpXpXpXpXpXpXpXpXpXpXpXpXpXpXpXpXpXpXpXpXpXpXpXpXpXpXpXpXpXpXpXpXpXpXpXpXpXpXpXpXpXpXpXpXpXpXpXpXpXpXpXpXpXpXpXpXpXpXpXpXpXpXpXpXpXpXpXpXpXpXpXpXpXpXpXpXpXpXpXpXpXpXpXpXpXpXpXpXpXpXpXpXpXpXpXpXpXpXpXpXpXpXpXpXpXpXpXpXpXpXpXpXpXpXpXpXpXpXpXpXpXpXpXpXpXpXpXpXpXpXpXpXpX",
"7X7X7XpXpXpXpXpXpXpXpXpXpXpXpXpX<X<X<X<XpXpXpXpXqXqXqXqXqXqXqXqXqX9X9X9X9X5X5X5X5XXXXXXXXXXX1X1X<X<XV.V.V.V.P P P P tXtXtXtXtX<X<X<X<X2X2X2X2XwXwXwXwXwXwXwXwXwX%X%X%X%X<X<X<X<X<X<X<X<X<X%X%X%X%XP P P P i.i.i.i.z z z z z L L L L O.O.O.O.+.+.+.+.+.L L L L @X@X@X$X@.@.@.@.C.C.C.C.C.K K K K K K K K V.M.M.M.V.$.$.$.$.K K K K O.+.+.+.@X+X+X+X+X<X<X<X<X9X9X9X9X<X<X>X<X8X8X8X8X8X5X5X5X5X8X8X8X8XpXpXpXpXpX5X5X5X5X5X5X5X5X<X<X<X<XpXpXpXpXpX<X<X<X<X5X5X5X5XpXpXpXpXpXpXpXpXpX8X7X7X7XpXpXpXpX2X2X2X2X2XpXpXpXpXpXpXpXpXpXpXpXpXpXpXpXpXpXpXpXpXpXpXpXpXpXpXpXpXpXpXpXpXpXpXpXpXpXpXpXpXpXpXpXpXpXpXpXpXpXpXpXpXpXpXpXpXpXpXpXpXpXpXpXpXpXpXpXpXpXpXpXpXpXpXpXpXpXpXpXpXpXpXpXpXpXpXpXpXpXpXpXpXpXpXpXpXpXpXpXpXpXpXpXpXpXpXpXpXpXpXpXpXpXpXpXpXpXpXpXpXpXpXpXpXpXpXpXpXpXpXpXpXpXpXpXpXpXpXpXpXpXpXpXpXpXpXpXpX",
"7X7X7XpXpXpXpXpXpXpXpXpXpXpXpXpX<X<X<X<XpXpXpXpXqXqXqXqXqXqXqXqXqX9X9X9X9X5X5X5X5XXXXXXXXXXX1X1X<X<XV.V.V.V.P P P P tXtXtXtXtX<X<X<X<X2X2X2X2XwXwXwXwXwXwXwXwXwX%X#X%X%X<X<X<X<X<X<X<X<X<X%X%X%X%Xo.P P P i.i.i.i.z z z z z L L L L O.O.O.O.+.+.+.+.+.L L L L @X@X$X$X@.@.@.@.C.C.C.C.C.K K K K K K K K V.M.M.M.V.$.$.$.$.K K K K O.O.+.+.+X+X+X+X+X<X<X<X<X9X9X9X9X<X<X>X>X8X8X8X8X8X5X5X5X5X8X8X8X8XpXpXpXpXpX5X5X5X5X5X5X5X5X<X<X<X<XpXpXpXpXpX<X<X<X<X5X5X5X5XpXpXpXpXpXpXpXpXpX8X8X7X7XpXpXpXpX2X2X2X2X2XpXpXpXpXpXpXpXpXpXpXpXpXpXpXpXpXpXpXpXpXpXpXpXpXpXpXpXpXpXpXpXpXpXpXpXpXpXpXpXpXpXpXpXpXpXpXpXpXpXpXpXpXpXpXpXpXpXpXpXpXpXpXpXpXpXpXpXpXpXpXpXpXpXpXpXpXpXpXpXpXpXpXpXpXpXpXpXpXpXpXpXpXpXpXpXpXpXpXpXpXpXpXpXpXpXpXpXpXpXpXpXpXpXpXpXpXpXpXpXpXpXpXpXpXpXpXpXpXpXpXpXpXpXpXpXpXpXpXpXpXpXpXpXpXpXpXpXpX",
"7X7X7XpXpXpXpXpXpXpXpXpXpXpXpXpX<X<X<X<XpXpXpXpXqXqXqXqXqXqXqXqXqX9X9X9X9X5X5X5X5XXXXXXXXXXX<X<X<X<XV.V.V.V.P P P P tXtXtXtXtX<X<X<X<X2X2X2X2XwXwXwXwXwXwXwXwXwX#X#X%X%X<X<X<X<X<X<X<X<X<X%X%X%X%XP P P P i.i.i.i.z z z z z L L L L O.O.O.O.+.+.+.+.+.L L L L @X@X$X$X$.@.@.@.C.C.C.C.C.K K K K K K K K M.M.M.M.M.@.@.@.$.K K K K O.+.O.O.+X+X+X@X@X<X<X<X<X9X9X9X9X>X>X>X>X8X8X8X8X8X5X5X5X5X8X8X8X8XpXpXpXpXpX5X5X5X5X5X5X5X5X<X<X<X<XpXpXpXpXpX<X<X<X<X5X5X5X5XpXpXpXpXpXpXpXpXpX7X7X7X7XpXpXpXpX2X2X2X2X2XpXpXpXpXpXpXpXpXpXpXpXpXpXpXpXpXpXpXpXpXpXpXpXpXpXpXpXpXpXpXpXpXpXpXpXpXpXpXpXpXpXpXpXpXpXpXpXpXpXpXpXpXpXpXpXpXpXpXpXpXpXpXpXpXpXpXpXpXpXpXpXpXpXpXpXpXpXpXpXpXpXpXpXpXpXpXpXpXpXpXpXpXpXpXpXpXpXpXpXpXpXpXpXpXpXpXpXpXpXpXpXpXpXpXpXpXpXpXpXpXpXpXpXpXpXpXpXpXpXpXpXpXpXpXpXpXpXpXpXpXpXpXpXpXpXpXpXpX",
"qXqXqX-X-X-X-XrX5X5X5X<X<X<X<X<X<X<X<X<X<X<X<X<X9X9X9X9XpXpXpXpXpX9X9X9X9X:X:X:X:X|.|.|.|.|.+X+X@X@Xo.o.o.o.M.M.M.M. X X X X X+X+X+X.X-X-X-X:XqXqXqXqX-X-X-X-X-X$X$X$X$XB.B.B.B.+.$.O.O.O.o.o.o.o.8.8.8.8.r.r.r.r.e.e.e.e.e.K K K K J J J J L L L L U O.O.O.O.z z z G C.C.C.C.r.r.r.r.r.G G G G z z z z e.e.e.e.e.C.C.C.C.C.V.V.C.K K K K I I I P P K.K.#.#. X X X X7X7X7X7XpXpXpXpXpXpXpXpXpXpXpXpXpXpXpXpXpXpXpXpXpXpXpXpXpXpXpXpXpXpXpXpXpXpXpX9X9XqXqX<X<X<X<X2X4X5X5X5XpXpXpXpX8X8X8X8XpXpXpXpX:X:X:X:X:XqXqXqXqX5X5X5X5X2X2X2X2X2X7X7X7X7XpXpXpXpXpXpXpXpXpXpXpXpXpXpXpXpXpXpXpXpXpXpXpXpXpXpXpXpXpXpXpXpXpXpXpXpXpXpXpXpXpXpXpXpXpXpXpXpXpXpXpXpXpXpXpXpXpXpXpXpXpXpXpXpXpXpXpXpXpXpXpXpXpXpXpXpXpXpXpXpXpXpXpXpXpXpXpXpXpXpXpXpXpXpXpXpXpXpXpXpXpXpXpXpXpXpXpXpXpXpXpXpXpXpXpXpXpXpXpXpXpXpXpXpXpXpXpXpXpXpXpX",
"qXqXqX-X-X-X-XrX5X5X5X<X<X<X<X<X<X<X<X<X<X<X<X<X9X9X9X9XpXpXpXpXpX9X9X9X9X:X:X:X:X|.|.|.|.|.+X+X@X@Xo.o.o.o.M.M.M.M. X X X X X+X+X.X.X-X-X-X-XqXqXqXqX-X-X-X-X-X$X$X$X$XN.N.B.B.+.+.+.+.@.o.o.o.o.8.8.8.8.r.r.r.r.e.e.e.e.e.K K K K J J J J L L L L L O.O.U O.z z z z C.C.C.C.r.r.r.r.r.G G G G z z z z e.e.e.e.e.C.C.C.C.C.C.C.C.K K K K I I I P P #.#.#.#. X X X X7X7X7X7XpXpXpXpXpXpXpXpXpXpXpXpXpXpXpXpXpXpXpXpXpXpXpXpXpXpXpXpXpXpXpXpXpXpXpX9XqXqXqX<X<X<X<X2X5X5X5X5XpXpXpXpX8X8X8X8XpXpXpXpX:X:X:X:X:XqXqXqXqX5X5X5X5X2X2X2X2X2X7X7X7X7XpXpXpXpXpXpXpXpXpXpXpXpXpXpXpXpXpXpXpXpXpXpXpXpXpXpXpXpXpXpXpXpXpXpXpXpXpXpXpXpXpXpXpXpXpXpXpXpXpXpXpXpXpXpXpXpXpXpXpXpXpXpXpXpXpXpXpXpXpXpXpXpXpXpXpXpXpXpXpXpXpXpXpXpXpXpXpXpXpXpXpXpXpXpXpXpXpXpXpXpXpXpXpXpXpXpXpXpXpXpXpXpXpXpXpXpXpXpXpXpXpXpXpXpXpXpXpXpXpXpXpX",
"qXqXqX-X-X-X-XrX5X5X5X<X<X<X<X<X<X<X<X<X<X<X<X<X9X9X9X9XpXpXpXpXpX9X9X9X9X:X:X:X:X|.|.|.|.|.+X+X@X@Xo.o.o.o.M.M.M.M. X X X X X+X+X+X.X-X-X-X-XqXqXqXqX-X-X-X-X-X$X$X$X$XN.N.N.B.+.+.$.+.O.o.o.o.o.8.8.8.8.r.r.r.r.e.e.e.e.e.K K K K J J J J L L U L L O.O.O.O.z z z z C.C.C.C.r.r.r.r.r.G G G G z z z z e.e.e.e.e.C.C.C.C.C.C.C.C.K K K K I I I I I #.#.#.#. X X X|.7X7X7X7XpXpXpXpXpXpXpXpXpXpXpXpXpXpXpXpXpXpXpXpXpXpXpXpXpXpXpXpXpXpXpXpXpXpXpX9XqXqXqX<X<X<X<X2X5X5X5X5XpXpXpXpX8X8X8X8XpXpXpXpX:X:X:X:X:XqXqXqXqX5X5X5X5X2X2X2X2X2X7X7X7X7XpXpXpXpXpXpXpXpXpXpXpXpXpXpXpXpXpXpXpXpXpXpXpXpXpXpXpXpXpXpXpXpXpXpXpXpXpXpXpXpXpXpXpXpXpXpXpXpXpXpXpXpXpXpXpXpXpXpXpXpXpXpXpXpXpXpXpXpXpXpXpXpXpXpXpXpXpXpXpXpXpXpXpXpXpXpXpXpXpXpXpXpXpXpXpXpXpXpXpXpXpXpXpXpXpXpXpXpXpXpXpXpXpXpXpXpXpXpXpXpXpXpXpXpXpXpXpXpXpXpXpX",
"qXqXqX-X-X-X-XrX5X5X5X<X<X<X<X<X<X<X<X<X<X<X<X<X9X9X9X9XpXpXpXpXpX9X9X9X9X:X:X:X:X|.|.|.|.|.$X@X@X@Xo.o.o.o.M.M.M.M. X X X X X+X+X+X+X:X-X-X-XqXqXqXqX-X-X-X-X-X$X$X$X$XM.N.M.M.+.+.+.+.+.o.o.o.o.8.8.8.8.r.r.r.r.e.e.e.e.e.K K K K J J J J L L L L L O.O.O.O.z z z z C.C.C.C.r.r.r.r.r.G G G G z z z z e.e.e.e.e.C.C.C.C.C.C.C.V.K K K K I I P I I #.#.K.K. X X X X7X7X7X7XpXpXpXpXpXpXpXpXpXpXpXpXpXpXpXpXpXpXpXpXpXpXpXpXpXpXpXpXpXpXpXpXpXpXpX9X9X9X9X<X<X<X<X5X5X5X5X5XpXpXpXpX8X8X8X8XpXpXpXpX:X:X:X:X:XqXqXqXqX5X5X5X5X2X2X2X2X2X7X7X7X7XpXpXpXpXpXpXpXpXpXpXpXpXpXpXpXpXpXpXpXpXpXpXpXpXpXpXpXpXpXpXpXpXpXpXpXpXpXpXpXpXpXpXpXpXpXpXpXpXpXpXpXpXpXpXpXpXpXpXpXpXpXpXpXpXpXpXpXpXpXpXpXpXpXpXpXpXpXpXpXpXpXpXpXpXpXpXpXpXpXpXpXpXpXpXpXpXpXpXpXpXpXpXpXpXpXpXpXpXpXpXpXpXpXpXpXpXpXpXpXpXpXpXpXpXpXpXpXpXpXpXpX",
"&X&X&XZ.P P J.<X<X<X<XpXpXpXpXpXpXpXpXpX5X5X5X5X7X7X7X7X%X%X%X%X%XrXrXrXrX7X7X7X7X<X<X<X<X<XX.X.X.X.N.N.N.N.V.V.V.V.@.@.@.@.@.>X<X<X<X<X<X<X<X%X%X%X%X4X4X4X4X4X#.#.#.#.r.r.r.r.K K P P P i.i.i.i.q.q.q.q.q.q.q.q.6.6.6.6.6.8.8.8.8.K K K K G G G G G J J J J J K K J ,.4.4.4.7.7.7.7.7.t.t.t.t.4.4.4.,.h h f h h ,.,.,.,.e.e.e.e.@.@.@.@.H H H H H Z.Z.Z.Z.>X>X<X1X<X<X<X<X7X7X7X7X7XpXpXpXpXpXpXpXpX7X7X7X7X7XpXpXpXpXpXpXpXpX-X-X-X-XqXqXqXqXqXuXuXuXuX8X9X9X8X-X-X-X-X-XpXpXpXpX<X<X<X<XrXrXrXrX1X1X1X1X1X,X,X,X,XpXpXpXpXpXpXpXpXpX7X7X7X7XpXpXpXpXpXpXpXpXpXpXpXpXpXpXpXpXpXpXpXpXpXpXpXpXpXpXpXpXpXpXpXpXpXpXpXpXpXpXpXpXpXpXpXpXpXpXpXpXpXpXpXpXpXpXpXpXpXpXpXpXpXpXpXpXpXpXpXpXpXpXpXpXpXpXpXpXpXpXpXpXpXpXpXpXpXpXpXpXpXpXpXpXpXpXpXpXpXpXpXpXpXpXpXpXpXpXpXpXpXpXpXpXpXpXpXpXpXpXpXpXpXpXpXpXpXpXpXpXpXpXpX",
"&X&X&XZ.P o.P <X<X<X<XpXpXpXpXpXpXpXpXpX5X5X5X5X7X7X7X7X%X%X%X%X%XrXrXrXrX7X7X7X7X<X<X<X<X<XX.X.X.X.N.N.N.N.V.V.V.V.@.@.@.@.U >X<X>X<X<X<X<X<X%X%X%X%X4XrX4X4X4XK.K.#.#.r.r.r.r.K P P P P i.i.i.i.q.q.q.q.q.q.q.q.6.6.6.6.6.8.8.8.8.K K K K G G G G G J J J J J K K K ,.4.4.4.7.r.r.7.7.a.t.t.t.4.2.,.,.h h h h h ,.,.,.,.e.e.e.e.@.@.@.@.H H H H H Z.J.Z.J.>X>X<X<X<X<X<X<X7X7X7X7X7XpXpXpXpXpXpXpXpX7X7X7X7X7XpXpXpXpXpXpXpXpX-X-X-X-XqXqXqXqXqXuXuXuXuX8X8X8X8X-X-X-X-X-XpXpXpXpX<X<X<X<XrXrXrXrX1X1X1X1X1X,X,X,X,XpXpXpXpXpXpXpXpXpX5X7X7X7XpXpXpXpXpXpXpXpXpXpXpXpXpXpXpXpXpXpXpXpXpXpXpXpXpXpXpXpXpXpXpXpXpXpXpXpXpXpXpXpXpXpXpXpXpXpXpXpXpXpXpXpXpXpXpXpXpXpXpXpXpXpXpXpXpXpXpXpXpXpXpXpXpXpXpXpXpXpXpXpXpXpXpXpXpXpXpXpXpXpXpXpXpXpXpXpXpXpXpXpXpXpXpXpXpXpXpXpXpXpXpXpXpXpXpXpXpXpXpXpXpXpXpXpXpXpXpXpXpXpXpX",
"&X&X&XZ.P P P <X<X<X<XpXpXpXpXpXpXpXpXpX5X5X5X5X7X7X7X7X%X%X%X%X%XrXrXrXrX7X7X7X7X<X<X<X<X<XX.X.X.X.N.N.N.N.V.V.V.V.@.@.U U U >X>X>X<X<X<X<X<X%X%X%X%X4X4X4X4X4XK.K.#.#.r.r.r.r.K K K P P i.i.i.i.q.q.q.q.q.q.q.q.6.6.6.6.6.8.8.8.8.K K K K G G G G G J J J J J K K K 4.4.4.4.r.r.r.r.r.a.a.a.t.4.2.,.,.h h h h h ,.,.,.,.e.e.e.e.@.@.@.@.H H H H H Z.J.J.J.>X>X>X>X<X<X<X<X7X7X7X7X7XpXpXpXpXpXpXpXpX7X7X7X7X7XpXpXpXpXpXpXpXpX-X-X-X-XqXqXqXqXqXuXuXuXuX8X8X8X8X-X-X-X-X-XpXpXpXpX<X<X<X<XrXrXrXrX1X1X1X1X1X,X,X,X,XpXpXpXpXpXpXpXpXpX5X7X7X7XpXpXpXpXpXpXpXpXpXpXpXpXpXpXpXpXpXpXpXpXpXpXpXpXpXpXpXpXpXpXpXpXpXpXpXpXpXpXpXpXpXpXpXpXpXpXpXpXpXpXpXpXpXpXpXpXpXpXpXpXpXpXpXpXpXpXpXpXpXpXpXpXpXpXpXpXpXpXpXpXpXpXpXpXpXpXpXpXpXpXpXpXpXpXpXpXpXpXpXpXpXpXpXpXpXpXpXpXpXpXpXpXpXpXpXpXpXpXpXpXpXpXpXpXpXpXpXpXpXpXpX",
"&X&X&XZ.P P P <X<X<X<XpXpXpXpXpXpXpXpXpX5X5X5X5X7X7X7X7X%X%X%X%X%XrXrXrXrX7X7X7X7X<X<X<X<X<XX.X.X.X.N.N.N.N.V.V.V.V.@.@.@.@.U >X>X>X>X<X<X<X<X%X%X%X%X4X4X4X4X4XK.K.K.#.r.r.r.r.P P K P P i.i.i.i.q.q.q.q.q.q.q.9.1.1.1.6.6.4.4.8.8.K K K K G G G G G J J J J J K K K e.e.e.,.7.7.7.7.7.t.t.t.t.4.4.2.2.h h h h h ,.,.,.,.e.e.e.e.@.@.@.@.H H H H H Z.Z.Z.Z.>X>X>X>X<X<X<X<X7X7X7X7X7XpXpXpXpXpXpXpXpX7X7X7X7X7XpXpXpXpXpXpXpXpX-X-X-X-XqXqXqXqXqXuXuXuXuX8X8X8X8X-X-X-X-X-XpXpXpXpX<X<X<X<XrXrXrXrX1X1X1X1X1X,X,X,X,XpXpXpXpXpXpXpXpXpX7X7X7X7XpXpXpXpXpXpXpXpXpXpXpXpXpXpXpXpXpXpXpXpXpXpXpXpXpXpXpXpXpXpXpXpXpXpXpXpXpXpXpXpXpXpXpXpXpXpXpXpXpXpXpXpXpXpXpXpXpXpXpXpXpXpXpXpXpXpXpXpXpXpXpXpXpXpXpXpXpXpXpXpXpXpXpXpXpXpXpXpXpXpXpXpXpXpXpXpXpXpXpXpXpXpXpXpXpXpXpXpXpXpXpXpXpXpXpXpXpXpXpXpXpXpXpXpXpXpXpXpXpXpXpX",
"&X&X&XZ.P P P <X<X<X<XpXpXpXpXpXpXpXpXpX5X5X5X5X7X7X7X7X%X%X%X%X%XrXrXrXrX7X7X7X7X<X<X<X<X<XX.X.X.X.N.N.N.N.V.V.V.V.@.@.@.@.U >X>X>X>X<X<X<X<X%X%X%X%XrX4X4X4X4XK.K.K.K.r.r.r.r.P P P P P i.i.i.i.q.q.q.q.q.q.q.9.1.1.1.6.6.4.4.8.8.K K K K G G G G G J J J J J K K K e.e.e.,.7.7.7.7.7.t.t.t.t.4.2.2.4.h h h f h ,.,.,.,.e.e.e.e.@.@.@.@.H H H H H Z.Z.Z.Z.>X>X>X>X<X<X<X<X7X7X7X7X7XpXpXpXpXpXpXpXpX7X7X7X7X7XpXpXpXpXpXpXpXpX-X-X-X-XqXqXqXqXqXuXuXuXuX8X8X8X8X-X-X-X-X-XpXpXpXpX<X<X<X<XrXrXrXrX1X1X1X1X1X,X,X,X,XpXpXpXpXpXpXpXpXpX7X7X7X7XpXpXpXpXpXpXpXpXpXpXpXpXpXpXpXpXpXpXpXpXpXpXpXpXpXpXpXpXpXpXpXpXpXpXpXpXpXpXpXpXpXpXpXpXpXpXpXpXpXpXpXpXpXpXpXpXpXpXpXpXpXpXpXpXpXpXpXpXpXpXpXpXpXpXpXpXpXpXpXpXpXpXpXpXpXpXpXpXpXpXpXpXpXpXpXpXpXpXpXpXpXpXpXpXpXpXpXpXpXpXpXpXpXpXpXpXpXpXpXpXpXpXpXpXpXpXpXpXpXpXpX",
"1X1X1XZ.Z.Z.Z.>X>X>X>X-X-X-X-X-X>X>X>X>XqXqXqXqX-X-X-X-X*X*X*X*X*Xo.o.o.J.U @.@.U rXrXrXrXrX@.@.@.@.V.V.V.V.i.i.i.i.@.@.#.#.@.|.|.|.|.%X%X%X%X-X-X:X:X@X@X@X@X@XM.M.M.G a.a.a.a.i.i.i.i.i.>.>.>.>.6.6.6.6.1.1.1.1.1.1.1.1.1.1.1.1.1.1.1.1.1.2.2.2.2.2.h h h h z i.i.z <.2.2.2.1.<.<.1.<.7.7.6.6.<.<.<.<.G G G G G u.u.u.u.r.r.r.r.e.e.e.e.K K K K K V.V.V.V.oXoXOXOXXXXXXX.X#X#X#X#X#XwXwXwXwXwXwXwXwX-X-X-X-X-X<X<X<X<X5X5X5X5X:X:X:X-X@.@.@.@.$.#.#.#.#.<X<X<X<X9X9X9X9X9X<X<X<X<X7X7X7X7X:X:X-X-X1X1X1X1X1XoXoXoXoX-X-X-X-X2X2X2X2X2XpXpXpXpXwXwXwXwXpXpXpXpXpXpXpXpXpXpXpXpXpXpXpXpXpXpXpXpXpXpXpXpXpXpXpXpXpXpXpXpXpXpXpXpXpXpXpXpXpXpXpXpXpXpXpXpXpXpXpXpXpXpXpXpXpXpXpXpXpXpXpXpXpXpXpXpXpXpXpXpXpXpXpXpXpXpXpXpXpXpXpXpXpXpXpXpXpXpXpXpXpXpXpXpXpXpXpXpXpXpXpXpXpXpXpXpXpXpXpXpXpXpXpXpXpXpXpXpXpXpXpXpXpXpXpX",
"1X1X1XZ.Z.Z.Z.>X>X>X>X-X-X-X-X-X>X>X>X>XqXqXqXqX-X-X-X-X*X*X*X*X*Xo.o.o.o.U U U U rXrXrXrXrX@.@.@.@.V.V.V.V.i.i.i.i.@.@.#.#.@.|.|.|.|.%X%X%X%X-X-X:X:X@X@X@X@X@XM.M.M.G a.a.a.a.i.i.i.i.i.>.>.>.>.6.6.6.6.1.1.1.1.1.1.1.1.1.1.1.1.1.1.1.1.1.2.2.2.2.2.h h h h z i.z z <.2.2.2.1.<.<.<.<.7.7.7.6.>.<.<.<.G G G G G u.u.u.u.r.r.r.r.e.e.e.e.K K K K K V.V.V.V.OXoXOXOXXXXX.X.X#X#X#X#X#XwXwXwXwXwXwXwXwX-X-X-X-X-X<X<X<X<X5X5X5X5X:X:X:X:X@.@.@.@.$.#.#.#.#.<X<X<X<X9X9X9X9X9X<X<X<X<X7X7X7X7X:X:X-X-X1X1X1X1X1XoXoXoXoX-X-X-X-X2X2X2X2X2XpXpXpXpXwXwXwXwXpXpXpXpXpXpXpXpXpXpXpXpXpXpXpXpXpXpXpXpXpXpXpXpXpXpXpXpXpXpXpXpXpXpXpXpXpXpXpXpXpXpXpXpXpXpXpXpXpXpXpXpXpXpXpXpXpXpXpXpXpXpXpXpXpXpXpXpXpXpXpXpXpXpXpXpXpXpXpXpXpXpXpXpXpXpXpXpXpXpXpXpXpXpXpXpXpXpXpXpXpXpXpXpXpXpXpXpXpXpXpXpXpXpXpXpXpXpXpXpXpXpXpXpXpXpXpX",
">X>X>XZ.Z.Z.Z.>X>X>X>X-X-X-X-X-X>X>X>X>XqXqXqX9X-X-X-X-X*X*X*X*X*XJ.J.J.o.U U U U rXrXrXrXrX@.@.@.@.V.V.V.V.i.i.i.i.@.@.@.@.@.|.|.|.|.%X%X%X%X-X-X-X-X@X@X@X@X+XG G G G a.a.a.a.i.i.i.i.i.>.>.>.>.6.6.6.6.1.1.1.1.1.1.1.1.1.1.1.1.1.1.1.1.1.2.2.2.2.2.h h h h z z z z <.<.<.<.1.<.<.1.1.7.7.7.6.>.>.>.>.G G G G G u.u.u.u.r.r.r.r.e.e.e.e.K K K K K V.V.V.V.OXOXoXoX.XXX.XXX+X+X#X#X#XwXwXwXwXwXwXwXwX-X-X-X-X-X<X<X<X<X5X5X7X7X-X-X-X-X@.@.@.@.@.#.#.#.#.<X<X1X<X9X9X9X9X9X<X<X<X<X7X7X7X7X-X-X-X-X1X1X1X1X1XoXoXoXoX-X-X-X-X2X2X2X2X2XpXpXpXpXwXwXwXwXpXpXpXpXpXpXpXpXpXpXpXpXpXpXpXpXpXpXpXpXpXpXpXpXpXpXpXpXpXpXpXpXpXpXpXpXpXpXpXpXpXpXpXpXpXpXpXpXpXpXpXpXpXpXpXpXpXpXpXpXpXpXpXpXpXpXpXpXpXpXpXpXpXpXpXpXpXpXpXpXpXpXpXpXpXpXpXpXpXpXpXpXpXpXpXpXpXpXpXpXpXpXpXpXpXpXpXpXpXpXpXpXpXpXpXpXpXpXpXpXpXpXpXpXpXpXpX",
">X>X>XZ.Z.Z.Z.>X>X>X>X-X-X-X-X-X>X>X>X>XqXqX9X9X-X-X-X-X*X*X*X*X*XJ.J.J.o.U U U U rXrXrXrXrX@.@.@.@.V.V.V.V.i.i.i.i.@.@.@.@.@.|.|.|.|.%X%X%X%X-X-X-X-X@X@X@X+X+XG M.G G a.a.a.a.i.i.i.i.i.>.>.>.>.6.6.6.6.1.1.1.1.1.1.1.1.1.1.1.1.1.1.1.1.1.2.2.2.2.2.h h h h z z z z <.<.<.<.1.<.<.1.1.7.7.7.7.>.>.>.>.G G G G G u.u.u.u.r.r.r.r.e.e.e.e.K K K K K V.V.V.V.oXoXoXoX.X.X.XXX+X+X#X#X#XwXwXwXwXwXwXwXwX-X-X-X:X-X<X<X<X<X5X5X7X5X-X-X-X-X@.@.@.@.@.#.#.#.#.<X<X1X<X9X9X9X9X9X<X<X<X<X7X7X7X7X-X-X-X-X1X1X1X1X<XoXoXoXoX-X-X-X-X2X2X2X2X2XpXpXpXpXwXwXwXwXpXpXpXpXpXpXpXpXpXpXpXpXpXpXpXpXpXpXpXpXpXpXpXpXpXpXpXpXpXpXpXpXpXpXpXpXpXpXpXpXpXpXpXpXpXpXpXpXpXpXpXpXpXpXpXpXpXpXpXpXpXpXpXpXpXpXpXpXpXpXpXpXpXpXpXpXpXpXpXpXpXpXpXpXpXpXpXpXpXpXpXpXpXpXpXpXpXpXpXpXpXpXpXpXpXpXpXpXpXpXpXpXpXpXpXpXpXpXpXpXpXpXpXpXpXpXpX",
"<X<X<X*X*X*X*X#.#.#.#.<X>X<X>X>XqXqXqXqX4X4X2X2XP P P P J.J.J.J.J.J.J.J.J.&X&X&X&X<X<X<X<X<X%X%X%X%XZ.P Z.Z.V.V.V.V.&X&X&X&X&XO.O.O.O.|.|.|.|.J J J J I I I L L z z z z 2.2.4.4.e.e.e.e.e.,.,.,.,.1.<.1.1.1.1.1.1.<.2.2.<.<.1.1.1.1.1.1.1.1.6.7.7.7.6.u.u.u.u.>.>.>.>.1.1.1.1.r.r.r.r.r.1.1.1.1.2.2.2.2.>.>.>.>.>.,.,.,.,.r.7.r.7.e.e.e.e.G G G G G  X X X XL L L L +X+X+X+X.X.X+X+X+XpXpXpXpXpXwXpXpX<X<X<X<X<X-X-X-X-XqXqX9X9XuXuXuXuXXXXXXXXXXXo.o.o.o.XXXXXXXXpXpXpXpXpX<X<X<X<XpXpXpXpXpXpXpXpXuXuXuXuXuXoXoXoXoX&X&X&X&X<X<X<X<X<X7X7X7X7X8X8X8X8XpXpXpXpXpXpXpXpXpXpXpXpXpXpXpXpXpXpXpXpXpXpXpXpXpXpXpXpXpXpXpXpXpXpXpXpXpXpXpXpXpXpXpXpXpXpXpXpXpXpXpXpXpXpXpXpXpXpXpXpXpXpXpXpXpXpXpXpXpXpXpXpXpXpXpXpXpXpXpXpXpXpXpXpXpXpXpXpXpXpXpXpXpXpXpXpXpXpXpXpXpXpXpXpXpXpXpXpXpXpXpXpXpXpXpXpXpXpXpXpXpXpXpXpXpXpXpX",
"<X<X<X*X*X*X*X#.#.#.#.<X<X<X>X>XqXqXqXqX4X4X2X2XP P P P J.J.J.J.J.J.J.J.J.&X&X&X&X<X<X<X<X<X%X%X%X%XZ.Z.Z.Z.V.V.V.V.&X&X&X&X&XO.O.O.O.|.|.|.|.J J J J I I I L L z z z z 2.2.4.4.e.e.e.e.e.,.,.,.,.1.1.1.1.1.1.1.1.<.<.<.<.<.<.1.1.1.1.1.1.1.6.7.6.7.6.u.u.u.u.>.>.>.>.1.1.1.1.r.r.r.r.r.1.1.1.1.2.2.2.2.>.>.>.>.>.,.,.,.,.7.7.7.7.e.e.e.e.G G G G G  X X X XL L L L +X+X+X+X.X.X+X+X+XpXpXpXpXpXpXpXpX<X<X<X<X<X-X-X-X-XqXqX9X9X7XtXuXuXXXXXXXXXXXo.o.o.o.XXXXXXXXpXpXpXpXpX<X<X<X<XpXpXpXpXpXpXpXpXuXuXuXuXuXoXoXoXoX&X&X&X&X<X<X<X<X<X7X7X7X7X8X8X8X8XpXpXpXpXpXpXpXpXpXpXpXpXpXpXpXpXpXpXpXpXpXpXpXpXpXpXpXpXpXpXpXpXpXpXpXpXpXpXpXpXpXpXpXpXpXpXpXpXpXpXpXpXpXpXpXpXpXpXpXpXpXpXpXpXpXpXpXpXpXpXpXpXpXpXpXpXpXpXpXpXpXpXpXpXpXpXpXpXpXpXpXpXpXpXpXpXpXpXpXpXpXpXpXpXpXpXpXpXpXpXpXpXpXpXpXpXpXpXpXpXpXpXpXpXpXpXpX",
"<X<X<X*X*X*X*X#.#.#.#.<X<X<X<X<XqXqXqXqX4X4X4X4XI I I I J.J.J.J.J.J.J.J.J.&X&X&X&X<X<X<X<X<X%X%X%X%XZ.Z.P P V.V.V.V.&X&X&X&X&XO.O.O.O.|.|.|.|.J J J J L L I I I z z z z 2.2.4.4.e.e.e.e.e.,.,.,.,.1.<.<.<.1.1.1.1.<.<.<.<.<.1.1.1.1.1.1.1.1.6.6.6.6.6.u.u.u.u.>.>.>.>.1.1.1.1.r.r.r.r.r.1.1.1.1.2.2.2.2.>.>.>.>.>.,.,.,.,.7.7.7.7.e.e.e.e.G G G G G  X X X XL L L L +X+X+X+X.X.X+X+X+XpXpXpXpXpXpXpXpX<X<X<X<X<X-X-X-X-X9X9X9X9X7X7X7X7XXXXX@XXXXXo.o.K.K.XXXXXXXXpXpXpXpXpX<X<X<X<XpXpXpXpXpXpXpXpXuXuXuXuXuXoXoXoXoX&X&X&X&X<X<X<X<X<X7X7X7X7X8X8X8X8XpXpXpXpXpXpXpXpXpXpXpXpXpXpXpXpXpXpXpXpXpXpXpXpXpXpXpXpXpXpXpXpXpXpXpXpXpXpXpXpXpXpXpXpXpXpXpXpXpXpXpXpXpXpXpXpXpXpXpXpXpXpXpXpXpXpXpXpXpXpXpXpXpXpXpXpXpXpXpXpXpXpXpXpXpXpXpXpXpXpXpXpXpXpXpXpXpXpXpXpXpXpXpXpXpXpXpXpXpXpXpXpXpXpXpXpXpXpXpXpXpXpXpXpXpXpXpX",
"<X<X<X*X*X*X*X#.#.#.#.<X<X<X<X<XqXqXqXqX4X4X4X4XI I I I J.J.J.J.J.J.J.J.J.&X&X&X&X<X<X<X<X<X%X%X%X%XZ.Z.P P V.V.V.V.&X&X&X&X&XO.O.O.O.|.|.|.|.J J J J L I I I I z z z z 2.2.4.4.e.e.e.e.e.,.,.,.,.1.<.<.<.1.1.1.1.<.<.<.<.<.1.1.1.1.1.6.1.1.6.6.6.6.6.u.u.u.u.>.>.>.>.1.1.1.1.r.r.r.r.r.1.1.1.1.2.2.2.2.>.>.>.>.>.,.,.,.,.7.7.7.7.e.e.e.e.G G G G G |.|. X XL L L L +X+X+X+X+X+X+X+X+XpXpXpXpXpXpXpXpX<X<X<X<X<X-X-X-X-X9X9X9X9X7X7X7X7XXXXX@X@XXXo.K.K.o.XXXXXXXXpXpXpXpXpX<X<X<X<XpXpXpXpXpXpXpXpXuXuXuXuXuXoXoXoXoX&X&X&X&X<X<X<X<X<X7X7X7X7X8X8X8X8XpXpXpXpXpXpXpXpXpXpXpXpXpXpXpXpXpXpXpXpXpXpXpXpXpXpXpXpXpXpXpXpXpXpXpXpXpXpXpXpXpXpXpXpXpXpXpXpXpXpXpXpXpXpXpXpXpXpXpXpXpXpXpXpXpXpXpXpXpXpXpXpXpXpXpXpXpXpXpXpXpXpXpXpXpXpXpXpXpXpXpXpXpXpXpXpXpXpXpXpXpXpXpXpXpXpXpXpXpXpXpXpXpXpXpXpXpXpXpXpXpXpXpXpXpXpXpX",
"rXrXrX@X@X@X@X@X+X+X@X7X7X7X7X7X%X%X%X%X#X#X#X#X@X@X@X@XB.B.V.V.B.V.V.V.V.$.$.$.$.%X%X%X%X%X+X+X@X@X<X<X<X<X|.|.|.|.U U U U U U U U U K K K K G G G G p.p.p.p.p.e.e.e.e.i.i.i.i.y ,.y y ,.y y y y ,.,.,.,.e.e.e.e.,.,.,.,.,.,.,.,.,.7.7.7.7.1.1.1.1.1.2.>.2.2.7.7.r.7.q.q.q.q.y.y.y.y.y.6.6.6.6.7.7.7.7.r.r.r.r.r.>.>.>.>.6.6.6.6.1.1.1.1.H H H H H z z z z .X.X.X.X%X%X%X%X-X-X-X-X-X$X&X&X$X+X+X+X+X7X7X7X7X7X>X>X>X>X<X<X4X4X&X&X&X&X+.+.+.+.$.#.#.#.#.I I I I -X-X-X-X-X%X%X%X%X4XrX4X4X<X<X<X<XqXqXqXqXqXqXqXqXqXqXqXqXqX8X8X8X8X8XpXpXpXpXpXpXpXpXpXpXpXpXpXpXpXpXpXpXpXpXpXpXpXpXpXpXpXpXpXpXpXpXpXpXpXpXpXpXpXpXpXpXpXpXpXpXpXpXpXpXpXpXpXpXpXpXpXpXpXpXpXpXpXpXpXpXpXpXpXpXpXpXpXpXpXpXpXpXpXpXpXpXpXpXpXpXpXpXpXpXpXpXpXpXpXpXpXpXpXpXpXpXpXpXpXpXpXpXpXpXpXpXpXpXpXpXpXpXpXpXpXpXpXpXpXpXpXpXpXpXpXpXpXpXpX",
"rXrXrX@X@X@X@X@X+X@X@X7X7X7X7X7X%X%X%X%X#X#X#X#X@X@X@X@XB.B.B.V.B.V.V.V.V.$.$.$.$.%X%X%X%X%X+X+X@X@X<X<X<X<X|.|.|.|.U U U U U U U U U K K K K G G G G p.p.p.p.p.e.e.e.e.i.i.i.i.y y y ,.,.y y y y ,.,.,.,.e.e.e.e.,.,.,.,.,.,.,.,.,.7.7.7.7.1.1.1.1.1.2.>.2.2.7.7.7.7.q.q.q.q.y.y.y.y.y.6.6.6.6.7.7.7.7.r.r.r.r.r.>.>.>.>.6.6.6.6.1.1.1.1.H H H H H z z z z .X.X.X.X%X%X%X%X-X-X-X-X-X$X$X$X$X+X+X+X+X7X7X7X7X7X>X>X>X>X4X4X4X4X&X&X&X&X+.+.+.+.+.#.#.#.#.I I I I -X-X-X-X-X%X%X%X%XrXrX4X4X<X<X<X<XqXqXqXqXqXqXqXqXqXqXqXqXqX8X8X8X8X8XpXpXpXpXpXpXpXpXpXpXpXpXpXpXpXpXpXpXpXpXpXpXpXpXpXpXpXpXpXpXpXpXpXpXpXpXpXpXpXpXpXpXpXpXpXpXpXpXpXpXpXpXpXpXpXpXpXpXpXpXpXpXpXpXpXpXpXpXpXpXpXpXpXpXpXpXpXpXpXpXpXpXpXpXpXpXpXpXpXpXpXpXpXpXpXpXpXpXpXpXpXpXpXpXpXpXpXpXpXpXpXpXpXpXpXpXpXpXpXpXpXpXpXpXpXpXpXpXpXpXpXpXpXpXpX",
"rXrX5X@X@X@X@X@X+X+X@X7X7X7X7X7X%X%X%X%X#X#X#X#X@X@X@X@XB.B.B.B.B.V.V.V.V.$.$.$.$.%X%X%X%X%X@X+X@X@X<X<X<X<X|.|.|.|.U U U U U U U U U K K K K G G G G p.p.p.p.p.e.e.e.e.i.i.i.i.,.y y y ,.y y y y ,.,.,.,.e.e.e.e.,.,.,.,.,.,.,.,.,.7.7.7.7.1.1.1.1.1.2.>.>.2.7.7.7.7.q.q.q.q.y.y.y.y.y.6.6.6.6.7.7.7.7.r.r.8.8.r.>.>.>.>.6.6.6.6.1.1.1.1.H H H H H z z z z XX.X.X.X%X%X%X%X-X-X-X-X-X$X@X@X@X+X+X+X+X7X7X7X7X7X>X>X>X>X<X<X4X4X&X&X&X&X+.+.+.+.+.#.#.#.#.I I I I -X-X-X-X:X%X%X%X%X4X4X4X4X<X<X<X<XqXqXqXqX9XqXqXqXqXqXqXqXqX8X8X8X8X8XpXpXpXpXpXpXpXpXpXpXpXpXpXpXpXpXpXpXpXpXpXpXpXpXpXpXpXpXpXpXpXpXpXpXpXpXpXpXpXpXpXpXpXpXpXpXpXpXpXpXpXpXpXpXpXpXpXpXpXpXpXpXpXpXpXpXpXpXpXpXpXpXpXpXpXpXpXpXpXpXpXpXpXpXpXpXpXpXpXpXpXpXpXpXpXpXpXpXpXpXpXpXpXpXpXpXpXpXpXpXpXpXpXpXpXpXpXpXpXpXpXpXpXpXpXpXpXpXpXpXpXpXpXpXpX",
"rXrX5X@X@X@X@X@X@X+X@X7X7X7X7X7X%X%X%X%X#X#X#X#X@X@X@X@XB.B.B.B.V.V.V.V.V.$.$.$.$.%X%X%X%X%X@X@X@X@X<X<X<X<X|.|.|.|.U U U U U U U U U K K K K G G G G p.p.p.p.p.e.e.e.e.i.i.i.i.,.,.y y ,.y y y y ,.,.,.,.e.e.e.e.,.,.,.,.y ,.,.,.,.8.7.7.7.1.1.1.1.1.2.>.>.2.7.7.7.7.q.q.q.q.y.y.y.y.y.6.6.6.6.7.7.7.7.r.r.8.8.r.>.>.>.>.6.6.6.6.1.<.<.1.H H H H H z z z z .X.X.X.X%X%X%X%X-X-X-X-X-X@X@X@X@X+X+X+X+X7X7X7X7X7X>X>X>X>X<X<X2X2X&X&X&X&X+.+.+.+.+.#.#.#.#.I I I I -X:X:X-X-X%X%X%X%X4X4X4X4X<X<X<X<XqXqX9XqX9XqXqXqXqXqXqXqXqX8X8X8X8X8XpXpXpXpXpXpXpXpXpXpXpXpXpXpXpXpXpXpXpXpXpXpXpXpXpXpXpXpXpXpXpXpXpXpXpXpXpXpXpXpXpXpXpXpXpXpXpXpXpXpXpXpXpXpXpXpXpXpXpXpXpXpXpXpXpXpXpXpXpXpXpXpXpXpXpXpXpXpXpXpXpXpXpXpXpXpXpXpXpXpXpXpXpXpXpXpXpXpXpXpXpXpXpXpXpXpXpXpXpXpXpXpXpXpXpXpXpXpXpXpXpXpXpXpXpXpXpXpXpXpXpXpXpXpXpX",
"pXpXpX<X<X<X<XqXqXqXqXrXrXrXrXrXqXqXqXqX+X+X+X+X@.@.@.@.o.o.o.o.o.#.#.#.#.@.@.@.@.%X%X%X%X%X+X+X+X+X-X-X-X-XO.O.O.O.$.$.$.$.$.i.i.i.i.e.e.e.e.8.8.8.8.r.r.r.r.r.r.r.r.r.>.>.>.>.>.>.>.>.>.>.>.>.>.h u.u.h i.i.i.u.u.u.u.u.u.G G G G >.>.>.>.6.6.1.1.6.9.9.9.9.q.q.q.q.h.h.h.h.9.9.9.9.9.y.s.y.y.s.s.s.s.9.9.9.9.9.1.1.1.1.r.r.r.r.1.1.1.1.1.1.1.1.1.8.8.4.4.K K K K L L L L K K K K K M.M.M.M.K K K K L L L L L L L L L $.$.$.oXV.V.V.V.XXXXXX.XXXI L I L +.+.+.O.<X<X<X<X<XwXqXwXwX9X9X9X9X5X5X5X5XpXpXpXpXpXpXpXpXpXpXpXpXpX5X5X5X5X5X9X9X9X9XqXqXqXqXpXpXpXpXpXpXpXpXpXpXpXpXpXpXpXpXpXpXpXpXpXpXpXpXpXpXpXpXpXpXpXpXpXpXpXpXpXpXpXpXpXpXpXpXpXpXpXpXpXpXpXpXpXpXpXpXpXpXpXpXpXpXpXpXpXpXpXpXpXpXpXpXpXpXpXpXpXpXpXpXpXpXpXpXpXpXpXpXpXpXpXpXpXpXpXpXpXpXpXpXpXpXpXpXpXpXpXpXpXpXpXpXpXpXpXpXpXpXpXpXpXpXpXpXpXpXpX",
"pXpXpX<X<X<X<XqXqXqXqXrXrXrXrXrXqXqXqXqX+X+X+X+X@.@.@.@.o.o.o.o.o.#.#.#.#.@.@.@.@.%X%X%X%X%X+X+X+X+X-X-X-X-XO.O.O.O.$.$.$.$.$.i.i.i.i.e.e.e.e.8.8.8.8.r.r.r.r.r.7.7.r.r.2.2.>.>.>.>.>.>.>.>.>.>.>.h h h h i.i.i.u.u.u.u.u.u.G G G G >.>.>.>.6.6.1.1.6.9.9.9.9.q.q.q.q.h.h.h.h.9.9.9.9.9.y.y.y.y.s.s.s.s.9.9.9.9.9.<.1.1.1.r.r.r.r.1.1.1.1.1.1.1.1.1.8.4.4.4.K K K K L L L L K K K K K M.M.M.M.K K K K L L L L L L L L L $.$.oXoXV.V.V.V.XXXXXXXXXXI L L L +.+.+.O.<X<X<X<X<XwXqXwXwX9X9X9X9X5X5X5X5XpXpXpXpXpXpXpXpXpXpXpXpXpX5X5X5X5X5X9X9X9X9XqXqXqXqXpXpXpXpXpXpXpXpXpXpXpXpXpXpXpXpXpXpXpXpXpXpXpXpXpXpXpXpXpXpXpXpXpXpXpXpXpXpXpXpXpXpXpXpXpXpXpXpXpXpXpXpXpXpXpXpXpXpXpXpXpXpXpXpXpXpXpXpXpXpXpXpXpXpXpXpXpXpXpXpXpXpXpXpXpXpXpXpXpXpXpXpXpXpXpXpXpXpXpXpXpXpXpXpXpXpXpXpXpXpXpXpXpXpXpXpXpXpXpXpXpXpXpXpXpXpXpX",
"pXpXpX<X<X<X<XqXqXqXqXrXrXrXrXrXqXqXqXqX+X+X+X+XO.@.@.@.o.o.o.o.o.#.#.#.#.@.@.@.@.%X%X%X%X%X+X+X+X+X-X-X-X-XO.O.O.O.$.$.$.$.$.i.i.i.i.e.,.,.,.8.8.8.8.r.r.r.r.r.r.r.r.r.>.>.>.>.>.>.>.>.>.>.>.>.>.h h h h u.u.i.u.u.u.u.u.u.G G G G >.>.>.>.6.6.6.6.1.9.9.9.9.q.q.q.q.h.h.h.h.9.9.9.9.9.s.s.s.y.s.s.s.s.9.9.9.9.9.1.1.1.1.r.r.r.r.1.1.1.1.1.1.1.1.1.4.4.4.8.K K K K L L L L K K K K K M.M.M.M.K K K K L L L L L L L L L oXoXoXoXV.V.V.V..X.X.XXX.XL L L L O.O.O.O.<X<X<X<X<XwXwXwXwX9X9X9X9X5X5X5X5XpXpXpXpXpXpXpXpXpXpXpXpXpX5X5X5X5X5X9X9X9X9XqXqXqXqXpXpXpXpXpXpXpXpXpXpXpXpXpXpXpXpXpXpXpXpXpXpXpXpXpXpXpXpXpXpXpXpXpXpXpXpXpXpXpXpXpXpXpXpXpXpXpXpXpXpXpXpXpXpXpXpXpXpXpXpXpXpXpXpXpXpXpXpXpXpXpXpXpXpXpXpXpXpXpXpXpXpXpXpXpXpXpXpXpXpXpXpXpXpXpXpXpXpXpXpXpXpXpXpXpXpXpXpXpXpXpXpXpXpXpXpXpXpXpXpXpXpXpXpXpXpXpX",
"pXpXpX<X<X<X<XqXqXqXqXrXrXrXrXrXqXqXqXqX+X+X+X+XO.@.@.@.o.o.o.o.o.#.#.#.#.@.@.@.@.%X%X%X%X%X+X+X+X+X-X-X-X-XO.O.U O.$.$.$.$.$.i.i.i.i.,.,.,.,.8.8.8.8.r.r.r.r.r.r.r.r.r.>.>.>.>.>.>.>.>.>.>.>.>.>.h h h h i.i.i.u.u.u.u.u.u.G G G G >.>.>.>.6.6.6.6.1.9.9.9.9.q.q.q.q.h.h.h.h.9.9.9.9.9.s.s.s.y.s.s.s.s.9.9.9.9.9.1.1.1.1.r.r.r.r.1.1.1.1.1.1.1.1.1.4.4.4.8.K K K K L L L L K K K K K M.M.M.M.K K K K L L L L L L L L L oXoXoXoXV.V.V.V..X.X.XXX.XL L L L O.O.O.O.<X<X<X<X<XwXwXwXwX9X9X9X9X5X5X5X5XpXpXpXpXpXpXpXpXpXpXpXpXpX5X5X5X5X5X9X9X9X9XqXqXqXqXpXpXpXpXpXpXpXpXpXpXpXpXpXpXpXpXpXpXpXpXpXpXpXpXpXpXpXpXpXpXpXpXpXpXpXpXpXpXpXpXpXpXpXpXpXpXpXpXpXpXpXpXpXpXpXpXpXpXpXpXpXpXpXpXpXpXpXpXpXpXpXpXpXpXpXpXpXpXpXpXpXpXpXpXpXpXpXpXpXpXpXpXpXpXpXpXpXpXpXpXpXpXpXpXpXpXpXpXpXpXpXpXpXpXpXpXpXpXpXpXpXpXpXpXpXpXpX",
"pXpXpX<X<X<X<XqXqXqXqXrXrXrXrXrXqXqXqXqX+X+X+X+XO.O.@.@.o.o.o.o.o.#.#.#.#.O.@.@.@.%X%X%X%X%X+X+X+X+X-X-X-X-XO.O.U U $.$.$.$.$.i.i.i.i.,.,.,.e.8.8.8.8.r.r.r.r.r.r.r.r.r.>.>.>.>.>.>.>.>.>.>.>.>.>.h h h h i.i.i.u.u.u.u.u.u.G G G G ,.,.>.>.6.6.6.6.6.9.9.9.9.q.q.q.q.h.h.h.h.9.9.9.9.9.s.s.s.s.s.s.s.s.9.9.9.9.9.1.1.1.1.r.r.r.r.1.1.1.1.1.1.1.1.1.4.4.8.8.K K K K L L L L K K P P P M.M.M.M.K K K K L L L L L L L L L oXoXoXoXV.V.V.V.XXXXXXXX.XL L L L O.O.O.O.<X<X<X<X<XwXwXwXwX9X9X9X9X5X5X5X5XpXpXpXpXpXpXpXpXpXpXpXpXpX5X5X5X5X5X9X9X9X9XqXqXqXqXpXpXpXpXpXpXpXpXpXpXpXpXpXpXpXpXpXpXpXpXpXpXpXpXpXpXpXpXpXpXpXpXpXpXpXpXpXpXpXpXpXpXpXpXpXpXpXpXpXpXpXpXpXpXpXpXpXpXpXpXpXpXpXpXpXpXpXpXpXpXpXpXpXpXpXpXpXpXpXpXpXpXpXpXpXpXpXpXpXpXpXpXpXpXpXpXpXpXpXpXpXpXpXpXpXpXpXpXpXpXpXpXpXpXpXpXpXpXpXpXpXpXpXpXpXpXpX",
"pXpXpX<X<X<X2X;X,X,X,X#.#.#.#.#.4X4X4X4X.X.X.X.X#X#X+X+X%X%X%X%X%XtXtXtXtX8X8X8X8X<X<X<X<X<X%X%X%X%X-X-X-X-X|.|.|.|.M.M.M.M.M.7.7.7.7.2.8.8.8.y.y.y.y.<.1.1.1.1.1.1.1.1.1.1.1.1.1.1.1.1.1.8.8.8.8.e.e.e.e.h h h h L L L L L h h z z H H H H 9.9.9.9.9.q.0.q.q.w.s.s.w.j.j.j.j.s.s.s.s.s.s.s.s.h.h.h.h.h.q.q.q.q.q.9.9.9.9.7.7.7.7.7.7.7.7.1.1.1.1.1.<.<.1.1.e.e.r.r.X.X.@.@.X.X.X.X.X.B.p.N.N.r.8.8.8.i.i.i.i.i.$.$.+.+.i.i.i.i.r.r.r.r.H H H H H L L L L @X.X.X@X+.+.+.+.+.8X8X8X8XpXpXpXpXpXpXpXpX8X8X8X8X8X7X7X7X7XpXpXpXpX8X8X9X9X9XpXpXpXpXwXwXwXwXpXpXpXpXpXpXpXpXpXpXpXpXpXpXpXpXpXpXpXpXpXpXpXpXpXpXpXpXpXpXpXpXpXpXpXpXpXpXpXpXpXpXpXpXpXpXpXpXpXpXpXpXpXpXpXpXpXpXpXpXpXpXpXpXpXpXpXpXpXpXpXpXpXpXpXpXpXpXpXpXpXpXpXpXpXpXpXpXpXpXpXpXpXpXpXpXpXpXpXpXpXpXpXpXpXpXpXpXpXpXpXpXpXpXpXpXpXpXpXpXpXpXpXpXpXpXpX",
"pXpXpX<X<X<X<X;X;X;X;X#.#.#.#.#.4X4X4X4X.X.X.X.X+X+X+X+X-X-X-X%X-XtXtXtXtX8X8X8X8X<X<X<X<X<X%X%X%X%X-X-X-X-X|.|.|. XM.M.M.M.M.7.7.7.7.2.2.2.8.y.r.r.r.1.1.1.1.1.1.1.1.1.<.<.<.<.1.1.1.1.1.8.8.8.8.e.h h e.h h h f L L L L L z z z z G G G G 9.9.9.9.9.q.0.q.q.w.w.w.w.j.j.j.j.s.s.s.h.h.s.s.s.s.h.h.h.h.q.q.q.q.q.9.9.9.9.9.7.9.7.7.7.7.7.1.1.1.1.1.1.1.1.<.e.e.e.e.X.L L L X.X.X.X.X.p.p.p.N.r.8.8.8.i.i.i.i.i.$.$.$.$.i.i.i.i.r.r.r.r.H H H H H L L L L +X+X.X@X+.+.+.+.+.8X8X8X8XpXpXpXpXpXpXpXpX8X8X8X8X8X7X7X7X7XpXpXpXpX8X8X8X8X8XpXpXpXpXwXwXwXwXpXpXpXpXpXpXpXpXpXpXpXpXpXpXpXpXpXpXpXpXpXpXpXpXpXpXpXpXpXpXpXpXpXpXpXpXpXpXpXpXpXpXpXpXpXpXpXpXpXpXpXpXpXpXpXpXpXpXpXpXpXpXpXpXpXpXpXpXpXpXpXpXpXpXpXpXpXpXpXpXpXpXpXpXpXpXpXpXpXpXpXpXpXpXpXpXpXpXpXpXpXpXpXpXpXpXpXpXpXpXpXpXpXpXpXpXpXpXpXpXpXpXpXpXpXpXpX",
"pXpXpX<X2X<X<X;X;X;X;X#.#.#.#.#.4X4X4X4X.X.X.X.X+X+X+X+X%X-X%X%X-XtXtXtXtX8X8X8X8X<X<X<X<X<X%X%X%X%X-X-X-X-X|.|. X XM.M.M.M.M.7.7.7.7.2.2.2.2.y.r.r.r.1.1.1.1.1.1.1.1.1.8.<.<.<.1.1.1.1.1.8.8.8.8.e.h h e.h h h f L L L L L z z z z G G G G 9.9.9.9.9.q.q.q.0.w.w.w.w.j.j.j.j.s.s.s.s.h.s.s.s.s.h.h.h.h.q.q.q.q.q.9.9.9.9.9.7.9.7.7.7.7.7.1.1.1.1.1.1.1.<.<.e.e.e.e.L L L L X.X.X.X.X.p.p.p.N.r.8.8.8.i.i.i.i.i.$.$.$.$.i.i.i.i.r.r.r.r.H H H H H L L L L +X+X.X@X+.+.+.+.+.8X8X8X8XpXpXpXpXpXpXpXpX7X8X8X8X8X7X7X7X7XpXpXpXpX8X8X8X8X8XpXpXpXpXwXwXwXwXpXpXpXpXpXpXpXpXpXpXpXpXpXpXpXpXpXpXpXpXpXpXpXpXpXpXpXpXpXpXpXpXpXpXpXpXpXpXpXpXpXpXpXpXpXpXpXpXpXpXpXpXpXpXpXpXpXpXpXpXpXpXpXpXpXpXpXpXpXpXpXpXpXpXpXpXpXpXpXpXpXpXpXpXpXpXpXpXpXpXpXpXpXpXpXpXpXpXpXpXpXpXpXpXpXpXpXpXpXpXpXpXpXpXpXpXpXpXpXpXpXpXpXpXpXpXpX",
"pXpXpX<X<X<X<X;X;X;X;X#.#.#.#.#.4X4X4X4X.X.X.X.X#X+X+X+X%X-X-X-X%XtXtXtXtX8X8X8X8X<X<X<X<X<X%X%X%X%X-X-X-X-X|.|.|.|.M.M.M.M.M.7.7.7.7.2.2.2.2.y.r.r.r.1.1.1.1.1.1.1.1.1.8.8.<.<.1.1.1.1.1.8.8.8.8.e.f h h f h f f L L L L L z z z z H G H H 9.9.9.9.9.q.q.q.0.w.w.w.w.j.j.j.j.s.s.s.h.h.s.s.s.s.h.h.h.h.q.q.q.q.q.9.9.9.9.9.9.9.7.7.7.7.7.1.1.1.1.1.1.1.1.1.e.e.e.e.X.X.L L X.X.X.X.X.p.p.p.N.r.r.8.8.i.i.i.i.i. X+.$.$.i.i.i.i.r.r.r.r.H H H H H L L L L +X+X+X@X+.+.+.+.+.8X8X8X8XpXpXpXpXpXpXpXpX7X7X8X8X8X8X8X8X7XpXpXpXpX8X8X8X8X8XpXpXpXpXwXwXwXwXpXpXpXpXpXpXpXpXpXpXpXpXpXpXpXpXpXpXpXpXpXpXpXpXpXpXpXpXpXpXpXpXpXpXpXpXpXpXpXpXpXpXpXpXpXpXpXpXpXpXpXpXpXpXpXpXpXpXpXpXpXpXpXpXpXpXpXpXpXpXpXpXpXpXpXpXpXpXpXpXpXpXpXpXpXpXpXpXpXpXpXpXpXpXpXpXpXpXpXpXpXpXpXpXpXpXpXpXpXpXpXpXpXpXpXpXpXpXpXpXpXpXpXpXpXpXpX",
"<X<X<X<X<X<X<XoXoXoXoXo.o.o.#.#.1X1X1X1X#X#X#X#X.X.X.X.X2X2X2X2X2X-X-X-X-XqXqXqXqX2X2X2X2X2X+X#X+X+X<X<X<X<X.X.X.X.Xu.u.u.u.u.r.r.r.r.r.r.r.r.7.6.6.8.r.r.r.r.r.2.2.2.2.8.8.8.8.6.6.6.6.6.q.q.q.q.6.6.6.6.,.,.,.,.y y y y y L L L L ,.,.,.,.0.0.0.0.0.w.w.w.w.w.w.w.w.l.l.l.l.k.k.k.k.k.j.j.j.j.s.h.h.h.h.h.h.h.h.9.9.9.9.y.t.t.y.8.8.8.8.7.7.7.r.r.1.1.1.1.1.1.1.1.e.e.e.e.G G G G G p.p.p.p.7.7.7.7.p.p.p.p.p.z z z z u.u.u.z 8.8.8.8.M.M.M.M.M.K K K K oXoXoXoXC.C.C.C.C. X X X XpXpXpXpX:X:X:X:X4X4X4XrXrXpXpXpXpXqXqXqXqXwXwXwXwXwXpXpXpXpXpXpXpXpXpXpXpXpXpXpXpXpXpXpXpXpXpXpXpXpXpXpXpXpXpXpXpXpXpXpXpXpXpXpXpXpXpXpXpXpXpXpXpXpXpXpXpXpXpXpXpXpXpXpXpXpXpXpXpXpXpXpXpXpXpXpXpXpXpXpXpXpXpXpXpXpXpXpXpXpXpXpXpXpXpXpXpXpXpXpXpXpXpXpXpXpXpXpXpXpXpXpXpXpXpXpXpXpXpXpXpXpXpXpXpXpXpXpXpXpXpXpXpXpXpXpXpXpXpXpXpX",
"<X<X<X<X<X<X<XoXoXoXoXo.o.o.#.#.1X1X1X1X+X+X+X+X.X.X.X.X2X2X2X2X2X-X-X-X-XqXqXqXqX2X2X2X2X2X#X#X+X+X<X<X<X<X.X.X.X.Xu.u.u.u.u.r.r.r.r.r.r.r.r.7.6.6.6.r.r.r.r.r.>.>.>.>.8.8.8.8.6.6.6.6.6.q.q.q.q.6.6.6.6.,.,.,.,.y y y y y L L L L ,.,.,.,.0.0.0.9.9.w.w.w.w.w.w.w.w.l.l.l.l.k.k.k.k.k.j.j.j.j.s.s.s.s.h.h.h.h.h.9.9.9.9.y.y.t.y.8.8.8.8.r.r.r.r.r.1.1.1.1.1.1.1.1.e.e.e.e.G G G G G p.p.p.p.6.7.7.2.p.p.p.p.p.u.u.u.z u.u.u.u.8.8.8.8.N.N.N.N.M.K K K K oXoXoXoXC.C.C.C.C. X X X XpXpXpXpX:X:X:X:X4X4X4X4X4XpXpXpXpXqXqXqXqXwXwXwXwXwXpXpXpXpXpXpXpXpXpXpXpXpXpXpXpXpXpXpXpXpXpXpXpXpXpXpXpXpXpXpXpXpXpXpXpXpXpXpXpXpXpXpXpXpXpXpXpXpXpXpXpXpXpXpXpXpXpXpXpXpXpXpXpXpXpXpXpXpXpXpXpXpXpXpXpXpXpXpXpXpXpXpXpXpXpXpXpXpXpXpXpXpXpXpXpXpXpXpXpXpXpXpXpXpXpXpXpXpXpXpXpXpXpXpXpXpXpXpXpXpXpXpXpXpXpXpXpXpXpXpXpXpXpXpXpX",
"<X<X<X<X<X<X<XoXoXoXoXo.o.o.#.#.1X1X1X1X+X+X+X+X.X.X.X.X2X2X2X2X2X-X-X-X-XqXqXqXqX2X2X2X2X2X#X#X+X+X<X<X<X<X.X.X.X.Xu.u.u.u.u.r.r.r.r.r.r.r.r.7.6.6.6.r.r.r.r.r.>.<.>.>.8.8.8.8.6.6.6.6.6.q.q.q.q.6.6.6.6.,.,.,.,.y y y y y L L L L y ,.,.,.0.0.0.9.9.w.w.w.w.w.w.w.w.l.l.l.l.k.k.k.k.k.j.j.j.j.s.s.s.s.h.h.h.h.h.9.9.9.9.y.t.t.y.8.8.8.8.r.r.r.r.r.1.1.1.1.1.1.1.1.e.e.e.e.G G G G G p.p.p.p.6.7.7.2.p.p.p.p.p.u.u.u.z u.u.u.u.8.8.8.8.N.N.N.N.M.K K K K oXoXoXoXC.C.C.C.C. X X X XpXpXpXpX:X:X:X:X4X4X4X4X4XpXpXpXpXqXqXqXqXwXwXwXwXwXpXpXpXpXpXpXpXpXpXpXpXpXpXpXpXpXpXpXpXpXpXpXpXpXpXpXpXpXpXpXpXpXpXpXpXpXpXpXpXpXpXpXpXpXpXpXpXpXpXpXpXpXpXpXpXpXpXpXpXpXpXpXpXpXpXpXpXpXpXpXpXpXpXpXpXpXpXpXpXpXpXpXpXpXpXpXpXpXpXpXpXpXpXpXpXpXpXpXpXpXpXpXpXpXpXpXpXpXpXpXpXpXpXpXpXpXpXpXpXpXpXpXpXpXpXpXpXpXpXpXpXpXpXpXpX",
"<X<X<X<X<X<X<XoXoXoXoXo.o.#.#.#.1X1X1X1X#X+X+X+X.X.X.X.X2X2X2X2X2X-X-X-X-XqXqXqXqX2X2X2X2X2X#X#X+X+X<X<X<X<X.X.X.X.Xu.u.u.u.u.r.r.r.r.r.r.r.r.6.6.6.6.r.r.r.r.r.<.<.2.2.8.8.8.8.6.6.6.6.6.q.q.q.q.6.6.6.6.,.,.,.,.y y y y y L L L L ,.,.,.,.0.0.9.9.9.w.w.w.w.w.w.w.w.l.l.l.l.k.k.k.k.k.j.j.j.j.h.h.s.h.h.h.h.h.h.9.9.9.9.y.y.y.y.8.8.8.8.8.r.r.r.r.1.1.1.1.1.1.1.1.e.e.e.e.G G G G G p.p.p.p.6.7.7.7.p.a.a.p.p.u.u.u.u.u.z z z 8.8.8.8.M.M.N.N.M.K K K K oXoXoXoXC.C.C.C.C. X X X XpXpXpXpX:X:X:X:X4X4X4X4X4XpXpXpXpXqXqXqXqXwXwXwXwXwXpXpXpXpXpXpXpXpXpXpXpXpXpXpXpXpXpXpXpXpXpXpXpXpXpXpXpXpXpXpXpXpXpXpXpXpXpXpXpXpXpXpXpXpXpXpXpXpXpXpXpXpXpXpXpXpXpXpXpXpXpXpXpXpXpXpXpXpXpXpXpXpXpXpXpXpXpXpXpXpXpXpXpXpXpXpXpXpXpXpXpXpXpXpXpXpXpXpXpXpXpXpXpXpXpXpXpXpXpXpXpXpXpXpXpXpXpXpXpXpXpXpXpXpXpXpXpXpXpXpXpXpXpXpXpX",
"8X8X8X7X8X8X8XtXtXtXtXP P P P P P P P P |.|.|.|.rXrXrXrX|.|.|.|.|..X.X.X.X4X4X4X4X%X%X%X%X%X7X7X7X7X+X+X+X+X X X X XV.V.V.V.V.7.7.7.7.r.r.4.4.2.8.8.8.e.e.e.e.e.,.,.,.,.t.t.t.t.q.q.q.q.q.w.w.w.w.q.q.q.q.y.y.y.y.z z z z z y y y y h h h h 7.7.7.7.7.s.s.s.s.l.l.l.l.y.y.y.y.j.j.j.j.j.x.x.x.v.j.j.j.j.s.s.s.s.s.5.5.5.7.u.u.u.u.4.4.4.4.>.4.4.>.>.>.>.>.>.7.7.7.7.p.p.p.p.f f f f f K K K K 8.8.8.8.7.7.7.7.7.t.t.t.t.G G G G i.i.i.i.r.r.r.r.r. X X X X$.$.$.$.K.o.o.o.o.%X%X%X%X<X<X<X<XpXpXpXpXpXpXpXpXpXpXpXpXpXpXpXpXpXpXpXpXpXpXpXpXpXpXpXpXpXpXpXpXpXpXpXpXpXpXpXpXpXpXpXpXpXpXpXpXpXpXpXpXpXpXpXpXpXpXpXpXpXpXpXpXpXpXpXpXpXpXpXpXpXpXpXpXpXpXpXpXpXpXpXpXpXpXpXpXpXpXpXpXpXpXpXpXpXpXpXpXpXpXpXpXpXpXpXpXpXpXpXpXpXpXpXpXpXpXpXpXpXpXpXpXpXpXpXpXpXpXpXpXpXpXpXpXpXpXpXpXpXpXpXpXpXpXpXpXpXpXpXpXpXpXpXpXpX",
"8X8X8X7X8X8X8XtXtXtXtXP P P P P P P P P |.|.|.|.rXrXrXrX|.|.|.|.|..X.X.X.X4X4X4X4X-X%X%X%X%X7X7X7X7X@X@X+X+X X X X XV.V.V.V.V.7.7.7.7.8.4.4.4.2.4.4.4.e.e.e.e.e.y y ,.,.t.t.t.t.q.q.q.q.q.w.w.w.w.q.q.q.q.y.y.y.y.z z z z z y y y y h h h h 7.7.7.7.7.s.s.s.s.l.l.l.l.y.y.y.y.j.j.j.j.j.v.v.v.v.j.j.j.j.s.s.s.s.s.5.5.5.7.u.u.u.u.4.4.4.5.>.>.4.2.2.>.>.>.>.7.7.7.7.p.p.p.p.f f f f f K K K K 8.8.8.8.7.7.7.7.7.t.t.t.t.G G G G t.t.i.i.r.r.r.r.r. X X X X$.$.$.$.K.K.K.o.K.%X%X%X%X<X<X<X<XpXpXpXpXpXpXpXpXpXpXpXpXpXpXpXpXpXpXpXpXpXpXpXpXpXpXpXpXpXpXpXpXpXpXpXpXpXpXpXpXpXpXpXpXpXpXpXpXpXpXpXpXpXpXpXpXpXpXpXpXpXpXpXpXpXpXpXpXpXpXpXpXpXpXpXpXpXpXpXpXpXpXpXpXpXpXpXpXpXpXpXpXpXpXpXpXpXpXpXpXpXpXpXpXpXpXpXpXpXpXpXpXpXpXpXpXpXpXpXpXpXpXpXpXpXpXpXpXpXpXpXpXpXpXpXpXpXpXpXpXpXpXpXpXpXpXpXpXpXpXpXpXpXpXpXpXpX",
"8X8X8X7X8X8X8XtXtXtXtXP P P P P P P P P |.|.|.|.rXrXrXrX|.|.|.|.|..X.X.X.X4X4X4X4X-X%X%X%X%X7X7X7X7X@X@X+X+X X X X XV.V.V.V.V.7.7.7.7.8.4.4.4.2.4.4.4.e.e.e.e.e.y y ,.,.t.t.t.t.q.q.q.q.q.w.w.w.w.q.q.q.q.y.y.y.y.z z z z z y y y y h h h h 7.7.7.7.7.s.s.s.s.l.l.l.l.y.y.y.y.j.j.j.j.j.v.v.v.v.j.j.j.j.s.s.s.s.s.5.5.7.5.u.u.u.u.4.4.4.5.>.>.4.2.2.>.>.>.>.7.7.7.7.p.p.p.p.f f f f f K K K K 8.8.8.8.7.7.7.8.8.t.t.t.t.G G H G t.t.t.i.r.r.r.r.r. X X X X$.$.$.$.K.K.K.o.K.%X%X%X%X<X<X<X<XpXpXpXpXpXpXpXpXpXpXpXpXpXpXpXpXpXpXpXpXpXpXpXpXpXpXpXpXpXpXpXpXpXpXpXpXpXpXpXpXpXpXpXpXpXpXpXpXpXpXpXpXpXpXpXpXpXpXpXpXpXpXpXpXpXpXpXpXpXpXpXpXpXpXpXpXpXpXpXpXpXpXpXpXpXpXpXpXpXpXpXpXpXpXpXpXpXpXpXpXpXpXpXpXpXpXpXpXpXpXpXpXpXpXpXpXpXpXpXpXpXpXpXpXpXpXpXpXpXpXpXpXpXpXpXpXpXpXpXpXpXpXpXpXpXpXpXpXpXpXpXpXpXpXpXpXpX",
"8X8X8X7X7X7X7XtXtXtXtXP P P P P P P P P |.|.|.|.rXrXrXrX|.|.|.|.|..X.X.X.X4X4X4X4X-X%X%X%X%X7X7X7X7X@X@X+X+X X X X XV.V.V.V.V.7.7.7.7.8.4.4.r.4.4.4.4.e.e.e.e.e.y y y y t.t.t.t.q.q.q.q.q.w.w.w.w.q.q.q.q.y.y.y.y.z z z z z y y y y h h h h 7.7.7.7.7.s.s.s.s.l.l.l.l.y.y.y.y.j.j.j.j.j.v.v.x.x.j.j.j.j.s.s.s.s.s.7.7.7.5.u.u.u.u.4.4.4.5.>.>.>.2.2.>.>.>.>.7.7.7.7.p.p.p.p.f f f f f K K K K 4.8.8.8.7.8.8.8.8.t.t.t.t.G G G G t.t.i.i.r.r.r.r.r. X X X X$.$.$.$.K.K.K.K.K.%X%X%X%X<X<X<X<XpXpXpXpXpXpXpXpXpXpXpXpXpXpXpXpXpXpXpXpXpXpXpXpXpXpXpXpXpXpXpXpXpXpXpXpXpXpXpXpXpXpXpXpXpXpXpXpXpXpXpXpXpXpXpXpXpXpXpXpXpXpXpXpXpXpXpXpXpXpXpXpXpXpXpXpXpXpXpXpXpXpXpXpXpXpXpXpXpXpXpXpXpXpXpXpXpXpXpXpXpXpXpXpXpXpXpXpXpXpXpXpXpXpXpXpXpXpXpXpXpXpXpXpXpXpXpXpXpXpXpXpXpXpXpXpXpXpXpXpXpXpXpXpXpXpXpXpXpXpXpXpXpXpXpXpXpX",
"8X8X8X7X7X7X7XtXtXtXtXP P P P P P P P P |.|.|.|.rXrXrXrX|.|.|.|.|..X.X.X.X4X4X4X4X-X%X%X%X%X7X7X7X7X@X+X+X+X X X X XV.V.V.V.V.7.7.7.7.8.4.4.r.4.4.4.4.e.e.e.e.e.y y y y t.t.t.t.q.q.q.q.q.w.w.w.w.q.q.q.q.y.y.y.y.z z z z z y y y y h h h h 7.7.7.7.7.s.s.s.s.l.l.l.l.y.y.y.y.j.j.j.j.j.v.v.x.x.j.j.j.j.s.s.s.s.s.7.7.7.5.u.u.u.u.4.5.5.5.>.>.2.2.2.>.>.>.>.7.7.7.7.p.p.p.p.f f f f f K K K K 4.4.4.8.7.7.8.8.8.t.t.t.t.M.M.G G t.t.i.i.e.r.r.r.r. X X X X$.$.$.$.K.K.K.K.K.%X%X%X%X<X<X<X<XpXpXpXpXpXpXpXpXpXpXpXpXpXpXpXpXpXpXpXpXpXpXpXpXpXpXpXpXpXpXpXpXpXpXpXpXpXpXpXpXpXpXpXpXpXpXpXpXpXpXpXpXpXpXpXpXpXpXpXpXpXpXpXpXpXpXpXpXpXpXpXpXpXpXpXpXpXpXpXpXpXpXpXpXpXpXpXpXpXpXpXpXpXpXpXpXpXpXpXpXpXpXpXpXpXpXpXpXpXpXpXpXpXpXpXpXpXpXpXpXpXpXpXpXpXpXpXpXpXpXpXpXpXpXpXpXpXpXpXpXpXpXpXpXpXpXpXpXpXpXpXpXpXpXpXpXpX",
"pXpXpX<X<X<X<XpXpXpXwXuXuXuXuXuX<X<X<X<X$X$X$X$XK.K.K.K.|.|.|.|.|.oXoXoXoX#.#.#.#.4X4X4X4X4X<X<X>X>X@.@.@.@.C.C.C.C.p.p.N.N.N.r.r.r.r.>.>.>.>.y y y y y y y ,.,.f f f f r.r.r.r.h.h.h.h.h.s.s.w.w.j.j.j.j.j.j.j.j.5.5.5.5.5.y y y y u.u.u.u.0.y.y.y.0.s.s.s.s.l.h.h.h.r.y.y.r.x.z.z.x.x.v.v.v.v.v.v.v.v.l.l.l.l.l.p.p.p.p.y y y y h h h h ,.,.,.,.,.t.t.t.t.4.4.4.4.,.,.,.,.>.>.,.,.,.i.i.i.p.,.,.,.,.u.u.u.u.u.N.N.p.p.h h h h z z z G C.C.C.C.C.@.@.@.@.XXXXXXXX#.#.#.#.#.$.$.$.$.tXtXtXtX2X2X2X2XpXpXpXpXpXpXpXpXpXpXpXpXpXpXpXpXpXpXpXpXpXpXpXpXpXpXpXpXpXpXpXpXpXpXpXpXpXpXpXpXpXpXpXpXpXpXpXpXpXpXpXpXpXpXpXpXpXpXpXpXpXpXpXpXpXpXpXpXpXpXpXpXpXpXpXpXpXpXpXpXpXpXpXpXpXpXpXpXpXpXpXpXpXpXpXpXpXpXpXpXpXpXpXpXpXpXpXpXpXpXpXpXpXpXpXpXpXpXpXpXpXpXpXpXpXpXpXpXpXpXpXpXpXpXpXpXpXpXpXpXpXpXpXpXpXpXpXpXpXpXpXpXpX",
"pXpXpX<X<X<X<XpXpXpXwXuXuXuXuXuX<X<X<X<X$X$X$X$XK.K.K.K. X X|.|.|.oXoXoXoX#.#.#.#.4XrXrX4X4X<X<X>X>X@.@.@.@.C.C.C.C.p.p.N.N.p.r.r.r.r.>.>.>.>.y y y y y y y ,.,.f f f f r.r.r.r.h.h.h.h.h.s.s.s.w.j.j.j.j.j.j.j.j.5.5.5.5.5.y y y y u.u.u.u.0.0.0.0.y.s.s.s.s.l.h.h.h.r.y.y.r.x.z.z.x.x.v.b.v.v.v.v.v.v.l.l.l.l.l.p.p.p.p.y ,.y y h h h h ,.,.,.,.,.t.t.t.t.4.4.4.4.,.,.,.,.>.>.,.,.,.i.i.i.p.,.,.,.y u.u.u.u.u.N.N.N.M.h h h h z z z G C.C.C.C.C.@.@.@.@.XXXXXXXX#.#.#.#.#.$.$.$.$.tXtXtXtX2X2X2X2XpXpXpXpXpXpXpXpXpXpXpXpXpXpXpXpXpXpXpXpXpXpXpXpXpXpXpXpXpXpXpXpXpXpXpXpXpXpXpXpXpXpXpXpXpXpXpXpXpXpXpXpXpXpXpXpXpXpXpXpXpXpXpXpXpXpXpXpXpXpXpXpXpXpXpXpXpXpXpXpXpXpXpXpXpXpXpXpXpXpXpXpXpXpXpXpXpXpXpXpXpXpXpXpXpXpXpXpXpXpXpXpXpXpXpXpXpXpXpXpXpXpXpXpXpXpXpXpXpXpXpXpXpXpXpXpXpXpXpXpXpXpXpXpXpXpXpXpXpXpXpXpXpX",
"pXpXpX<X<X<X<XpXpXpXpXuXuXuXuXuX<X<X<X<X$X$X$X$XoXoXK.#.|.|.|.|.|.oXoXoXoX#.#.#.#.4X4XrX4X4X<X<X>X>X@.@.@.@.C.C.C.C.p.p.N.N.N.r.r.r.r.>.,.,.,.y y y y y y y y ,.f f f f r.r.r.r.h.h.h.h.h.s.s.s.w.j.j.j.j.j.j.j.j.5.5.5.5.5.y y y y u.u.u.u.0.0.0.0.0.s.s.s.s.h.h.h.h.r.y.y.y.x.x.x.x.x.b.b.m.m.v.v.v.v.l.l.l.l.l.p.p.p.p.y ,.,.y h h h h ,.,.,.,.,.t.t.t.t.4.4.4.4.,.,.,.,.>.>.>.,.,.i.i.i.i.,.y y y u.u.u.z z M.M.M.M.h h h h z z z z C.C.C.C.C.@.@.@.@.XXXXXXXX#.#.#.#.#.#.#.#.#.tXtXtXtX2X2X2X2XpXpXpXpXpXpXpXpXpXpXpXpXpXpXpXpXpXpXpXpXpXpXpXpXpXpXpXpXpXpXpXpXpXpXpXpXpXpXpXpXpXpXpXpXpXpXpXpXpXpXpXpXpXpXpXpXpXpXpXpXpXpXpXpXpXpXpXpXpXpXpXpXpXpXpXpXpXpXpXpXpXpXpXpXpXpXpXpXpXpXpXpXpXpXpXpXpXpXpXpXpXpXpXpXpXpXpXpXpXpXpXpXpXpXpXpXpXpXpXpXpXpXpXpXpXpXpXpXpXpXpXpXpXpXpXpXpXpXpXpXpXpXpXpXpXpXpXpXpXpXpXpXpX",
"pXpXpX<X<X<X<XpXpXpXpXuXuXuXuXuX<X<X<X<X$X$X$X$XoXoX#.#.|.|.|.|.|.oXoXoXoX#.#.#.#.4X4X4X4X4X<X<X>X>X@.X.@.@.C.C.C.C.p.p.N.N.N.r.r.r.r.>.,.,.,.y y y y y y y y ,.f f f f r.r.r.r.h.h.h.h.h.s.s.s.w.j.j.j.j.j.j.j.j.5.5.5.5.5.y y y y u.u.u.u.0.0.0.0.y.h.s.s.s.h.h.h.h.r.y.y.y.x.z.x.x.x.b.b.m.m.v.v.v.v.l.l.l.l.l.p.p.p.p.y ,.,.y h h h h ,.,.,.,.,.t.t.t.t.4.4.4.4.,.,.,.,.>.>.>.>.>.i.i.i.i.,.y y y u.u.z z z M.M.M.M.h h h h z z z z C.C.C.C.C.@.@.@.@.XXXXXXXX#.#.#.#.#.#.#.#.#.tXtXtXtX2X2X2X2XpXpXpXpXpXpXpXpXpXpXpXpXpXpXpXpXpXpXpXpXpXpXpXpXpXpXpXpXpXpXpXpXpXpXpXpXpXpXpXpXpXpXpXpXpXpXpXpXpXpXpXpXpXpXpXpXpXpXpXpXpXpXpXpXpXpXpXpXpXpXpXpXpXpXpXpXpXpXpXpXpXpXpXpXpXpXpXpXpXpXpXpXpXpXpXpXpXpXpXpXpXpXpXpXpXpXpXpXpXpXpXpXpXpXpXpXpXpXpXpXpXpXpXpXpXpXpXpXpXpXpXpXpXpXpXpXpXpXpXpXpXpXpXpXpXpXpXpXpXpXpXpXpX",
"pXpXpX8X8X8X9XpXpXpXpX>X>X>X>X>X%X%X%X%X$.$.$.$.C.C.V.V. X X X X X@X$X$X$XV.V.V.C.&X&X&X&X&XU U U U K K K K i.i.i.i.e.e.e.e.e.1.1.1.1.8.8.6.6.>.>.>.>.>.>.>.>.>.h h e.e.5.5.5.5.h.h.h.h.h.l.l.l.l.j.j.j.j.k.k.j.k.l.l.l.z.z.p.p.p.p.a.a.a.a.l.l.l.l.l.h.h.h.h.h.h.h.h.y.y.y.y.x.x.x.x.x.v.v.n.n.m.m.m.m.z.z.z.z.z.y.y.y.y.f.f.f.f.y y y ,.t.t.t.t.t.4.4.8.8.u.u.u.u.i.i.i.i.8.8.2.2.2.2.2.2.2.K K K K K K K K L e.e.e.e.K K K K K K K H M.M.M.M.M.#.#.#.#.-X-X-X-X-X-X-X-X-X X X|.|.%X%X%X%X5X5X5X5XpXpXpXpXpXpXpXpXpXpXpXpXpXpXpXpXpXpXpXpXpXpXpXpXpXpXpXpXpXpXpXpXpXpXpXpXpXpXpXpXpXpXpXpXpXpXpXpXpXpXpXpXpXpXpXpXpXpXpXpXpXpXpXpXpXpXpXpXpXpXpXpXpXpXpXpXpXpXpXpXpXpXpXpXpXpXpXpXpXpXpXpXpXpXpXpXpXpXpXpXpXpXpXpXpXpXpXpXpXpXpXpXpXpXpXpXpXpXpXpXpXpXpXpXpXpXpXpXpXpXpXpXpXpXpXpXpXpXpXpXpXpXpXpXpXpXpXpXpXpXpXpXpX",
"pXpXpX8X8X8X9XpXpXpXpX>X>X>X>X>X%X%X%X%X$.$.$.$.C.C.V.V.XX X X X X@X$X$X$XV.V.V.C.&X&X&X&X&XU U U U K K K K i.i.i.i.e.e.e.e.e.1.1.1.1.8.8.6.6.>.>.>.>.>.>.>.>.>.h h h e.5.5.5.5.h.h.h.h.h.l.l.l.l.j.j.j.j.k.j.j.k.l.l.l.z.z.p.p.p.p.a.a.a.a.l.l.l.l.l.h.h.h.h.h.h.h.h.y.y.y.y.x.x.x.x.x.v.v.n.n.m.m.m.m.z.z.z.z.z.y.y.y.y.f.f.f.f.y y y ,.t.t.t.t.t.4.4.8.8.u.u.u.u.i.i.i.i.8.8.2.2.8.2.2.2.2.K K K K K K K K K e.e.e.e.K K K K K K K K M.M.M.M.M.#.#.#.#.-X-X-X-X-X-X-X-X-X X X|.|.%X%X%X%X5X5X5X5XpXpXpXpXpXpXpXpXpXpXpXpXpXpXpXpXpXpXpXpXpXpXpXpXpXpXpXpXpXpXpXpXpXpXpXpXpXpXpXpXpXpXpXpXpXpXpXpXpXpXpXpXpXpXpXpXpXpXpXpXpXpXpXpXpXpXpXpXpXpXpXpXpXpXpXpXpXpXpXpXpXpXpXpXpXpXpXpXpXpXpXpXpXpXpXpXpXpXpXpXpXpXpXpXpXpXpXpXpXpXpXpXpXpXpXpXpXpXpXpXpXpXpXpXpXpXpXpXpXpXpXpXpXpXpXpXpXpXpXpXpXpXpXpXpXpXpXpXpXpXpXpXpX",
"pXpXpX8X8X9X9XpXpXpXpX>X>X>X>X>X-X%X-X-X$.$.$.$.V.V.V.V.XXXX X X X@X@X$X$XV.V.V.C.-X&X&X&X&XU U U U K K K K i.i.i.i.e.e.e.e.e.1.1.1.1.8.6.6.6.>.>.>.>.4.>.4.>.>.y y e.e.5.5.5.5.h.h.h.h.h.l.l.l.l.j.j.j.j.k.k.k.k.l.l.l.z.z.p.p.p.p.a.a.a.a.l.l.l.l.l.h.h.h.h.h.h.h.h.y.y.y.y.x.x.x.x.x.v.n.n.n.m.m.m.m.z.z.z.z.z.y.y.y.y.f.f.f.f.5.y y y t.t.t.t.t.8.8.8.8.u.u.u.u.i.i.i.i.8.8.2.2.8.>.2.2.2.K K K K K K K K K e.e.e.e.C.K K K K K K K M.M.M.M.M.#.#.#.#.-X-X-X-X-X-X-X-X-X X X|.|.%X%X%X%X5X5X5X5XpXpXpXpXpXpXpXpXpXpXpXpXpXpXpXpXpXpXpXpXpXpXpXpXpXpXpXpXpXpXpXpXpXpXpXpXpXpXpXpXpXpXpXpXpXpXpXpXpXpXpXpXpXpXpXpXpXpXpXpXpXpXpXpXpXpXpXpXpXpXpXpXpXpXpXpXpXpXpXpXpXpXpXpXpXpXpXpXpXpXpXpXpXpXpXpXpXpXpXpXpXpXpXpXpXpXpXpXpXpXpXpXpXpXpXpXpXpXpXpXpXpXpXpXpXpXpXpXpXpXpXpXpXpXpXpXpXpXpXpXpXpXpXpXpXpXpXpXpXpXpXpXpX",
"pXpXpX8X8X8X9XpXpXpXpX>X>X>X>X>X-X-X-X-X$.$.$.$.V.V.V.V.XXXX X X X@X@X@X$XV.V.V.C.-X&X&X&X&XU U U U K K K K i.i.i.i.e.e.e.e.e.1.1.1.1.1.1.6.6.>.>.>.>.4.4.4.>.>.y y e.e.5.5.5.5.h.h.h.h.h.l.l.l.l.j.j.j.j.k.k.k.k.l.l.l.z.z.p.p.p.p.a.a.a.a.l.l.l.l.l.h.h.h.h.h.h.h.h.y.y.y.y.x.x.x.x.x.n.n.n.n.m.m.m.m.z.z.z.z.z.y.y.y.y.f.f.f.f.5.y y y t.t.t.t.t.8.7.8.8.u.u.u.u.i.i.i.i.8.8.2.8.8.2.2.2.2.K K K K K K K K K e.e.e.e.C.K K K K K K K M.M.M.M.M.#.#.#.@.-X-X-X-X-X-X-X-X-X X X|.|.%X%X%X%X5X5X5X5XpXpXpXpXpXpXpXpXpXpXpXpXpXpXpXpXpXpXpXpXpXpXpXpXpXpXpXpXpXpXpXpXpXpXpXpXpXpXpXpXpXpXpXpXpXpXpXpXpXpXpXpXpXpXpXpXpXpXpXpXpXpXpXpXpXpXpXpXpXpXpXpXpXpXpXpXpXpXpXpXpXpXpXpXpXpXpXpXpXpXpXpXpXpXpXpXpXpXpXpXpXpXpXpXpXpXpXpXpXpXpXpXpXpXpXpXpXpXpXpXpXpXpXpXpXpXpXpXpXpXpXpXpXpXpXpXpXpXpXpXpXpXpXpXpXpXpXpXpXpXpXpXpX",
"pXpXpXpXpXpXpX8X7X7X8XpXpXpXpXpX>X>X>X>X1X1X1X1XoXOXOXOXo.I I I o.$X$X$X$XoXoXoXoX#.#.#.#.#.L L L L XXXXXXXXu.u.u.u.e.e.i.i.i.8.8.8.8.6.6.6.6.8.8.<.<.2.8.2.2.<.7.7.7.7.s.s.s.h.k.k.k.k.x.j.j.j.j.v.v.v.v.x.x.x.x.j.j.j.j.j.y.y.y.y.j.j.j.j.x.x.x.x.x.b.b.b.b.y.y.y.y.f.f.f.A.b.b.b.b.b.m.m.m.m.m.m.m.m.v.v.v.v.v.v.v.v.v.j.j.j.j.y.y.y.y.f.f.h.f.y.9.9.9.9.s.s.y.y.r.r.r.r.9.9.9.9.9.2.2.2.2.u.u.u.u.h z z z z G G G G K K K K +.+.+.O.H H H H H J J J J &X&X&X%X:X:X:X-X-X#X#X#X#X<X<X<X<X9X9X9X9XpXpXpXpXpX2X2X2X2XpXpXpXpXpXpXpXpXpXpXpXpXpXpXpXpXpXpXpXpXpXpXpXpXpXpXpXpXpXpXpXpXpXpXpXpXpXpXpXpXpXpXpXpXpXpXpXpXpXpXpXpXpXpXpXpXpXpXpXpXpXpXpXpXpXpXpXpXpXpXpXpXpXpXpXpXpXpXpXpXpXpXpXpXpXpXpXpXpXpXpXpXpXpXpXpXpXpXpXpXpXpXpXpXpXpXpXpXpXpXpXpXpXpXpXpXpXpXpXpXpXpXpXpXpXpXpXpXpXpXpXpXpXpXpXpXpXpXpXpXpXpXpXpX",
"pXpXpXpXpXpXpX8X7X7X8XpXpXpXpXpX>X>X>X>X1X1X1X1XoXOXOXOXo.I I I o.$X$X$X$XoX#.oXoX#.#.#.#.#.L L L L XXXXXXXXu.u.u.u.e.e.i.i.i.8.8.8.8.6.6.6.6.8.8.<.<.2.8.8.2.2.7.7.7.7.s.s.s.s.k.k.k.k.x.j.j.j.j.v.v.v.v.x.x.x.x.j.j.j.j.j.y.y.y.y.j.j.j.j.x.x.x.x.x.b.b.b.b.y.y.y.y.f.A.f.A.b.b.b.b.b.m.m.m.m.m.m.m.m.v.v.v.v.v.v.v.v.v.j.j.j.j.y.y.y.y.f.f.f.f.f.9.9.9.9.s.s.y.y.r.r.r.r.9.9.9.9.9.2.2.2.2.u.u.u.u.h z z z z G G G G K K K K +.+.+.O.H H H H H J J J J &X&X&X%X>X:X:X;X-X#X#X#X#X<X<X<X<X8X9X9X9XpXpXpXpXpX2X2X2X2XpXpXpXpXpXpXpXpXpXpXpXpXpXpXpXpXpXpXpXpXpXpXpXpXpXpXpXpXpXpXpXpXpXpXpXpXpXpXpXpXpXpXpXpXpXpXpXpXpXpXpXpXpXpXpXpXpXpXpXpXpXpXpXpXpXpXpXpXpXpXpXpXpXpXpXpXpXpXpXpXpXpXpXpXpXpXpXpXpXpXpXpXpXpXpXpXpXpXpXpXpXpXpXpXpXpXpXpXpXpXpXpXpXpXpXpXpXpXpXpXpXpXpXpXpXpXpXpXpXpXpXpXpXpXpXpXpXpXpXpXpXpXpXpX",
"pXpXpXpXpXpXpX8X7X7X7XpXpXpXpXpX>X>X>X>X1X1X1X1XoXoXOXOXo.o.I I o.$X$X$X$X#.oXoXoX#.#.#.$.$.L L L L XXXXXXXXu.u.u.u.i.i.i.i.i.8.8.8.8.6.6.6.6.<.1.1.<.8.8.8.8.8.7.7.7.7.s.s.s.s.k.k.k.k.x.j.j.j.j.v.v.v.v.x.x.x.x.j.j.j.j.j.y.y.y.y.j.j.j.j.x.x.x.x.x.b.b.b.b.y.y.y.y.A.A.A.A.b.b.b.b.b.m.m.m.m.m.m.m.m.v.v.v.v.v.v.v.v.v.j.j.j.j.y.y.y.y.y.y.y.y.y.9.9.9.9.y.y.s.s.r.r.r.r.9.9.9.9.9.2.2.2.2.e.u.u.u.h h h z z G G G G K K K K +.+.+.+.H H H H H J J J J &X#X&X&X>X:X:X;X;X#X#X#X#X<X<X<X<X8X8X9X9XpXpXpXpXpX2X2X2X2XpXpXpXpXpXpXpXpXpXpXpXpXpXpXpXpXpXpXpXpXpXpXpXpXpXpXpXpXpXpXpXpXpXpXpXpXpXpXpXpXpXpXpXpXpXpXpXpXpXpXpXpXpXpXpXpXpXpXpXpXpXpXpXpXpXpXpXpXpXpXpXpXpXpXpXpXpXpXpXpXpXpXpXpXpXpXpXpXpXpXpXpXpXpXpXpXpXpXpXpXpXpXpXpXpXpXpXpXpXpXpXpXpXpXpXpXpXpXpXpXpXpXpXpXpXpXpXpXpXpXpXpXpXpXpXpXpXpXpXpXpXpXpXpX",
"pXpXpXpXpXpXpX7X7X7X7XpXpXpXpXpX>X>X>X>X1X1X1X1XoXoXOXOXo.o.I I P $X$X$X$X#.oXoXoX#.#.#.$.$.L L L L XXXXXXXXu.u.u.u.i.i.i.i.i.8.8.8.8.6.6.6.6.<.6.1.6.2.8.8.8.8.7.7.7.7.s.s.s.s.k.k.k.k.x.j.j.j.j.v.v.v.v.x.x.x.x.j.j.j.j.j.y.y.y.y.j.j.j.j.x.x.x.x.x.b.b.b.b.y.y.y.y.A.A.A.A.b.b.b.b.b.m.m.m.m.m.m.m.m.v.v.v.v.v.v.v.v.v.j.j.j.j.y.y.y.y.y.y.y.y.y.9.9.9.9.y.y.s.s.r.r.r.r.9.9.9.9.9.2.2.2.2.e.u.u.u.h h h z z G G G G H K K K +.+.+.+.H H H H H J J J J &X#X#X&X;X:X:X:X:X#X#X#X#X<X<X<X<X8X8X9X9XpXpXpXpXpX2X2X2X2XpXpXpXpXpXpXpXpXpXpXpXpXpXpXpXpXpXpXpXpXpXpXpXpXpXpXpXpXpXpXpXpXpXpXpXpXpXpXpXpXpXpXpXpXpXpXpXpXpXpXpXpXpXpXpXpXpXpXpXpXpXpXpXpXpXpXpXpXpXpXpXpXpXpXpXpXpXpXpXpXpXpXpXpXpXpXpXpXpXpXpXpXpXpXpXpXpXpXpXpXpXpXpXpXpXpXpXpXpXpXpXpXpXpXpXpXpXpXpXpXpXpXpXpXpXpXpXpXpXpXpXpXpXpXpXpXpXpXpXpXpXpXpXpX",
"wXwXwX9X8X8X9X7X7X7X7X5X5X5X5X5X<X<X<X<X2X2X2X2X>X>X>X>X:X:X:X:X:X<X<X<X<XXXXXXXXX4X4X4X4X4X|.|.|.|.J L L L H H H H u.u.u.u.u.8.8.8.8.1.1.1.1.y.y.y.y.0.0.0.0.0.w.w.w.w.j.j.j.j.j.j.j.j.j.x.v.x.x.v.v.v.v.k.k.k.k.x.x.x.x.x.l.l.l.l.v.v.v.v.m.m.m.m.m.v.v.v.v.z.z.z.z.A.A.A.A.b.v.v.v.v.[.[.[.[.[.U.[.U.v.v.v.v.v.k.k.x.x.x.x.x.k.z.z.z.z.f.f.f.f.f.h.s.s.s.l.j.j.j.h.h.h.h.6.6.6.6.6.>.>.>.>.y y y y G G G G G H H H H i.i.i.i.H H H C.V.V.V.V.V.L L L L I I I P C.C.C.C.C.+.+.+.+.1X1X1X1X<X<X<X<X2X2X2X2X2X:X:X:X:X9X9X9X9XqXqXqXqXqXpXpXpXpXpXpXpXpXpXpXpXpXpXpXpXpXpXpXpXpXpXpXpXpXpXpXpXpXpXpXpXpXpXpXpXpXpXpXpXpXpXpXpXpXpXpXpXpXpXpXpXpXpXpXpXpXpXpXpXpXpXpXpXpXpXpXpXpXpXpXpXpXpXpXpXpXpXpXpXpXpXpXpXpXpXpXpXpXpXpXpXpXpXpXpXpXpXpXpXpXpXpXpXpXpXpXpXpXpXpXpXpXpXpXpXpXpXpXpXpXpXpXpXpXpXpXpXpXpXpXpXpXpXpXpX",
"wXwXwX9X8X8X9X7X7X7X7X5X5X5X5X5X<X<X<X<X2X2X2X2X>X>X>X>X:X:X:X:X:X<X<X<X<XXXXXXXXX4X4X4X4X4X|.|.|.|.J J L L H H H H u.u.u.u.u.8.8.8.8.1.1.1.1.y.y.y.y.0.0.0.0.0.w.w.w.w.j.j.j.j.j.j.j.j.j.x.x.v.x.v.v.v.v.k.k.k.k.x.x.x.x.x.l.l.l.l.v.v.v.v.m.m.m.m.m.v.v.v.v.z.z.z.z.A.A.A.A.b.v.v.v.v.[.[.[.[.[.[.U.[.v.v.v.v.v.k.k.x.x.x.x.k.k.z.z.z.z.f.f.f.f.f.h.h.s.s.l.j.j.j.h.h.h.h.6.6.6.6.6.>.>.>.>.y y y y G G G G G H H H H i.i.i.i.H H H H V.V.V.V.V.L L L L I I I P C.C.C.C.C.+.+.+.+.1X1X1X1X<X<X<X<X2X2X2X2X2X:X:X:X:X9X9X9X9XqXqXqXqXqXpXpXpXpXpXpXpXpXpXpXpXpXpXpXpXpXpXpXpXpXpXpXpXpXpXpXpXpXpXpXpXpXpXpXpXpXpXpXpXpXpXpXpXpXpXpXpXpXpXpXpXpXpXpXpXpXpXpXpXpXpXpXpXpXpXpXpXpXpXpXpXpXpXpXpXpXpXpXpXpXpXpXpXpXpXpXpXpXpXpXpXpXpXpXpXpXpXpXpXpXpXpXpXpXpXpXpXpXpXpXpXpXpXpXpXpXpXpXpXpXpXpXpXpXpXpXpXpXpXpXpXpXpXpXpX",
"wXwXwX9X8X8X8X7X7X7X7X5X5X5X5X5X<X<X<X<X2X2X2X2X>X>X>X>X:X:X:X:X:X4X<X<X<XXXXXXXXX4X4X4X4X4X|.|.|.|.L L L L H H H H u.u.u.u.u.8.8.8.8.1.1.1.1.y.y.y.y.0.0.0.0.0.w.w.w.w.j.j.j.j.j.j.j.j.j.x.x.v.x.x.v.v.v.k.k.k.k.x.x.x.x.x.l.l.l.l.v.v.v.v.m.m.m.m.m.v.v.v.v.z.z.z.z.f.f.f.A.b.v.v.v.v.[.[.[.[.[.U.[.U.v.v.v.v.v.k.x.k.x.x.k.k.k.z.z.z.z.f.f.f.f.f.h.h.s.s.j.j.j.j.h.h.h.s.6.6.6.6.6.>.>.>.>.y y y y G G G G G H H H H t.t.i.i.H H H H V.V.V.V.V.L L L L I I I I C.C.C.C.C.+.+.+.+.1X1X1X1X<X<X<X<X2X2X2X2X2X:X:X:X:X9X9X9X9XwXqXqXqXqXpXpXpXpXpXpXpXpXpXpXpXpXpXpXpXpXpXpXpXpXpXpXpXpXpXpXpXpXpXpXpXpXpXpXpXpXpXpXpXpXpXpXpXpXpXpXpXpXpXpXpXpXpXpXpXpXpXpXpXpXpXpXpXpXpXpXpXpXpXpXpXpXpXpXpXpXpXpXpXpXpXpXpXpXpXpXpXpXpXpXpXpXpXpXpXpXpXpXpXpXpXpXpXpXpXpXpXpXpXpXpXpXpXpXpXpXpXpXpXpXpXpXpXpXpXpXpXpXpXpXpXpXpXpXpX",
"wXwXwX9X8X8X8X7X7X7X7X5X5X5X5X5X<X<X<X<X2X2X2X2X>X>X>X>X:X:X:X:X:X2X<X<X<XXXXXXXXX4X4X4X4X4X|.|.|.|.L L L L H H H H u.u.u.u.u.8.8.8.8.1.1.1.1.y.y.y.y.0.0.0.0.0.w.w.w.w.j.j.j.j.j.j.j.j.j.x.v.x.x.F.v.v.v.k.k.k.k.x.x.x.x.x.l.l.l.l.v.v.v.v.m.m.m.m.m.v.v.v.v.z.z.z.z.f.f.f.A.b.b.v.v.v.[.[.[.[.[.[.U.[.v.v.v.v.v.k.k.x.x.x.x.k.k.z.z.z.z.f.f.f.f.f.h.h.s.s.j.j.j.j.h.h.h.h.6.6.6.6.6.>.>.>.>.y y y y G G G G G H H H H t.i.i.i.H H H H V.V.V.V.V.L L L L I I I I C.C.C.C.C.+.+.+.+.1X1X1X1X<X<X<X<X2X2X2X2X2X:X:X:X:X9X9X9X9XwXqXqXqXqXpXpXpXpXpXpXpXpXpXpXpXpXpXpXpXpXpXpXpXpXpXpXpXpXpXpXpXpXpXpXpXpXpXpXpXpXpXpXpXpXpXpXpXpXpXpXpXpXpXpXpXpXpXpXpXpXpXpXpXpXpXpXpXpXpXpXpXpXpXpXpXpXpXpXpXpXpXpXpXpXpXpXpXpXpXpXpXpXpXpXpXpXpXpXpXpXpXpXpXpXpXpXpXpXpXpXpXpXpXpXpXpXpXpXpXpXpXpXpXpXpXpXpXpXpXpXpXpXpXpXpXpXpXpXpX",
"wXwXwX9X9X9X9X7X7X7X7X5X5X5X5X5X<X<X<X<X2X2X2X2X:X:X:X:X:X:X:X:X:X2X2X2X2XXXXXXXXX4X4X4X4X4X|.|.|.|.L L L L H H H H u.u.u.u.u.8.8.8.8.1.1.1.1.y.y.y.y.0.0.0.0.0.w.w.w.w.j.j.j.j.j.j.j.j.j.x.x.x.x.F.v.v.v.k.k.k.k.x.x.x.x.x.l.l.l.l.v.v.v.v.m.m.m.m.m.v.v.v.v.z.z.z.z.A.A.A.f.v.v.v.v.v.[.[.[.[.[.[.[.[.v.v.v.v.v.x.x.x.x.k.k.k.k.z.z.z.z.f.f.f.f.f.h.h.s.s.j.j.j.j.h.h.h.h.6.6.9.6.6.>.>.>.>.y y y y G G G G G H H H H i.i.t.i.H H H H V.V.V.V.V.I I I I P P P I C.C.C.C.C.+.+.+.$.<X1X<X<X<X<X<X<X2X2X2X2X2X:X:X:X:X9X9X9X9XwXqXqXqXqXpXpXpXpXpXpXpXpXpXpXpXpXpXpXpXpXpXpXpXpXpXpXpXpXpXpXpXpXpXpXpXpXpXpXpXpXpXpXpXpXpXpXpXpXpXpXpXpXpXpXpXpXpXpXpXpXpXpXpXpXpXpXpXpXpXpXpXpXpXpXpXpXpXpXpXpXpXpXpXpXpXpXpXpXpXpXpXpXpXpXpXpXpXpXpXpXpXpXpXpXpXpXpXpXpXpXpXpXpXpXpXpXpXpXpXpXpXpXpXpXpXpXpXpXpXpXpXpXpXpXpXpXpXpXpX",
"pXpXpXpXpXpXpXpXpXpXpXpXpXpXpXpX<X<X<X<XpXpXpXpXqXqXqXqX+X+X+X+X+X@.@.@.@.Z.Z.Z.C.@X@X@X@X@X%X%X%X%XO.O.O.O.G G G G i.i.i.i.i.3.3.3.3.8.8.8.8.y.y.y.y.y.y.y.y.y.h.s.w.s.h.h.h.h.x.x.x.x.x.x.x.x.x.m.m.m.m.v.v.v.v.v.b.b.v.b.v.v.v.v.x.x.x.x.[.[.[.[.[.[.[.[.[.b.b.b.b.z.z.z.l.[.[.[.[.[.[.[.[.[.H.H.b.H.m.m.m.m.m.v.v.v.v.v.n.n.v.k.k.k.k.h.h.h.h.h.k.j.j.j.k.k.j.j.s.h.h.h.s.y.s.s.s.e.e.e.e.h h h h z G G G G i.i.i.i.r.r.r.r.i.i.i.i.V.V.V.V.V.G G G G X.X.X.X.i.i.i.M.M.@.@.@.@.J.J.J.J.<X<X<X<X%X%X%X%X+X-X-X-X-X<X<X<X<XpXpXpXpXpXpXpXpXpXpXpXpXpXpXpXpXpXpXpXpXpXpXpXpXpXpXpXpXpXpXpXpXpXpXpXpXpXpXpXpXpXpXpXpXpXpXpXpXpXpXpXpXpXpXpXpXpXpXpXpXpXpXpXpXpXpXpXpXpXpXpXpXpXpXpXpXpXpXpXpXpXpXpXpXpXpXpXpXpXpXpXpXpXpXpXpXpXpXpXpXpXpXpXpXpXpXpXpXpXpXpXpXpXpXpXpXpXpXpXpXpXpXpXpXpXpXpXpXpXpXpXpXpXpXpXpXpXpXpXpX",
"pXpXpXpXpXpXpXpXpXpXpXpXpXpXpXpX<X<X<X<XpXpXpXpXqXqXqXqX@X@X+X+X+X@.@.@.@.Z.C.C.C.@X@X@X@X@X%X%X%X%XO.O.O.O.G G G G i.i.i.i.i.1.3.3.3.8.8.8.8.y.y.y.y.y.y.y.y.y.h.h.w.w.h.h.h.h.x.x.x.x.x.x.x.x.x.m.m.m.m.v.v.v.v.v.v.v.v.v.v.v.v.v.x.x.x.x.[.[.[.[.[.[.[.[.[.b.b.b.b.z.z.z.z.[.[.[.[.[.[.[.[.[.H.H.H.H.m.m.m.m.m.v.v.v.v.v.v.n.v.k.k.k.k.h.h.h.h.h.j.j.j.j.k.k.j.j.h.h.h.h.y.y.s.s.s.e.e.e.e.h h h h z G G G G i.i.i.i.r.r.r.r.i.i.i.i.V.V.V.V.V.G G G G X.X.X.X.i.M.M.M.M.@.@.@.@.J.J.J.J.<X<X<X<X+X%X+X+X+X-X-X-X-X<X<X<X<XpXpXpXpXpXpXpXpXpXpXpXpXpXpXpXpXpXpXpXpXpXpXpXpXpXpXpXpXpXpXpXpXpXpXpXpXpXpXpXpXpXpXpXpXpXpXpXpXpXpXpXpXpXpXpXpXpXpXpXpXpXpXpXpXpXpXpXpXpXpXpXpXpXpXpXpXpXpXpXpXpXpXpXpXpXpXpXpXpXpXpXpXpXpXpXpXpXpXpXpXpXpXpXpXpXpXpXpXpXpXpXpXpXpXpXpXpXpXpXpXpXpXpXpXpXpXpXpXpXpXpXpXpXpXpXpXpXpXpXpX",
"pXpXpXpXpXpXpXpXpXpXpXpXpXpXpXpX<X<X<X<XpXpXpXpXqXqXqXqX@X+X+X+X+X@.@.@.@.Z.C.C.Z.@X@X@X@X@X%X%X%X%XO.O.O.O.G G G G i.i.i.i.i.1.3.3.3.8.8.8.8.y.y.y.y.y.y.y.y.y.h.h.w.w.h.h.h.h.x.x.x.x.x.x.x.x.x.m.m.m.m.v.v.v.v.v.v.v.v.v.v.v.v.x.x.x.x.x.[.[.[.[.[.[.[.[.[.b.b.b.b.z.z.z.z.[.[.[.[.[.[.[.[.[.H.H.H.H.m.m.m.m.m.v.v.v.v.v.v.n.v.k.k.k.k.h.h.h.h.h.j.j.j.j.k.k.j.j.h.h.h.h.y.y.s.s.s.e.e.e.e.h h h h z G G G G i.i.i.i.r.r.r.r.i.i.i.i.V.V.V.V.V.G G G G X.X.X.X.M.M.M.M.M.@.@.@.@.J.J.J.J.<X<X<X<X+X%X+X+X+X-X-X-X-X<X<X<X<XpXpXpXpXpXpXpXpXpXpXpXpXpXpXpXpXpXpXpXpXpXpXpXpXpXpXpXpXpXpXpXpXpXpXpXpXpXpXpXpXpXpXpXpXpXpXpXpXpXpXpXpXpXpXpXpXpXpXpXpXpXpXpXpXpXpXpXpXpXpXpXpXpXpXpXpXpXpXpXpXpXpXpXpXpXpXpXpXpXpXpXpXpXpXpXpXpXpXpXpXpXpXpXpXpXpXpXpXpXpXpXpXpXpXpXpXpXpXpXpXpXpXpXpXpXpXpXpXpXpXpXpXpXpXpXpXpXpXpXpX",
"pXpXpXpXpXpXpXpXpXpXpXpXpXpXpXpX<X<X<X<XpXpXpXpXqXqXqXqX+X+X+X+X@X@.@.@.@.Z.Z.Z.Z.@X@X@X@X$X%X%X%X%XO.O.O.O.G G G G i.i.i.i.i.3.3.3.3.8.8.8.8.y.y.y.y.y.y.y.y.y.h.h.h.h.j.j.j.j.x.x.x.x.x.x.x.x.x.m.m.m.m.v.v.v.v.v.v.v.v.v.v.v.v.x.x.x.x.x.[.[.[.[.[.[.[.[.[.b.b.b.b.z.z.z.z.[.[.[.[.[.[.[.[.[.H.H.H.H.m.m.m.m.m.v.v.v.v.n.n.n.v.x.x.x.x.h.h.h.h.h.j.j.j.j.k.k.j.j.s.h.s.s.y.s.y.s.y.e.e.e.e.h h h h G G G z z i.i.i.i.r.r.r.r.i.i.i.i.C.C.V.V.V.G G G G X.X.X.@.M.M.M.M.M.@.@.@.@.J.J.J.J.<X<X<X<X%X%X+X#X#X-X-X-X-X<X<X<X<XpXpXpXpXpXpXpXpXpXpXpXpXpXpXpXpXpXpXpXpXpXpXpXpXpXpXpXpXpXpXpXpXpXpXpXpXpXpXpXpXpXpXpXpXpXpXpXpXpXpXpXpXpXpXpXpXpXpXpXpXpXpXpXpXpXpXpXpXpXpXpXpXpXpXpXpXpXpXpXpXpXpXpXpXpXpXpXpXpXpXpXpXpXpXpXpXpXpXpXpXpXpXpXpXpXpXpXpXpXpXpXpXpXpXpXpXpXpXpXpXpXpXpXpXpXpXpXpXpXpXpXpXpXpXpXpXpXpXpXpX",
"qXqXqXpXpXpXpXpXpXpXpXpXpXpXpXpX8X8X9X8X8X8X7X7XqXqXqX9X<X<X<X<X<XoXoXoXXXo.o.o.o.@X@X@X@X@X%X%X#X#XXXXXXXXXK K K K 4.4.4.4.4.3.3.3.3.1.1.1.1.7.7.7.7.r.r.r.r.r.w.w.w.w.k.k.k.k.h.h.h.h.h.v.v.v.x.m.m.m.m.H.H.H.H.m.m.m.m.m.D.D.D.D.D D D D { { } } } [ [ [ [ } } } } ] ] ` ` ` ] ] ` ` ) ) ` ` ] ] ] ] ~ ~ ~ ~ ~ ~ ~ ~ ~ ` ` ` ] ] ] ] ] ` ` ` ` ` ) ) ) ) ~ ~ ) ) g g g g h.h.j.j.h.9.9.9.9.>.>.>.>.h f h f f V.V.V.V.8.8.8.r.r.r.r.r.t.t.t.t.t.M.M.M.M.K K K K Z.Z.Z.C.C.C.C.C.C.M.M.M.M.>X>X1X1X2X<X<X<X<X%X%X%X%X2X2X2X2XpXpXpXpXpXpXpXpXpXpXpXpXpXpXpXpXpXpXpXpXpXpXpXpXpXpXpXpXpXpXpXpXpXpXpXpXpXpXpXpXpXpXpXpXpXpXpXpXpXpXpXpXpXpXpXpXpXpXpXpXpXpXpXpXpXpXpXpXpXpXpXpXpXpXpXpXpXpXpXpXpXpXpXpXpXpXpXpXpXpXpXpXpXpXpXpXpXpXpXpXpXpXpXpXpXpXpXpXpXpXpXpXpXpXpXpXpXpXpXpXpXpXpXpXpXpXpXpXpXpXpXpXpXpXpXpXpXpXpXpX",
"qXqXqXpXpXpXpXpXpXpXpXpXpXpXpXpX8X8X8X8X8X8X8X7XqX9X9X9X<X<X<X<X<XoXoXXXoXo.o.o.o.@X@X@X@X@X%X%X#X#XXXXXXXXXK K K K 4.4.4.4.4.3.3.3.3.1.6.1.1.7.7.7.7.r.r.r.r.r.w.w.w.w.k.k.k.k.h.h.h.h.h.v.v.v.x.m.m.m.m.H.H.H.H.m.m.m.m.m.D.D.D.D.D D D D { { } } } [ [ [ [ } } } } ] ] ] ` ` ] ` ` ` ) ) ) ` ] ] ] ] ~ ~ ~ ~ ~ ~ ~ ~ ~ ` ` ` ] ] ] ] ] ` ` ` ` ` ) ) ) ) ) ) ) ) g g g g h.h.h.h.h.9.9.9.q.<.>.>.>.h h h f f V.V.V.V.8.8.r.r.r.r.r.r.t.t.t.t.t.M.M.M.M.K K K K Z.C.C.C.C.C.C.C.C.M.M.M.M.>X>X1X1X<X<X<X<X<X%X%X%X%X2X2X2X2XpXpXpXpXpXpXpXpXpXpXpXpXpXpXpXpXpXpXpXpXpXpXpXpXpXpXpXpXpXpXpXpXpXpXpXpXpXpXpXpXpXpXpXpXpXpXpXpXpXpXpXpXpXpXpXpXpXpXpXpXpXpXpXpXpXpXpXpXpXpXpXpXpXpXpXpXpXpXpXpXpXpXpXpXpXpXpXpXpXpXpXpXpXpXpXpXpXpXpXpXpXpXpXpXpXpXpXpXpXpXpXpXpXpXpXpXpXpXpXpXpXpXpXpXpXpXpXpXpXpXpXpXpXpXpXpXpXpXpXpX",
"qXqXqXpXpXpXpXpXpXpXpXpXpXpXpXpX8X8X8X8X8X8X8X8X9X9X9X9X<X<X<X<X<XoXoXXXXXK.o.o.o.@X@X@X@X@X%X%X%X#XXXXXXXXXK K K K 4.4.4.4.4.3.3.3.3.1.1.1.1.7.7.7.7.r.r.r.r.r.w.w.w.w.k.k.k.k.h.h.h.h.h.v.v.v.v.m.m.m.m.H.H.H.H.m.m.m.m.m.D.D.D.D.D D D D { { } } } [ [ [ [ } } } } ] ] ] ` ` ] ` ` ` ) ) ) ` [ [ ] ] ~ ~ ~ ~ ~ ~ ~ ~ ~ ` ` ` ] ] ] ] ] ` ` ` ` ` ) ) ) ) ) ) ) ` g g g g h.h.h.h.h.9.9.9.9.<.>.>.>.h h f f f V.V.V.V.8.8.r.r.r.r.r.r.t.t.t.t.t.M.M.M.M.K K K K C.C.C.C.C.C.C.C.C.M.M.M.M.>X>X1X1X<X<X<X<X<X%X%X%X%X2X2X2X2XpXpXpXpXpXpXpXpXpXpXpXpXpXpXpXpXpXpXpXpXpXpXpXpXpXpXpXpXpXpXpXpXpXpXpXpXpXpXpXpXpXpXpXpXpXpXpXpXpXpXpXpXpXpXpXpXpXpXpXpXpXpXpXpXpXpXpXpXpXpXpXpXpXpXpXpXpXpXpXpXpXpXpXpXpXpXpXpXpXpXpXpXpXpXpXpXpXpXpXpXpXpXpXpXpXpXpXpXpXpXpXpXpXpXpXpXpXpXpXpXpXpXpXpXpXpXpXpXpXpXpXpXpXpXpXpXpXpXpXpX",
"qXqXqXpXpXpXpXpXpXpXpXpXpXpXpXpX8X9X9X9X7X7X7X7X9X9X9X9X<X<X<X<X<XoXoXoXoXK.o.o.o.@X@X@X@X@X%X%X%X%XXXXXXXXXK K K K 4.4.4.4.4.3.3.3.3.1.1.1.1.7.7.7.7.r.r.r.r.r.w.w.w.w.k.k.k.k.h.h.h.h.h.v.v.v.v.m.m.m.m.H.U.U.H.m.m.m.m.m.D.D.D.D.D D D D } } } } } [ [ [ [ } | | | ] ] ] ` ` ` ` ` ` ) ) ) ` [ [ [ [ ~ ~ ~ ~ ~ ~ ~ ~ ~ ` ` ` ` ` ] ] ] ` ` ` ` ` ) ) ) ) ) ) ) ) g g g g h.h.h.h.h.9.9.9.q.2.>.>.>.h h h h h V.V.V.V.8.8.r.r.r.r.r.r.t.t.t.t.t.M.M.M.M.K K K K C.C.C.C.C.C.C.C.C.M.M.M.M.>X>X1X>X<X<X<X<X<X%X%X%X%X2X2X2X2XpXpXpXpXpXpXpXpXpXpXpXpXpXpXpXpXpXpXpXpXpXpXpXpXpXpXpXpXpXpXpXpXpXpXpXpXpXpXpXpXpXpXpXpXpXpXpXpXpXpXpXpXpXpXpXpXpXpXpXpXpXpXpXpXpXpXpXpXpXpXpXpXpXpXpXpXpXpXpXpXpXpXpXpXpXpXpXpXpXpXpXpXpXpXpXpXpXpXpXpXpXpXpXpXpXpXpXpXpXpXpXpXpXpXpXpXpXpXpXpXpXpXpXpXpXpXpXpXpXpXpXpXpXpXpXpXpXpXpXpX",
"7X7X7X5X5X5X5X2X2X2X2XrXrXrX2X2XpXpXpXpXwXwXwXwX<X<X<X<X<X<X<X<X<X X|.|. XC.C.C.C.OXOXOXOXOX.X.X.X.XG G G G e.e.e.e.M.M.M.M.M.1.1.1.1.1.1.1.1.y.y.y.y.4.4.4.4.4.y.y.y.y.z.z.z.z.k.k.k.k.k.m.m.m.m.m.m.m.m.[.[.[.[.zXzXzXzXzX_._._._.jXjXjXjX~ ~ ~ ~ ~ Z Z Z Z V V V V ~ ~ ~ ~ ~ ~ ~ ~ ~ V V V V V V V V M V B M M B B B B V V V V M V V V B B B B B n n n n B B n n n n n n 9 9 9 9 9 p p p p 7.7.7.7.G G G G G K K K K 2.2.2.2.p.p.p.p.B.B.B.B.B.K K K K +X+X+X@XXXXXXXXXXX$.$.$.$.J.J.J.J.o.o.X.X.4X4X4X4X4X7X7X7X7XpXpXpXpXpXpXpXpXpXwXwXwXwXpXpXpXpXpXpXpXpXpXpXpXpXpXpXpXpXpXpXpXpXpXpXpXpXpXpXpXpXpXpXpXpXpXpXpXpXpXpXpXpXpXpXpXpXpXpXpXpXpXpXpXpXpXpXpXpXpXpXpXpXpXpXpXpXpXpXpXpXpXpXpXpXpXpXpXpXpXpXpXpXpXpXpXpXpXpXpXpXpXpXpXpXpXpXpXpXpXpXpXpXpXpXpXpXpXpXpXpXpXpXpXpXpXpXpXpXpXpXpXpXpXpXpXpXpXpXpXpXpXpXpX",
"7X7X7X5X5X5X5X2X2X2X2XrXrXrX5X5XpXpXpXpXwXwXwXwX<X<X<X<X<X<X<X<X<X|.|.|. XC.C.K C.OXOXOXOXOX.X.X.X.XG G G G e.e.e.e.M.M.M.M.M.1.1.1.1.1.1.1.1.y.y.y.y.4.4.4.4.4.y.y.y.y.z.z.z.z.k.k.k.k.k.m.m.m.m.m.m.m.m.[.[.[.[.zXzXzXzXzX_._._._.jXjXjXjX~ ~ ~ ~ ~ Z Z Z Z V V V V ~ ~ ~ ~ ~ ~ ~ ~ ~ V V V V V V V V V V V V V B B B B V V V V V V V V B B B B B B B n n n B n n n n n n 9 9 9 9 9 p p p p 7.8.7.7.G G G G G K K K K 2.2.2.2.p.p.p.p.B.B.B.B.B.K K K K +X+X+X+XXX.X.X.X.X$.$.$.$.J.J.J.J.o.X.o.o.4X4X4X4X4X7X8X7X8XpXpXpXpXpXpXpXpXpXwXwXwXwXpXpXpXpXpXpXpXpXpXpXpXpXpXpXpXpXpXpXpXpXpXpXpXpXpXpXpXpXpXpXpXpXpXpXpXpXpXpXpXpXpXpXpXpXpXpXpXpXpXpXpXpXpXpXpXpXpXpXpXpXpXpXpXpXpXpXpXpXpXpXpXpXpXpXpXpXpXpXpXpXpXpXpXpXpXpXpXpXpXpXpXpXpXpXpXpXpXpXpXpXpXpXpXpXpXpXpXpXpXpXpXpXpXpXpXpXpXpXpXpXpXpXpXpXpXpXpXpXpXpXpX",
"7X7X7X5X5X5X5X2X2X2X2XrXrXrXrX5XpXpXpXpXwXwXwXwX<X<X<X<X<X<X<X<X<X|.|.|. XC.C.K C.OXOXOXOXOX.X.X.X.XG G G G e.e.e.e.M.M.M.M.M.1.1.1.1.1.1.1.1.y.y.y.y.4.4.4.4.4.y.y.y.y.z.z.z.z.k.k.k.k.k.m.m.m.m.m.m.m.m.[.[.[.[.zXzXzXzXzX_._._._.jXjXjXjX~ ~ ~ ~ ~ Z Z Z Z V V V V ! ~ ~ ~ ~ ~ ~ ~ ~ V V V V V V V V V V V V V B B B B V V V V V V V V B B B B B B B n n n B n n n n n n 9 9 9 9 9 p p p p 7.8.7.7.G G G G G K K K K 2.2.2.,.p.p.p.p.B.B.B.B.B.K K K K +X+X+X+X.X.X.X.X.X$.$.$.$.J.J.J.J.o.o.o.o.4X4X4X4X4X7X7X8X8XpXpXpXpXpXpXpXpXpXwXwXwXwXpXpXpXpXpXpXpXpXpXpXpXpXpXpXpXpXpXpXpXpXpXpXpXpXpXpXpXpXpXpXpXpXpXpXpXpXpXpXpXpXpXpXpXpXpXpXpXpXpXpXpXpXpXpXpXpXpXpXpXpXpXpXpXpXpXpXpXpXpXpXpXpXpXpXpXpXpXpXpXpXpXpXpXpXpXpXpXpXpXpXpXpXpXpXpXpXpXpXpXpXpXpXpXpXpXpXpXpXpXpXpXpXpXpXpXpXpXpXpXpXpXpXpXpXpXpXpXpXpXpXpX",
"7X7X7X5X5X5X5X2X2X2X2XrXrXrX5X5XpXpXpXpXwXwXwXwX<X<X<X<X<X<X<X<X<X|.|.|.|.C.C.K C.OXOXOXOXOX.X.XXXXXG G G G e.e.e.e.M.M.M.M.M.1.1.1.1.1.1.1.1.y.y.y.y.4.4.4.4.4.y.y.y.y.z.z.z.z.k.k.k.k.k.m.m.m.m.m.m.m.m.[.[.[.[.zXzXzXzXzX_._._._.jXjXjXjX~ ~ ~ ~ ~ Z Z Z Z V V V V ! ~ ~ ~ ~ ~ ~ ~ ~ V V V V V V V V M M V V V B B B B V V V V V V V V B B B V V B B n n n n B B n n n n 9 9 9 9 9 p p p p 7.8.8.8.G G G G G K K K K 2.2.2.,.p.p.p.p.B.B.B.B.B.K K K K .X.X.X.X.X.X.X.X.X$.$.$.$.J.J.o.J.o.o.o.o.4X4X4X4X4X7X7X8X7XpXpXpXpXpXpXpXpXpXwXwXwXwXpXpXpXpXpXpXpXpXpXpXpXpXpXpXpXpXpXpXpXpXpXpXpXpXpXpXpXpXpXpXpXpXpXpXpXpXpXpXpXpXpXpXpXpXpXpXpXpXpXpXpXpXpXpXpXpXpXpXpXpXpXpXpXpXpXpXpXpXpXpXpXpXpXpXpXpXpXpXpXpXpXpXpXpXpXpXpXpXpXpXpXpXpXpXpXpXpXpXpXpXpXpXpXpXpXpXpXpXpXpXpXpXpXpXpXpXpXpXpXpXpXpXpXpXpXpXpXpXpXpXpX",
"7X7X7X5X5X5X5X2X2X2X2XrXrXrXrXrXpXpXpXpXwXwXwXwX<X<X<X<X<X<X<X<X<X|.|.|.|.C.C.K C.OXOXOXOXOX.X.XXXXXG G z G e.e.e.e.M.M.M.M.M.1.1.1.1.1.1.1.1.y.y.y.y.4.4.4.4.4.y.y.y.y.z.z.z.z.k.k.k.k.k.m.m.m.m.m.m.m.m.[.[.[.[.zXzXzXzXzX_._._._.jXjXjXjX~ ~ ~ ~ ~ Z Z Z W V V V V ! ~ ~ ~ ~ ~ ~ ~ ~ V V V V V V V V B M V V V B B B B V V V V V V V V B B B V V B B n n n B B B n n n n 9 9 9 9 9 p p p p 7.8.8.8.G G G G G K K K K 2.2.2.2.p.p.p.p.B.B.B.B.B.K K K K .X.X.X+X.X.X.X.X.X$.$.$.$.J.J.o.o.o.o.o.o.4X4X4X4X4X7X7X7X7XpXpXpXpXpXpXpXpXpXwXwXwXwXpXpXpXpXpXpXpXpXpXpXpXpXpXpXpXpXpXpXpXpXpXpXpXpXpXpXpXpXpXpXpXpXpXpXpXpXpXpXpXpXpXpXpXpXpXpXpXpXpXpXpXpXpXpXpXpXpXpXpXpXpXpXpXpXpXpXpXpXpXpXpXpXpXpXpXpXpXpXpXpXpXpXpXpXpXpXpXpXpXpXpXpXpXpXpXpXpXpXpXpXpXpXpXpXpXpXpXpXpXpXpXpXpXpXpXpXpXpXpXpXpXpXpXpXpXpXpXpXpXpXpX",
"<X<X<X2X2X2X2X9X9X9X9X<X<X<X<X<X5X5X5X5X5X5X5X5X>X>X>X>X5X5X5X5X5X-X%X%X%X@X@X@X@X+.+.+.+.+.&X&X&X&X#.#.#.#.e.e.e.e.e.e.e.e.e.>.>.>.>.<.2.2.2.y.y.y.y.y.y.y.y.y.5.5.5.5.y.y.y.y.v.v.v.v.v.v.v.v.v.m.m.m.m.D.D.D.D.lXlXlXlXlXzXzXzXzXzXzXzXzXlXlXlXlXlX-.;.;.;.9 9 9 9 x x x x Y.Y.Y.Y.Y.T.T.R.R.W.W.W.W.W.W.W.W.W.~.~.~.~.~.~.~.~.~.~.~.~.~.~.~.~.~.W.W.W.W.R.R.R.R.T.T.T.T.c c c c c 3 3 3 3 s s s s p.p.p.p.p.G G G G u.u.u.u.t.t.t.t.e.e.e.e.e.P K K K G G G G U U U U U O.O.U U P P P P C.C.C.C.:X:X:X>X>X%X%X%X%X5X5X5X5XpXpXpXpXpXpXpXpXpXpXpXpXpXpXpXpXpXpXpXpXpXpXpXpXpXpXpXpXpXpXpXpXpXpXpXpXpXpXpXpXpXpXpXpXpXpXpXpXpXpXpXpXpXpXpXpXpXpXpXpXpXpXpXpXpXpXpXpXpXpXpXpXpXpXpXpXpXpXpXpXpXpXpXpXpXpXpXpXpXpXpXpXpXpXpXpXpXpXpXpXpXpXpXpXpXpXpXpXpXpXpXpXpXpXpXpXpXpXpXpXpXpXpXpXpXpXpXpXpXpXpXpXpXpXpXpXpXpXpXpX",
"<X<X<X2X2X2X2X9X9X9X9X<X<X<X<X<X5X5X5X5X5X5X5X5X>X>X>X>X5X5X5X5XrX-X-X%X%X@X@X@X@X+.+.+.+.+.&X&X&X&X#.#.#.#.e.e.e.e.e.e.e.e.e.>.>.>.>.2.2.2.2.y.y.y.y.y.y.y.y.y.5.5.5.5.y.y.y.y.v.v.v.v.v.v.v.v.v.m.m.m.m.D.D.D.D.lXlXlXlXlXzXzXzXzXzXzXzXzXlXlXlXlXlX;.;.;.;.9 9 9 9 x x x x Y.Y.Y.Y.Y.T.R.R.R.W.W.W.W.W.W.W.W.W.~.~.~.~.~.~.~.~.~.~.~.~.~.~.~.~.~.W.W.W.W.R.R.R.R.T.T.T.T.c c c c c 3 3 3 3 s s s s p.p.p.p.p.G G G G u.u.u.u.t.t.t.t.e.e.e.e.e.P K K K G G G G U U U U U O.U U U P P P P C.C.C.C.:X:X:X>X>X%X%X%X%X5X5X5X5XpXpXpXpXpXpXpXpXpXpXpXpXpXpXpXpXpXpXpXpXpXpXpXpXpXpXpXpXpXpXpXpXpXpXpXpXpXpXpXpXpXpXpXpXpXpXpXpXpXpXpXpXpXpXpXpXpXpXpXpXpXpXpXpXpXpXpXpXpXpXpXpXpXpXpXpXpXpXpXpXpXpXpXpXpXpXpXpXpXpXpXpXpXpXpXpXpXpXpXpXpXpXpXpXpXpXpXpXpXpXpXpXpXpXpXpXpXpXpXpXpXpXpXpXpXpXpXpXpXpXpXpXpXpXpXpXpXpXpXpX",
"<X<X<X2X2X2X2X9X9X9X9X<X<X<X<X<X5X5X5X5X5X5X5X5X>X>X>X>XrXrXrXrXrX%X%X%X%X@X@X@X@X+.+.+.+.+.&X&X&X&X#.#.#.#.e.e.e.e.e.e.e.e.e.>.>.>.>.<.<.<.<.y.y.y.r.y.y.y.y.y.5.5.5.5.y.y.y.y.v.v.v.v.v.v.v.v.v.m.m.m.m.D.D.D.D.lXlXlXlXlXzXzXzXzXzXzXzXzXlXlXlXlXlX-.-.-.-.9 9 9 9 x x x x Y.Y.Y.Y.Y.R.R.R.R.W.W.W.W.W.W.W.W.W.~.~.~.~.~.~.~.~.~.~.~.~.~.~.~.~.~.W.W.W.W.R.R.R.R.T.T.T.T.c c c c c 3 3 3 3 s s s s p.M.p.p.p.G G G G e.e.e.e.t.r.r.r.e.e.e.e.e.K K K K G G G G U U U U U O.O.O.O.P P P P C.C.C.C.>X:X:X:X:X%X%X%X%X5X5X5X5XpXpXpXpXpXpXpXpXpXpXpXpXpXpXpXpXpXpXpXpXpXpXpXpXpXpXpXpXpXpXpXpXpXpXpXpXpXpXpXpXpXpXpXpXpXpXpXpXpXpXpXpXpXpXpXpXpXpXpXpXpXpXpXpXpXpXpXpXpXpXpXpXpXpXpXpXpXpXpXpXpXpXpXpXpXpXpXpXpXpXpXpXpXpXpXpXpXpXpXpXpXpXpXpXpXpXpXpXpXpXpXpXpXpXpXpXpXpXpXpXpXpXpXpXpXpXpXpXpXpXpXpXpXpXpXpXpXpXpXpX",
"<X<X<X2X2X2X2X8X9X9X9X<X<X<X<X<X5X5X5X5X5X5X5X5X>X>X>X>XrXrXrXrXrX%X%X%X%X@X@X@X@X+.+.+.+.+.&X&X&X&X#.#.#.#.e.e.e.e.e.e.e.e.e.>.>.>.>.<.<.<.<.y.y.y.r.y.y.y.y.y.5.5.5.5.y.y.y.y.v.v.v.v.v.v.v.v.v.m.m.m.m.D.D.D.D.lXlXlXlXlXzXzXzXzXzXzXzXzXlXlXlXlXlX-.-.-.;.9 9 9 9 x x x x Y.Y.Y.Y.Y.R.R.R.R.W.W.W.W.W.W.W.W.W.~.~.~.~.~.~.~.~.~.~.~.~.~.~.~.~.~.W.W.W.W.R.R.R.R.T.T.T.T.c c c c c 3 3 3 3 s s s s p.M.p.p.p.G G G G e.e.e.e.t.r.r.r.e.e.e.e.e.K K K K G G G G U U U U U O.O.O.O.P P P P C.C.C.C.:X;X:X:X:X%X%X%X%X5X5X5X5XpXpXpXpXpXpXpXpXpXpXpXpXpXpXpXpXpXpXpXpXpXpXpXpXpXpXpXpXpXpXpXpXpXpXpXpXpXpXpXpXpXpXpXpXpXpXpXpXpXpXpXpXpXpXpXpXpXpXpXpXpXpXpXpXpXpXpXpXpXpXpXpXpXpXpXpXpXpXpXpXpXpXpXpXpXpXpXpXpXpXpXpXpXpXpXpXpXpXpXpXpXpXpXpXpXpXpXpXpXpXpXpXpXpXpXpXpXpXpXpXpXpXpXpXpXpXpXpXpXpXpXpXpXpXpXpXpXpXpXpX",
"8X8X8XqXqXqXqX%X%X%X%X7X7X7X7X7XpXpXpXpXpXpXpXpX-X-X-X-X7X7X7X7X7X#X#X#X#X2X2X2X2X|.|.|. X X@.@.@.@.C.C.C.C.M.M.M.M.C.C.C.C.C.f f f f z z z z ,.,.,.,.r.r.r.r.r.y ,.y 5.a.a.a.a.v.v.v.v.v.U.U.U.U.m.m.m.m.jXgX`.`.BXBXBXBXBX_._._._.zXzXzXzXzXzXzXzXzXcXcXcXcX} | } | ~ ! ! ! ! ! ! ~ ~ M M M M V M V V C C Z Z V Z ! ! Z g g g n n n n n V V V V V V V V V V V V V Z Z Z Z V V V V V W W V W B B B B w w w 9 9 y y y y >.>.,.,.r.r.r.r.K K K K K G G G G G z z z L I I L I I I I I $.$.$.$.C.C.C.C.$.@.$.$.@.qXqXqXqX>X<X>X>X<X<X<X<X<XqXqXqXqXpXpXpXpXpXpXpXpXpXpXpXpXpXpXpXpXpXpXpXpXpXpXpXpXpXpXpXpXpXpXpXpXpXpXpXpXpXpXpXpXpXpXpXpXpXpXpXpXpXpXpXpXpXpXpXpXpXpXpXpXpXpXpXpXpXpXpXpXpXpXpXpXpXpXpXpXpXpXpXpXpXpXpXpXpXpXpXpXpXpXpXpXpXpXpXpXpXpXpXpXpXpXpXpXpXpXpXpXpXpXpXpXpXpXpXpXpXpXpXpXpXpXpXpXpXpXpXpXpXpXpX",
"8X8X7XqXqXqXqX%X%X%X%X7X7X7X7X7XpXpXpXpXpXpXpXpX-X-X-X-X7X7X7X7X7X#X#X#X#X2X2X2X2X|.|.|.|.|.@.@.@.@.C.C.C.C.M.M.M.M.C.C.C.C.C.y f f f z z z z ,.,.,.,.r.r.r.r.r.y y y 5.a.a.a.a.v.v.v.v.v.U.U.U.U.m.m.m.m.jX`.`.`.BXBXBXBXBX_._._._.zXzXzXzXzXzXzXzXzXcXcXcXcX} | | | ~ ! ! ! ! ! ! ! ! M M M M M M V V C C Z Z V Z ! ! ! n g n n n n n n V V V V V V V V V V V V V Z Z Z Z V V V V V W W W W B B B B w w w 9 9 y y y y >.>.,.,.r.r.r.r.K K K K K G G G G G z z z L I I L I I I I I $.$.$.$.C.C.C.C.$.$.$.$.@.qXqXqXqX>X>X>X>X<X<X<X<X<XqXqXqXqXpXpXpXpXpXpXpXpXpXpXpXpXpXpXpXpXpXpXpXpXpXpXpXpXpXpXpXpXpXpXpXpXpXpXpXpXpXpXpXpXpXpXpXpXpXpXpXpXpXpXpXpXpXpXpXpXpXpXpXpXpXpXpXpXpXpXpXpXpXpXpXpXpXpXpXpXpXpXpXpXpXpXpXpXpXpXpXpXpXpXpXpXpXpXpXpXpXpXpXpXpXpXpXpXpXpXpXpXpXpXpXpXpXpXpXpXpXpXpXpXpXpXpXpXpXpXpXpXpXpXpX",
"8X8X8XqXqXqXqX%X%X%X%X7X7X7X7X7XpXpXpXpXpXpXpXpX-X-X-X-X7X7X7X7X7X#X#X#X+X<X<X<X2X|.|.|.|.|.@.@.@.@.C.C.C.C.M.M.M.M.C.C.C.C.C.y f f f z z z z ,.,.,.,.r.r.r.r.r.5.5.,.5.a.a.a.a.v.v.v.v.v.U.U.U.U.m.m.m.m.`.`.`.`.BXBXBXBXBX_._._._.zXzXzXzXzXzXzXzXzXcXcXcXcX} } } } ~ ! ! ! ~ ! ! ! ! B B M M M M M M Z Z Z Z V Z Z Z ! n n n n n n n n V V V V V M B V B V V V V W Z V V V V V V V V V V W B B B B w 9 9 9 9 y y y y ,.,.,.,.r.r.r.r.K K K K K G G G G z z z z I I I L L I I I I $.$.$.$.C.C.C.C.$.$.@.@.@.qXqXqXqX>X>X>X>X<X<X<X<X<XqXqXqXqXpXpXpXpXpXpXpXpXpXpXpXpXpXpXpXpXpXpXpXpXpXpXpXpXpXpXpXpXpXpXpXpXpXpXpXpXpXpXpXpXpXpXpXpXpXpXpXpXpXpXpXpXpXpXpXpXpXpXpXpXpXpXpXpXpXpXpXpXpXpXpXpXpXpXpXpXpXpXpXpXpXpXpXpXpXpXpXpXpXpXpXpXpXpXpXpXpXpXpXpXpXpXpXpXpXpXpXpXpXpXpXpXpXpXpXpXpXpXpXpXpXpXpXpXpXpXpXpXpXpXpX",
"8X7X7XqXqXqXqX%X%X%X%X7X7X7X7X7XpXpXpXpXpXpXpXpX-X-X-X-X7X7X7X7X7X#X#X#X#X<X<X2X2X|.|.|.|.|.@.@.@.@.C.C.C.C.M.M.M.M.C.C.C.C.C.y f f f z z z z ,.,.,.,.r.r.r.r.r.5.5.5.5.a.a.a.a.v.v.v.v.v.U.U.U.U.m.m.m.m.`.`.`.`.BXBXBXBXBX_._._._.zXzXzXzXzXzXzXzXzXcXcXcXcX} | | } ~ ! ! ! ~ ! ! ! ! m B M M M M M M Z V Z Z V Z Z Z ! n n n n n n n n V V V V V B B V M V V V V W W V Z V V V V V R V V W B B B B w w w 9 9 y y y y ,.,.,.,.r.r.r.r.K K K K K G G G G z z z z I I I L I I I I I $.$.$.$.C.C.C.C.$.$.@.@.@.qXqXqXqX>X>X>X>X<X<X<X<X<XqXqX9X9XpXpXpXpXpXpXpXpXpXpXpXpXpXpXpXpXpXpXpXpXpXpXpXpXpXpXpXpXpXpXpXpXpXpXpXpXpXpXpXpXpXpXpXpXpXpXpXpXpXpXpXpXpXpXpXpXpXpXpXpXpXpXpXpXpXpXpXpXpXpXpXpXpXpXpXpXpXpXpXpXpXpXpXpXpXpXpXpXpXpXpXpXpXpXpXpXpXpXpXpXpXpXpXpXpXpXpXpXpXpXpXpXpXpXpXpXpXpXpXpXpXpXpXpXpXpXpXpXpXpXpX",
"<X<X<X1X1X1X1XJ.J.J.o.>X>X>X>X>X7X7X7X7X<X<X<X<XwXwXwXwX:X:X:X:X:X:X:X-X-XrXrXrXrX%X%X%X%X%XI I X.X.C.C.C.C.e.e.e.e.e.e.e.e.e.L L L L K K J J h z z z 7.7.7.7.7.r.r.r.r.f.f.f.f.k.k.k.k.k.v.v.v.v.lXlXlXlXlXlXzXzX3 > > 3 3 (.(.(.(.cXcXcXcXcXcXcXcXcXBXBXBXBXBXBXBXBXn n n n x x x x x Y.Y.Y.Y.R.R.R.R.R.R.R.R.R.~.~.~.~.!.!.!.!.^.^.^.^.^.^.^.^.^.^.^.^.^.~.~.~.~.!.!.W.W.W.W.W.W.W.R.R.R.R.T.T.T.T.c c c c c g g g g p p p p r.r.r.r.>.>.>.>.>.y y y y ,.,.,.,.r.r.r.r.r.B.B.B.B.H H H H C.C.C.C.K K K K K -X-X-X-X>X<X<X>XpXpXpXpXpXpXpXpXpXpXpXpXpXpXpXpXpXpXpXpXpXpXpXpXpXpXpXpXpXpXpXpXpXpXpXpXpXpXpXpXpXpXpXpXpXpXpXpXpXpXpXpXpXpXpXpXpXpXpXpXpXpXpXpXpXpXpXpXpXpXpXpXpXpXpXpXpXpXpXpXpXpXpXpXpXpXpXpXpXpXpXpXpXpXpXpXpXpXpXpXpXpXpXpXpXpXpXpXpXpXpXpXpXpXpXpXpXpXpXpXpXpXpXpXpXpXpXpXpXpXpXpXpXpXpXpXpXpXpXpX",
"<X<X<X1X1X1X1XJ.J.J.J.>X>X>X>X>X7X7X7X7X<X<X<X<XwXwXwXwX:X:X:X:X>X:X:X-X-XrXrXrXrX%X%X%X%X%XI I X.X.C.C.C.C.e.e.e.e.e.e.e.e.e.L L L L K J J L z z z z 7.7.7.7.7.r.r.r.r.f.f.f.f.k.k.k.k.k.v.v.v.v.lXlXlXlXlXlXzXzX3 3 > 3 3 (.(.(.(.cXcXcXcXcXcXcXcXcXBXBXBXBXBXBXBXBXn n n n x x x x x Y.Y.Y.Y.R.R.R.R.R.R.R.R.R.~.~.~.~.!.!.!.!.^.^.^.^.^.^.^.^.^.^.^.^.^.~.~.~.~.!.W.W.W.W.E.W.W.W.R.R.R.R.T.T.T.T.c c c c c g g g g p p p p r.r.r.r.>.>.>.>.>.y y y y ,.,.,.,.r.r.r.r.r.B.B.B.B.H H H H C.C.C.C.K K K K K -X-X-X-X<X<X<X>XpXpXpXpXpXpXpXpXpXpXpXpXpXpXpXpXpXpXpXpXpXpXpXpXpXpXpXpXpXpXpXpXpXpXpXpXpXpXpXpXpXpXpXpXpXpXpXpXpXpXpXpXpXpXpXpXpXpXpXpXpXpXpXpXpXpXpXpXpXpXpXpXpXpXpXpXpXpXpXpXpXpXpXpXpXpXpXpXpXpXpXpXpXpXpXpXpXpXpXpXpXpXpXpXpXpXpXpXpXpXpXpXpXpXpXpXpXpXpXpXpXpXpXpXpXpXpXpXpXpXpXpXpXpXpXpXpXpXpXpX",
"<X<X>X1X1X1X1Xo.J.J.o.>X>X>X>X>X7X7X7X7X<X<X<X<XwXwXwXwX:X:X:X:X:X-X-X-X-XrXrXrXrX%X%X%X%X%XI I X.X.C.C.C.C.e.e.e.e.e.e.e.e.r.L L L L L J J J h z u.u.7.7.7.4.7.5.5.5.5.f.f.f.f.k.k.k.k.k.v.v.v.v.lXlXlXlXzXlXzXlX> > > > > (.(.(.(.cXcXcXcXcXcXcXcXcXBXBXBXBXBXBXBXBXB n n n x x x x x Y.Y.Y.Y.R.R.R.R.R.R.R.R.E.~.~.~.~.!.!.!.!.^.^.^.^.^.^.^.^.^.^.^.^.^.~.~.~.~.!.!.!.!.E.E.W.W.W.R.R.R.R.T.T.T.T.c c c c c g g g g p p p p r.r.r.r.>.>.>.>.>.y y y y ,.,.,.,.r.r.r.r.r.B.B.B.B.H H H H C.C.C.C.K K K K K -X-X-X-X<X<X<X>XpXpXpXpXpXpXpXpXpXpXpXpXpXpXpXpXpXpXpXpXpXpXpXpXpXpXpXpXpXpXpXpXpXpXpXpXpXpXpXpXpXpXpXpXpXpXpXpXpXpXpXpXpXpXpXpXpXpXpXpXpXpXpXpXpXpXpXpXpXpXpXpXpXpXpXpXpXpXpXpXpXpXpXpXpXpXpXpXpXpXpXpXpXpXpXpXpXpXpXpXpXpXpXpXpXpXpXpXpXpXpXpXpXpXpXpXpXpXpXpXpXpXpXpXpXpXpXpXpXpXpXpXpXpXpXpXpXpXpXpX",
"<X<X>X1X1X1X1Xo.J.J.o.>X>X>X>X>X7X7X7X7X<X<X<X<XwXwXwXwX:X:X:X:X:X-X-X-X-XrXrXrXrX%X%X%X%X%XI I X.X.C.C.C.C.e.e.e.e.e.e.e.e.r.L L L L L J J J h z z u.7.7.7.7.7.5.5.5.5.f.f.f.f.k.k.k.k.k.v.v.v.v.lXlXlXlXlXlXzXlX> > > > > (.(.(.(.cXcXcXcXcXcXcXcXcXBXBXBXBXBXBXBXBXB n n B x x x x x Y.Y.Y.Y.R.R.R.T.R.R.R.R.E.~.~.~.~.!.!.!.!.^.^.^.^.^.^.^.^.^.^.^.^.^.~.~.~.~.!.!.!.!.E.E.W.W.W.R.R.R.R.T.T.T.T.c c c c c g g g g p p p p r.r.r.r.>.>.>.>.>.y y y y ,.,.,.,.r.r.r.r.r.B.B.B.B.H H H H C.C.C.C.K K K K K -X-X-X-X<X<X<X>XpXpXpXpXpXpXpXpXpXpXpXpXpXpXpXpXpXpXpXpXpXpXpXpXpXpXpXpXpXpXpXpXpXpXpXpXpXpXpXpXpXpXpXpXpXpXpXpXpXpXpXpXpXpXpXpXpXpXpXpXpXpXpXpXpXpXpXpXpXpXpXpXpXpXpXpXpXpXpXpXpXpXpXpXpXpXpXpXpXpXpXpXpXpXpXpXpXpXpXpXpXpXpXpXpXpXpXpXpXpXpXpXpXpXpXpXpXpXpXpXpXpXpXpXpXpXpXpXpXpXpXpXpXpXpXpXpXpXpXpX",
"qXqXqX3X3X3X3XOXOXOXOX1X1X1X1X1X-X-X-X-X<X<X<X<X:X:X:X:X@.@.@.@.@.J.o.o.J.-X-X-X-X+X+X+X+X+XXXXXXXXXM.M.M.M.u.u.e.e.i.i.i.i.i.h h h h e.e.e.e.1.6.1.1.9.7.7.7.7.t.t.t.t.s.s.s.s.f.f.f.f.f.cXcXcXcX_._._._.jXlXlXjX: : : : : ].].].].].].].].VXVXVXVXVXBXBXBXBXVXVXVXVXMXMXMXMX;.;.;.-.-.-.-.| | -.-.-.-.).).).).).hXhXhXhXgXgXgXgX).).).).fXfXfXfXfXgXgXgXgXgXgXgXgXgXgXgXgX).).).).)._._.)._._._._._.L.L.L.L.L.| | | | V Z Z Z 9 9 9 9 >.>.>.>.>.>.>.>.>.2.2.2.2.r.r.r.r.r.B.N.N.N.G G G G K K K K XXXXXXXXXX.X.X.X.X<X<X<X<X2X2X2X2X2XpXpXpXpXpXpXpXpXpXpXpXpXpXpXpXpXpXpXpXpXpXpXpXpXpXpXpXpXpXpXpXpXpXpXpXpXpXpXpXpXpXpXpXpXpXpXpXpXpXpXpXpXpXpXpXpXpXpXpXpXpXpXpXpXpXpXpXpXpXpXpXpXpXpXpXpXpXpXpXpXpXpXpXpXpXpXpXpXpXpXpXpXpXpXpXpXpXpXpXpXpXpXpXpXpXpXpXpXpXpXpXpXpXpXpXpXpXpXpXpXpXpXpXpXpXpXpXpXpXpXpXpXpXpXpX",
"qXqXqX3X3X3X3XOXOXOXOX1X1X1X1X1X-X-X-X-X<X<X<X<X:X:X:X:X@.@.@.@.@.o.o.o.J.-X-X-X-X+X+X+X+X+XXXXXXXXXM.M.M.M.u.u.e.e.i.i.i.i.i.h h h h e.e.e.e.1.1.1.1.7.7.7.7.7.t.t.t.t.s.s.s.s.f.f.f.f.f.cXcXcXcX_._._._.jXjXjXjX: : : : : ].].].].].].].].VXVXVXVXVXBXBXBXBXVXVXVXVXMXMXMXMX;.-.;.-.-.-.-.| | -.-.-.-.).).).).).hXhXhXhXgXgXgXgX).).).).fXfXfXfXfXgXgXgXgXgXgXgXgXgXgXgXgX).).).).).).).)._._._._._.L.L.L.L.L.| | | | Z Z Z Z 9 9 9 9 >.>.>.>.>.>.>.>.>.2.2.2.2.r.r.r.r.r.B.N.N.N.G G G G K K K K XXXXXXXXXX.X.X.X.X<X<X<X<X2X2X2X2X2XpXpXpXpXpXpXpXpXpXpXpXpXpXpXpXpXpXpXpXpXpXpXpXpXpXpXpXpXpXpXpXpXpXpXpXpXpXpXpXpXpXpXpXpXpXpXpXpXpXpXpXpXpXpXpXpXpXpXpXpXpXpXpXpXpXpXpXpXpXpXpXpXpXpXpXpXpXpXpXpXpXpXpXpXpXpXpXpXpXpXpXpXpXpXpXpXpXpXpXpXpXpXpXpXpXpXpXpXpXpXpXpXpXpXpXpXpXpXpXpXpXpXpXpXpXpXpXpXpXpXpXpXpXpXpX",
"qXqXqX3X3X3X3XOXOXOXOX1X1X1X1X1X-X-X-X-X<X<X<X<X:X:X-X-X@.@.@.@.@.o.o.o.J.-X-X-X-X+X+X+X+X+XXXXX XXXM.M.M.M.u.u.i.i.i.i.i.i.i.h h h h e.e.e.e.1.6.6.6.7.7.7.7.7.t.t.t.t.s.s.s.s.f.f.f.f.f.cXcXcXcX_._._._.lXlXjXlX: : : : : ].].].].].].].].VXVXVXVXVXBXBXBXBXVXVXVXVXMXMXMXMX;.-.;.-.-.-.-.| | -.-.-.-.).).).).).hXhXhXhXgXgXgXgX).).).).fXfXfXfXfXgXgXgXfXgXgXgXgXgXgXgXgX).).).).).).).).)._._._._.L.L.L.L.L.| | | | Z Z C C 9 9 9 9 >.>.>.>.>.>.>.>.>.2.2.2.2.r.r.r.r.r.B.N.B.B.G G G G K K K K XXXXXXXXXX.X.X.X.X<X<X<X<X2X2X2X2X2XpXpXpXpXpXpXpXpXpXpXpXpXpXpXpXpXpXpXpXpXpXpXpXpXpXpXpXpXpXpXpXpXpXpXpXpXpXpXpXpXpXpXpXpXpXpXpXpXpXpXpXpXpXpXpXpXpXpXpXpXpXpXpXpXpXpXpXpXpXpXpXpXpXpXpXpXpXpXpXpXpXpXpXpXpXpXpXpXpXpXpXpXpXpXpXpXpXpXpXpXpXpXpXpXpXpXpXpXpXpXpXpXpXpXpXpXpXpXpXpXpXpXpXpXpXpXpXpXpXpXpXpXpXpXpX",
"qXqXqX3X3X3X3XOXOXOXOX1X1X1X1X1X-X-X-X-X<X<X<X<X:X-X-X-X@.@.@.@.@.o.o.o.J.-X-X-X-X+X+X+X+X+XXXXX XXXM.M.M.M.u.u.i.i.i.i.i.i.i.h h h h e.e.e.e.1.6.6.6.7.7.7.7.7.t.t.t.t.s.s.s.s.f.f.f.f.f.cXcXcXcX_._._._.lXlXlXlX: : : : : ].`.].].].].].].VXVXVXVXVXBXBXBXBXVXVXVXVXMXMXMXMX;.-.;.;.;.-.-.| | -.-.-.-.).).).).).hXhXhXhXgXgXgXgX).).).).fXfXfXfXfXgXgXgXgXgXgXgXgXgXgXgXgX).).).).).).).).)._._._._.L.L.L.L.L.| | | | Z Z C C 9 9 9 9 >.>.>.>.>.>.>.>.>.2.2.2.2.r.r.r.r.r.B.N.B.B.G G G G K K K K XXXXXXXXXX.X.X.X.X<X<X<X<X2X2X2X2X2XpXpXpXpXpXpXpXpXpXpXpXpXpXpXpXpXpXpXpXpXpXpXpXpXpXpXpXpXpXpXpXpXpXpXpXpXpXpXpXpXpXpXpXpXpXpXpXpXpXpXpXpXpXpXpXpXpXpXpXpXpXpXpXpXpXpXpXpXpXpXpXpXpXpXpXpXpXpXpXpXpXpXpXpXpXpXpXpXpXpXpXpXpXpXpXpXpXpXpXpXpXpXpXpXpXpXpXpXpXpXpXpXpXpXpXpXpXpXpXpXpXpXpXpXpXpXpXpXpXpXpXpXpXpXpX",
"qXqXqX3X3X3X3XOXOXOXOX1X1X1X1X1X-X-X-X-X<X<X<X<X:X:X-X-X@.@.@.@.@.J.J.J.J.-X-X-X-X+X+X+X+X+X X X X XM.M.M.M.e.e.i.i.i.i.i.i.i.h h h h e.e.e.e.1.6.6.6.7.7.7.7.7.t.t.t.t.s.y.y.s.f.f.f.f.f.cXcXcXcX_._._._.lXlXlXlX: : : : : `.`.`.`.].].].].BXBXVXVXVXBXBXBXBXVXVXVXVXMXMXMXMX;.;.;.;.;.-.-.-.-.-.-.-.-.).).).).).hXhXhXhXgXgXgXgX).).).).fXfXfXfXfX_.gX_._.gXgXgXgXgXgXgXgX).).).).).).).).)._._._._.L.L.L.L.L.| | -.| Z Z C C 9 9 9 9 >.>.>.>.>.>.>.>.>.2.2.2.2.r.r.r.r.r.N.N.N.B.G G G G K K K K XXXXXXXXXX.X.X.X.X<X<X<X<X2X2X2X2X2XpXpXpXpXpXpXpXpXpXpXpXpXpXpXpXpXpXpXpXpXpXpXpXpXpXpXpXpXpXpXpXpXpXpXpXpXpXpXpXpXpXpXpXpXpXpXpXpXpXpXpXpXpXpXpXpXpXpXpXpXpXpXpXpXpXpXpXpXpXpXpXpXpXpXpXpXpXpXpXpXpXpXpXpXpXpXpXpXpXpXpXpXpXpXpXpXpXpXpXpXpXpXpXpXpXpXpXpXpXpXpXpXpXpXpXpXpXpXpXpXpXpXpXpXpXpXpXpXpXpXpXpXpXpXpX",
"<X<X<XtXtXtXtXOXOXOXOXoXoXoXoXoX<X<X<X<X<X<X<X<XqXqX9X9X$.$.$.$.$.Z.Z.Z.Z.@.@.@.@.@X@X@X@X@XL L L L U U U U I I I I i.i.i.i.i.e.e.e.e.1.<.<.<.6.6.6.6.9.9.9.9.9.t.t.t.t.y.y.y.y.`.`.`.`.`.jXjXjXjX| | | | ] ] ] ] ` ` ` ` ` lXlXlXlXlXlXlXlXcXcXcXcXcXBXBXBXBXcXcXcXcXcXcXcXcXlXlXlXlXlX] ] ] ] [ [ [ [ } } } } | [ [ [ [ ] ] ] ] ` ` ` ` ! ! ! ! ! ] ] ] ] ! ! ~ ~ } } } } } } } } } [ { { { [ [ [ [ { { { { { | | | | _._././. . . . .Z Z Z Z Z i i i i r.r.r.r.t.t.t.t.t.a.a.a.a.B.B.B.B.J.J.J.J. X X X X XrXrXrXrXpXpXpXpXpXpXpXpXpXpXpXpXpXpXpXpXpXpXpXpXpXpXpXpXpXpXpXpXpXpXpXpXpXpXpXpXpXpXpXpXpXpXpXpXpXpXpXpXpXpXpXpXpXpXpXpXpXpXpXpXpXpXpXpXpXpXpXpXpXpXpXpXpXpXpXpXpXpXpXpXpXpXpXpXpXpXpXpXpXpXpXpXpXpXpXpXpXpXpXpXpXpXpXpXpXpXpXpXpXpXpXpXpXpXpXpXpXpXpXpXpXpXpXpXpXpXpXpXpXpXpXpXpXpXpXpXpXpXpXpXpXpXpXpX",
"<X<X<XtXtXtXtXOXOXOXOXoXoXoXoXoX<X<X<X<X<X<X<X<XqXqXqXqX$.$.$.$.$.Z.Z.Z.Z.@.@.@.@.@X@X@X@X@XL L L L U U U U I I I I i.i.i.i.i.e.e.e.e.1.1.1.<.8.6.6.6.9.9.9.9.9.t.t.t.t.y.y.y.y.`.`.`.`.`.jXjXjXjX| | | | ] ] ] ] ) ) ) ` ` lXlXlXlXlXlXlXlXcXcXcXcXcXBXBXBXBXcXcXcXcXcXcXcXcXlXlXlXlXlX] ] ] ] [ [ [ [ | | } } } [ [ [ [ ] ] ] ] ` ` ` ` ~ ~ ~ ! ! ] ] ] ] ~ ~ ~ ~ } } } } } } } } } [ [ [ [ [ [ [ [ { { { { { | | | | _._._./.| |  . .Z Z Z Z Z i i i i r.r.r.r.a.a.t.t.t.a.a.a.a.B.B.B.B.J.J.J.J. X X X X XrXrXrXrXpXpXpXpXpXpXpXpXpXpXpXpXpXpXpXpXpXpXpXpXpXpXpXpXpXpXpXpXpXpXpXpXpXpXpXpXpXpXpXpXpXpXpXpXpXpXpXpXpXpXpXpXpXpXpXpXpXpXpXpXpXpXpXpXpXpXpXpXpXpXpXpXpXpXpXpXpXpXpXpXpXpXpXpXpXpXpXpXpXpXpXpXpXpXpXpXpXpXpXpXpXpXpXpXpXpXpXpXpXpXpXpXpXpXpXpXpXpXpXpXpXpXpXpXpXpXpXpXpXpXpXpXpXpXpXpXpXpXpXpXpXpXpXpX",
"<X<X<XtXtXtXtXOXOXOXOXoXoXoXoXoX<X<X<X<X<X<X<X<XqXqXqXqX$.$.$.$.$.Z.Z.Z.Z.@.@.@.@.@X@X@X@X@XL L L L U U U U I I I I i.i.i.i.i.e.e.e.e.1.1.1.<.6.6.6.6.9.9.9.9.9.t.t.t.t.y.y.y.y.`.`.`.`.`.jXjXjXjX| | | | ] ] ] ] ) ) ) ` ` lXlXlXlXlXlXlXlXcXcXcXcXcXBXBXBXBXcXcXcXcXcXcXcXcXlXlXlXlXlX] ] ] ] [ [ [ [ } | } } } [ [ [ [ ] ] ] ] ` ` ` ` ~ ~ ~ ! ! ] ] ] ] ~ ~ ~ ~ } } } } } } } } } [ [ [ [ [ [ [ [ { { { { { | | | | _._././.| |  . .Z Z Z Z Z i i i i r.r.r.r.t.t.t.t.t.a.a.a.a.B.B.B.B.J.J.J.J. X X X X XrXrXrXrXpXpXpXpXpXpXpXpXpXpXpXpXpXpXpXpXpXpXpXpXpXpXpXpXpXpXpXpXpXpXpXpXpXpXpXpXpXpXpXpXpXpXpXpXpXpXpXpXpXpXpXpXpXpXpXpXpXpXpXpXpXpXpXpXpXpXpXpXpXpXpXpXpXpXpXpXpXpXpXpXpXpXpXpXpXpXpXpXpXpXpXpXpXpXpXpXpXpXpXpXpXpXpXpXpXpXpXpXpXpXpXpXpXpXpXpXpXpXpXpXpXpXpXpXpXpXpXpXpXpXpXpXpXpXpXpXpXpXpXpXpXpXpXpX",
"<X<X<XtXtXtXtXOXOXOXOXoXoXoXoXoX<X<X<X<X<X<X<X<XqXqXqXqX$.$.$.$.$.Z.Z.Z.Z.@.@.@.@.@X@X@X@X@XL L L L U U U U I I I I i.i.i.i.i.e.e.e.e.1.1.<.<.6.6.6.6.9.9.9.9.9.t.t.t.t.y.y.y.y.`.`.`.`.gXjXjXjXjX| | | | ] ] ] ] ) ) ) ) ) lXlXlXlXzXzXlXlXcXcXcXcXcXBXBXBXBXcXcXcXcXcXcXcXcXlXlXlXlXlX] ] ] ] [ [ [ [ | } } } } [ [ [ [ ] ] ] ] ` ` ` ` ! ~ ! ! ! ] ] ] ] ~ ~ ! ! } } } } } } } } } [ [ [ [ [ [ [ [ { { { { { | | | | _._._._.| | |  .Z Z Z Z Z i i i i r.r.r.r.t.t.t.t.t.a.a.a.a.B.B.B.B.J.J.J.J. X X X X XrXrXrXrXpXpXpXpXpXpXpXpXpXpXpXpXpXpXpXpXpXpXpXpXpXpXpXpXpXpXpXpXpXpXpXpXpXpXpXpXpXpXpXpXpXpXpXpXpXpXpXpXpXpXpXpXpXpXpXpXpXpXpXpXpXpXpXpXpXpXpXpXpXpXpXpXpXpXpXpXpXpXpXpXpXpXpXpXpXpXpXpXpXpXpXpXpXpXpXpXpXpXpXpXpXpXpXpXpXpXpXpXpXpXpXpXpXpXpXpXpXpXpXpXpXpXpXpXpXpXpXpXpXpXpXpXpXpXpXpXpXpXpXpXpXpXpXpX",
"9X9X9XqXqXqXqX-X-X-X-X>X>X>X>X>X<X<X<X<X9X9X9X9X-X-X-X-X&X&X&X&X$XV.V.V.V.J.J.J.J.i.i.i.i.i.z z z z H H J H J J J J K K K K K ,.,.,.,.<.2.2.2.y.y.y.y.w.w.w.w.w.7.7.7.7.y.0.0.y._._._._._._._._.).` ` ` ] 9 9 9 9 ` ` ` ' ' `.`.jXjX_._._._.zXzXzXzXzXBXBXBXBXVXVXVXVXMXMXMXMXBXBXBXBXBX-.-.-.-.| | | | [ [ [ [ [ { { { { | | | | } } } } [ [ [ [ [ ! ! ! ! [ [ [ ]  . . . .[ [ [ [ [ |  . . .} { { { | | | | | ;.;.;.;././././././././. .| | | | 3 3 3 3 r.r.r.e.u.u.u.u.u.K K K K I I X.X.M.M.M.M.I L L L L -X-X-X-XpXpXpXpX>X>X>X>X>X8X8X8X8XpXpXpXpXpXpXpXpXpXpXpXpXpXpXpXpXpXpXpXpXpXpXpXpXpXpXpXpXpXpXpXpXpXpXpXpXpXpXpXpXpXpXpXpXpXpXpXpXpXpXpXpXpXpXpXpXpXpXpXpXpXpXpXpXpXpXpXpXpXpXpXpXpXpXpXpXpXpXpXpXpXpXpXpXpXpXpXpXpXpXpXpXpXpXpXpXpXpXpXpXpXpXpXpXpXpXpXpXpXpXpXpXpXpXpXpXpXpXpXpXpXpXpXpXpXpXpXpXpXpXpX",
"9X9X9XqXqXqXqX-X-X-X-X<X>X>X>X>X<X<X<X<X9X9X9X9X-X-X-X-X$X$X&X&X&XV.V.V.V.C.C.C.J.i.i.i.i.i.z z z z H J J H J J J J K K K K K ,.,.,.,.<.<.<.<.y.y.y.y.w.w.w.w.w.7.9.9.9.y.y.y.y.).).)._._._._._.).] ` ` ` 9 9 9 9 ` ' ' ' ' `.`.`.`._._._._.zXzXzXzXzXBXBXBXBXVXVXVXVXMXMXMXMXBXBXBXBXBX-.-. . .| | | | [ [ [ [ [ { { { [ | | | | } } } } ] ] ] [ [ ! ! ! ! ] [ [ [  . . . .[ [ [ [ {  . .| | [ { { { | | | |  .;.;.;.;././././././././. . . . .| 3 3 3 3 r.r.r.e.u.u.u.u.u.K K K K X.X.X.X.M.M.M.M.L L L L I -X-X-X-XpXpXpXpX>X>X>X>X>X8X8X8X8XpXpXpXpXpXpXpXpXpXpXpXpXpXpXpXpXpXpXpXpXpXpXpXpXpXpXpXpXpXpXpXpXpXpXpXpXpXpXpXpXpXpXpXpXpXpXpXpXpXpXpXpXpXpXpXpXpXpXpXpXpXpXpXpXpXpXpXpXpXpXpXpXpXpXpXpXpXpXpXpXpXpXpXpXpXpXpXpXpXpXpXpXpXpXpXpXpXpXpXpXpXpXpXpXpXpXpXpXpXpXpXpXpXpXpXpXpXpXpXpXpXpXpXpXpXpXpXpXpXpXpX",
"9X9X9XqXqXqXqX-X-X-X-X<X>X>X>X>X<X<X<X<X9X9X9X9X-X-X-X-X$X$X&X&X&XV.V.V.V.C.J.C.J.M.i.i.i.i.z z z z H H J J J J J J K K K K K ,.,.,.,.<.<.<.<.y.y.y.y.w.w.w.w.w.7.9.9.9.y.y.y.y.).).)._._._._._.).] ` ] ] 9 9 9 9 ' ' ' ' ' `.`.`.`._._._._.zXzXzXzXzXBXBXBXBXVXVXVXVXMXMXMXMXBXBXBXBXBX-.-. . .| | | | [ [ [ [ [ { { { { | | | | } } } } ] [ [ [ [ ! ! ! ! ] [ [ [  . . . .[ { [ [ [  . . .| [ { { { | | | |  .;.;.;.;././././././././. . . . .| 3 3 3 3 r.r.e.e.u.u.u.u.u.K K K K X.X.X.X.M.M.M.M.L L L L I -X-X-X-XpXpXpXpX>X>X>X>X>X8X8X8X8XpXpXpXpXpXpXpXpXpXpXpXpXpXpXpXpXpXpXpXpXpXpXpXpXpXpXpXpXpXpXpXpXpXpXpXpXpXpXpXpXpXpXpXpXpXpXpXpXpXpXpXpXpXpXpXpXpXpXpXpXpXpXpXpXpXpXpXpXpXpXpXpXpXpXpXpXpXpXpXpXpXpXpXpXpXpXpXpXpXpXpXpXpXpXpXpXpXpXpXpXpXpXpXpXpXpXpXpXpXpXpXpXpXpXpXpXpXpXpXpXpXpXpXpXpXpXpXpXpXpXpX",
"9X9X9XqXqXqXqX-X-X-X-X<X<X>X>X>X<X<X<X<X9X9X9X9X-X-X-X-X$X$X$X&X&XV.V.V.V.J.J.J.J.M.i.i.i.i.z z z z H J J J J J J J K K K K K ,.,.,.,.<.<.<.<.y.y.y.y.w.w.w.w.w.7.7.9.9.0.0.y.y.).).).)._._._._.).] ] ] ] 9 9 9 9 ` ' ' ` ' `.`.`.`._._._._.zXzXzXzXzXBXBXBXBXVXVXVXVXMXMXMXMXBXBXBXBXBX . . . .| | | | [ [ [ [ [ { { { { | | | | } } } } [ [ [ [ [ ! ! ! ! [ [ [ [  . . . .[ { [ [ [  .| | | [ { { [ | | |  . .;.;.;.;././././././././.| |  .| | 3 3 3 3 r.e.e.e.u.u.u.u.u.K K K K X.X.X.X.M.M.M.M.L L L L I -X-X-X-XpXpXpXpX>X>X>X>X>X8X8X8X8XpXpXpXpXpXpXpXpXpXpXpXpXpXpXpXpXpXpXpXpXpXpXpXpXpXpXpXpXpXpXpXpXpXpXpXpXpXpXpXpXpXpXpXpXpXpXpXpXpXpXpXpXpXpXpXpXpXpXpXpXpXpXpXpXpXpXpXpXpXpXpXpXpXpXpXpXpXpXpXpXpXpXpXpXpXpXpXpXpXpXpXpXpXpXpXpXpXpXpXpXpXpXpXpXpXpXpXpXpXpXpXpXpXpXpXpXpXpXpXpXpXpXpXpXpXpXpXpXpXpXpX",
"pXpXpX>X>X>X>X7X7X7X7X8X8X8X8X8XpXpXpXpX<X<X<X<X+X+X+X+X+X+X+X+X#XJ K K K e.e.e.u.i.i.i.i.i.,.,.,.,.2.2.2.2.G G G G ,.,.,.,.,.2.2.2.2.1.1.1.<.6.q.q.q.9.9.9.0.0.e.e.e.e.p.p.p.p.E E E Q Q jX`.`.`.{ { { { $ $ $ $ /././././.`.`.`.`.`.`.`.`.zXzXzXzXzXn n n n zXzXzXzXlXlXlXlXcXcXcXcXcX] ] ] ] ! ! ! ! ` ] ) ] ` [ ] ] ] ! ~ ! ! ) ) ) ) [ [ [ [ [ ) ) ) ) { { { { [ [ [ [ ] ] ] [ ] [ [ [ [ } } } } | | |  . . . . . ./././././././././././././././././.6 3 3 3 z z z z z L L L L I I I I P K P P oX$.$.$.$.XXXXXXXXpXpXpXpX<X<X<X<X<XpXpXpXpXpXpXpXpXpXpXpXpXpXpXpXpXpXpXpXpXpXpXpXpXpXpXpXpXpXpXpXpXpXpXpXpXpXpXpXpXpXpXpXpXpXpXpXpXpXpXpXpXpXpXpXpXpXpXpXpXpXpXpXpXpXpXpXpXpXpXpXpXpXpXpXpXpXpXpXpXpXpXpXpXpXpXpXpXpXpXpXpXpXpXpXpXpXpXpXpXpXpXpXpXpXpXpXpXpXpXpXpXpXpXpXpXpXpXpXpXpXpXpXpXpXpXpXpXpXpXpXpXpXpXpX",
"pXpXpX>X>X>X>X7X7X7X7X8X8X8X8X8XpXpXpXpX<X<X<X<X+X+X+X+X+X+X#X#X#XK K K K e.e.u.u.i.i.i.i.i.,.,.,.,.2.2.2.2.G G G G ,.,.,.,.,.2.2.2.8.1.1.<.<.6.q.q.q.0.0.0.0.0.e.e.e.e.p.p.p.p.Q Q Q Q Q `.`.`.`.{ { { [ $ $ $ $ /././././.`.`.`.`.`.`.`.`.zXzXzXzXzXn n n n zXzXzXzXlXlXlXlXcXcXcXcXcX] ] ] ] ! ! ! ! ` ` ) ) ` ] ] ] [ ~ ! ! ! ) ) ) ) [ [ [ [ [ ) ) ) ) { { { { [ [ ] ] ] ] [ [ ] [ [ [ [ } } } } | | |  . . . . . ./././././././././././././././././.3 3 3 3 z z z z z L L L L I I I I K K K K $.$.oXoX$.XXXXXXXXpXpXpXpX<X<X<X<X<XpXpXpXpXpXpXpXpXpXpXpXpXpXpXpXpXpXpXpXpXpXpXpXpXpXpXpXpXpXpXpXpXpXpXpXpXpXpXpXpXpXpXpXpXpXpXpXpXpXpXpXpXpXpXpXpXpXpXpXpXpXpXpXpXpXpXpXpXpXpXpXpXpXpXpXpXpXpXpXpXpXpXpXpXpXpXpXpXpXpXpXpXpXpXpXpXpXpXpXpXpXpXpXpXpXpXpXpXpXpXpXpXpXpXpXpXpXpXpXpXpXpXpXpXpXpXpXpXpXpXpXpXpXpXpX",
"pXpXpX>X>X>X>X7X5X7X7X8X8X8X8X8XpXpXpXpX<X<X<X<X+X+X+X+X+X+X+X#X#XK K K K e.e.u.u.i.i.i.i.i.,.,.,.,.2.2.2.2.G G G G ,.,.,.,.,.2.2.2.8.1.1.1.<.6.q.q.q.0.0.0.0.0.e.e.e.e.p.p.p.p.Q Q Q Q Q `.`.`.`.{ { { [ $ $ $ $ /././././.`.`.`.`.`.`.`.`.zXzXzXzXzXn n n n zXzXzXzXlXlXlXlXcXcXcXcXcX] ] ] ] ! ! ! ! ` ` ) ) ` ] ] ] [ ~ ~ ! ! ) ) ) ) [ [ [ [ [ ) ) ) ) { { { { [ [ ] ] ] ] ] [ ] [ [ [ [ } } } } | | |  .|  . . . ./././././././././././././././././.3 3 3 3 z z z z z L L L L I I I I K K K K $.$.oXoX$.XXXXXXXXpXpXpXpX>X>X>X<X>XpXpXpXpXpXpXpXpXpXpXpXpXpXpXpXpXpXpXpXpXpXpXpXpXpXpXpXpXpXpXpXpXpXpXpXpXpXpXpXpXpXpXpXpXpXpXpXpXpXpXpXpXpXpXpXpXpXpXpXpXpXpXpXpXpXpXpXpXpXpXpXpXpXpXpXpXpXpXpXpXpXpXpXpXpXpXpXpXpXpXpXpXpXpXpXpXpXpXpXpXpXpXpXpXpXpXpXpXpXpXpXpXpXpXpXpXpXpXpXpXpXpXpXpXpXpXpXpXpXpXpXpXpXpXpX",
"pXpXpX:X>X>X>X7X7X7X7X8X8X8X8X8XpXpXpXpX<X<X<X<X+X+X+X+X+X+X#X#X+XK K K K e.e.e.e.i.i.i.i.i.,.,.,.,.2.2.2.2.G G G G ,.,.,.,.,.2.2.2.2.1.1.1.1.6.q.q.q.0.0.0.9.0.e.e.e.e.p.p.p.p.Q Q Q Q Q `.jXjX`.[ { { [ $ $ $ $ /././././.`.`.`.`.`.`.`.`.zXzXzXzXzXn n n n zXzXzXzXlXlXlXlXcXcXcXcXcX] ] ] ] ! ! ! ! ` ` ` ` ` ] [ ] [ ~ ! ! ! ) ) ) ) [ [ [ [ [ ) ) ) ) { { { { [ [ ] ] ] ] ] [ [ [ [ [ [ } } } |  .| | | |  . . . .L.L././.L.L./././././././././././.3 3 3 3 z z z z z L L L L I I I I K K K K $.$.oXoXoXXXXXXXXXpXpXpXpX>X>X>X>X>XpXpXpXpXpXpXpXpXpXpXpXpXpXpXpXpXpXpXpXpXpXpXpXpXpXpXpXpXpXpXpXpXpXpXpXpXpXpXpXpXpXpXpXpXpXpXpXpXpXpXpXpXpXpXpXpXpXpXpXpXpXpXpXpXpXpXpXpXpXpXpXpXpXpXpXpXpXpXpXpXpXpXpXpXpXpXpXpXpXpXpXpXpXpXpXpXpXpXpXpXpXpXpXpXpXpXpXpXpXpXpXpXpXpXpXpXpXpXpXpXpXpXpXpXpXpXpXpXpXpXpXpXpXpXpX",
"2X2X2X9X9X9X9XpXpXpXpXqXqXqXqXqX5X5X5X5XpXpXpXpX:X:X:X:XO.O.O.O.O.G G G G r.r.r.r.1.<.<.1.1.t.t.t.t.1.1.1.1.e.e.e.e.>.>.>.>.>.1.1.1.1.r.r.r.r.q.q.q.q.q.q.q.q.q.5.5.5.5.5.5.5.5.E E E E E *.*.*.*.{ } } } 6 6 6 6 `.`.`.`.`._._._._.`.`.`.`.BXBXBXBXBXV V V V zXzXzXcXNXNXNXNXCXCXCXCXCX] ] ] ] B B B n n n n n n w g g g 6 3 3 3 n n n n 9 9 9 9 9 > 3 > > > > > > : : : : > > > > > % $ $ $ > > > > $ $ $ $ $ : : : : : : : : 6 9 9 9 W W W W W W W W W n n n g g g g g g |.|.|.|.L L L L -X-X-X-X X XoXoXoXtX7X7X7X>X>X<X>X<X<X<X<X<XpXpXpXpXpXpXpXpXpXpXpXpXpXpXpXpXpXpXpXpXpXpXpXpXpXpXpXpXpXpXpXpXpXpXpXpXpXpXpXpXpXpXpXpXpXpXpXpXpXpXpXpXpXpXpXpXpXpXpXpXpXpXpXpXpXpXpXpXpXpXpXpXpXpXpXpXpXpXpXpXpXpXpXpXpXpXpXpXpXpXpXpXpXpXpXpXpXpXpXpXpXpXpXpXpXpXpXpXpXpXpXpXpXpXpXpXpXpXpXpXpXpXpXpXpXpXpXpXpXpXpXpXpXpXpX",
"2X2X2X9X9X9X9XpXpXpXpXqXqXqXqXqX5X5X5X5XpXpXpXpX:X:X:X:XO.O.O.O.O.G G G G r.r.r.r.1.1.1.1.1.t.t.t.t.1.1.1.1.,.e.e.e.>.>.>.>.>.1.6.6.1.r.r.r.y.q.q.q.q.q.q.q.q.q.5.5.7.7.5.5.5.5.E E E E E *.*.*.*.{ { } { 6 6 6 6 `.`.`.`.`._._._._.`.`.`.`.BXBXBXBXBXV V V V zXzXcXcXNXNXNXNXCXCXCXCXCX] ] ] ] n n n n n n n n n g g g w 3 3 3 3 n n n n 9 9 9 9 9 3 3 3 3 > > > > : : : : > > > > > % $ % % > > > > $ $ $ $ $ : : : : : : : : 6 6 9 9 W W W W W W W W W n n n g g g g g g |.|.|.|.L L L L -X-X-X-X X X X X X7X7X7X7X>X>X>X>X<X<X<X<X<XpXpXpXpXpXpXpXpXpXpXpXpXpXpXpXpXpXpXpXpXpXpXpXpXpXpXpXpXpXpXpXpXpXpXpXpXpXpXpXpXpXpXpXpXpXpXpXpXpXpXpXpXpXpXpXpXpXpXpXpXpXpXpXpXpXpXpXpXpXpXpXpXpXpXpXpXpXpXpXpXpXpXpXpXpXpXpXpXpXpXpXpXpXpXpXpXpXpXpXpXpXpXpXpXpXpXpXpXpXpXpXpXpXpXpXpXpXpXpXpXpXpXpXpXpXpXpXpXpXpXpXpXpXpXpX",
"2X2X2X9X9X9X9XpXpXpXpXqXqXqXqXqX5X5X5X5XpXpXpXpX:X:X:X:XO.O.O.O.O.G G G G r.r.r.r.1.1.1.1.1.t.t.t.t.1.1.1.1.,.e.e.e.>.>.>.>.>.1.6.1.1.r.r.y.y.q.q.q.q.q.w.w.q.q.5.5.7.7.5.5.5.5.E E E E E *.*.*.*.{ } } { 6 6 6 6 `.`.`.`.`._._._._.`.`.`.`.BXBXBXBXBXV V V V zXzXcXcXNXNXNXNXCXCXCXCXCX] ] ] ] n n n n n n n n n g g g g 3 3 3 3 n n n n 9 9 9 9 9 3 3 > 3 > > > > : : : : > > > > > % $ $ % > > > > $ $ $ $ $ : : : : : : : : 9 6 9 9 W W W W W W W W W n n n g g g g g g |.|.|.|.L L L L -X-X-X-X X X X X X7X7X7X7X>X>X<X>X<X<X<X<X<XpXpXpXpXpXpXpXpXpXpXpXpXpXpXpXpXpXpXpXpXpXpXpXpXpXpXpXpXpXpXpXpXpXpXpXpXpXpXpXpXpXpXpXpXpXpXpXpXpXpXpXpXpXpXpXpXpXpXpXpXpXpXpXpXpXpXpXpXpXpXpXpXpXpXpXpXpXpXpXpXpXpXpXpXpXpXpXpXpXpXpXpXpXpXpXpXpXpXpXpXpXpXpXpXpXpXpXpXpXpXpXpXpXpXpXpXpXpXpXpXpXpXpXpXpXpXpXpXpXpXpXpXpXpXpX",
"2X2X2X9X9X9X9XpXpXpXpXqXqXqXqXqX5X5X5X5XpXpXpXpX-X-X:X:XO.O.O.O.O.G G G G r.r.r.r.1.1.1.1.1.t.t.t.t.1.1.1.1.e.e.e.e.>.>.>.>.>.1.1.1.1.r.r.r.y.q.q.q.q.q.w.w.w.w.5.7.7.7.5.5.5.5.E E E E E *.*.*.*.} } } { 6 6 6 6 `.`.`.`.`._._._._.`.`.`.`.BXBXBXBXBXV V V V zXzXzXcXNXNXNXNXCXCXCXCXCX] ] ] ] n n B B n n n n n g w w g 6 6 6 3 n n n n 9 9 9 9 9 > 3 > > > > > > : : : : > > > > > $ % % % > > > > % % % $ $ : : : : : : : : 9 9 9 9 W W W W W W W W ! n n n g g g g g g |.|.|.|.L L L L -X-X-X-X X X X X X7X7X7X7X>X<X<X<X<X<X<X<X<XpXpXpXpXpXpXpXpXpXpXpXpXpXpXpXpXpXpXpXpXpXpXpXpXpXpXpXpXpXpXpXpXpXpXpXpXpXpXpXpXpXpXpXpXpXpXpXpXpXpXpXpXpXpXpXpXpXpXpXpXpXpXpXpXpXpXpXpXpXpXpXpXpXpXpXpXpXpXpXpXpXpXpXpXpXpXpXpXpXpXpXpXpXpXpXpXpXpXpXpXpXpXpXpXpXpXpXpXpXpXpXpXpXpXpXpXpXpXpXpXpXpXpXpXpXpXpXpXpXpXpXpXpXpXpX",
"2X2X2X9X9X9X9XpXpXpXpXqXqXqXqXqX5X5X5X5XpXpXpXpX-X:X:X:XO.O.O.O.O.G G G G r.r.r.r.1.1.1.1.1.t.t.t.t.1.1.1.1.e.e.e.e.>.>.>.>.>.1.1.1.1.r.r.r.y.q.q.q.q.q.w.w.w.w.5.5.7.7.5.5.5.5.E E E E E *.*.*.*.} } } { 6 6 6 6 `.`.`.`.`._._._._.`.`.`.`.BXBXBXBXBXV V V V zXzXzXcXNXNXNXNXCXCXCXCXCX[ ] ] ] n n n B n n n n n w w w g 3 6 6 3 n n n n 9 9 9 9 9 > > > > > > > > : : : : > > > > > % % % % > > > > % % % $ $ : : : : : : : : 9 9 9 9 W W W W W W W W ! n n n N g g g g g |.|.|.|.L L L L -X-X-X-X X X X X X7X7X7X7X>X<X<X<X<X<X<X<X<XpXpXpXpXpXpXpXpXpXpXpXpXpXpXpXpXpXpXpXpXpXpXpXpXpXpXpXpXpXpXpXpXpXpXpXpXpXpXpXpXpXpXpXpXpXpXpXpXpXpXpXpXpXpXpXpXpXpXpXpXpXpXpXpXpXpXpXpXpXpXpXpXpXpXpXpXpXpXpXpXpXpXpXpXpXpXpXpXpXpXpXpXpXpXpXpXpXpXpXpXpXpXpXpXpXpXpXpXpXpXpXpXpXpXpXpXpXpXpXpXpXpXpXpXpXpXpXpXpXpXpXpXpXpXpX",
"2X2X2X<X<X<X<X&X&X&X&XpXpXpXpXpX<X<X<X<X7X7X7X7X%X%X%X#X+.+.|.|.+.@.@.@.@.a.a.a.a.1.<.<.<.<.2.2.2.2.6.6.1.6.7.7.7.7.>.>.>.>.>.r.7.7.r.9.9.9.9.w.w.w.w.s.s.s.s.s.p.p.p.p.r.r.y.y._._._._.`.^ ^ ^ ^ ! ! ! ! $ $ % $ _._.).).)././././.`.`.`.`.) ) ) ) ) } } } } lXlXlXzXSXSXSXSXFXFXFXFXFX6 6 6 6 nXnXnXnXnXnXnXnXnXkXkXkXkX)._._.).6 6 8 8 [ ] ] [ [ { { { { ;.;.;.;.lXlXxXxXxXxXxXxXxXxXxXxXxXxXxXxXxXAXAXAXCXCXnXnXnXnXSXSXSXSXg g g g gXgX`.`.`.fXfXfXfX).).).).R R R R R +.+.+.+..X.X.X.X$X$X$X$XJ.J.J.J.J.:X:X:X:X8X8X7X7X7X7X7X7X7XpXpXpXpXpXpXpXpXpXpXpXpXpXpXpXpXpXpXpXpXpXpXpXpXpXpXpXpXpXpXpXpXpXpXpXpXpXpXpXpXpXpXpXpXpXpXpXpXpXpXpXpXpXpXpXpXpXpXpXpXpXpXpXpXpXpXpXpXpXpXpXpXpXpXpXpXpXpXpXpXpXpXpXpXpXpXpXpXpXpXpXpXpXpXpXpXpXpXpXpXpXpXpXpXpXpXpXpXpXpXpXpXpXpXpXpXpXpXpXpXpXpXpXpXpXpXpXpXpXpXpXpXpXpXpX",
"2X2X2X<X<X<X<X&X&X&X&XpXpXpXpXpX<X<X<X<X7X7X7X7X%X%X#X#X+.+.|.+.+.@.@.@.@.a.a.a.a.1.1.<.<.1.2.2.2.2.6.6.1.1.7.7.7.7.>.>.>.>.>.r.7.7.r.9.9.9.9.q.w.w.w.s.s.s.s.s.p.p.p.p.r.r.r.y._._._._.`.^ ^ ^ ^ ! ! ! ! $ % % $ _._.).).)././.L./.`.`.`.`.) ) ) ) ) } } } } lXlXlXzXSXSXSXSXFXFXFXFXFX6 6 6 6 nXnXnXnXnXnXnXnXnXxXkXkXkX)._._.).6 6 8 7 [ ] ] [ [ { { { { ;.;.;.;.lXlXxXxXxXxXxXxXxXxXxXxXxXxXxXxXxXAXAXAXCXCXnXnXnXnXSXSXSXSXg g g g gX`.`.`.`.fXfXfXgX).).).).R R R V R O.O.+.+..X.X.X.X$X$X$X$XJ.J.J.J.J.:X:X:X:X8X7X7X7X7X7X7X7X7XpXpXpXpXpXpXpXpXpXpXpXpXpXpXpXpXpXpXpXpXpXpXpXpXpXpXpXpXpXpXpXpXpXpXpXpXpXpXpXpXpXpXpXpXpXpXpXpXpXpXpXpXpXpXpXpXpXpXpXpXpXpXpXpXpXpXpXpXpXpXpXpXpXpXpXpXpXpXpXpXpXpXpXpXpXpXpXpXpXpXpXpXpXpXpXpXpXpXpXpXpXpXpXpXpXpXpXpXpXpXpXpXpXpXpXpXpXpXpXpXpXpXpXpXpXpXpXpXpXpXpXpXpXpXpX",
"2X2X2X<X<X<X<X&X&X&X&XpXpXpXpXpX<X<X<X<X7X7X7X7X%X%X%X%X+.+.+.+.+.@.@.@.@.a.a.a.a.1.<.<.<.<.2.2.2.2.6.1.6.1.7.7.7.7.>.>.>.>.>.7.9.7.9.9.9.9.9.q.q.q.q.s.s.s.s.s.p.p.u.p.r.r.y.y._._._._.`.^ ^ ^ ^ ! ! ! ! % % % $ _._._._.)././.L.L.`.`.`.`.) ) ) ) ) } } } } lXlXlXlXSXSXSXSXFXFXFXFXFX6 6 6 6 nXnXnXnXnXnXnXnXnXxXxXxXxX).)._.).6 8 8 7 [ [ [ [ [ { { { { ;.;.;.;.lXlXxXxXxXxXxXxXxXxXxXxXxXxXxXxXxXAXAXAXAXAXnXnXnXnXSXSXSXSXg n g g gXgX`.`.`.fXgXgXgX).).).).R R R V V O.O.+.+..X.X.X.X$X$X$X*XJ.J.J.J.K.:X:X:X:X7X7X7X7X7X7X7X7X7XpXpXpXpXpXpXpXpXpXpXpXpXpXpXpXpXpXpXpXpXpXpXpXpXpXpXpXpXpXpXpXpXpXpXpXpXpXpXpXpXpXpXpXpXpXpXpXpXpXpXpXpXpXpXpXpXpXpXpXpXpXpXpXpXpXpXpXpXpXpXpXpXpXpXpXpXpXpXpXpXpXpXpXpXpXpXpXpXpXpXpXpXpXpXpXpXpXpXpXpXpXpXpXpXpXpXpXpXpXpXpXpXpXpXpXpXpXpXpXpXpXpXpXpXpXpXpXpXpXpXpXpXpXpXpX",
"2X2X2X<X<X<X<X&X&X&X&XpXpXpXpXpX<X<X<X<X7X7X7X7X%X%X%X%X+.+.+.+.+.@.@.@.@.a.a.a.a.1.<.<.<.<.2.2.2.2.1.1.6.6.7.7.7.7.>.>.>.>.>.7.9.9.9.9.9.9.9.w.q.q.q.s.s.s.s.s.p.p.u.u.r.r.y.y.`._._._._.^ ^ ^ ^ ! ! ! ! % % % % _._._._._././.L.L.`.`.`.`.) ) ) ) ) } } } } lXlXlXlXSXSXSXSXFXFXFXFXFX6 6 6 6 nXnXnXnXnXnXnXnXnXxXxXxXxX).)._.).6 8 8 8 [ [ [ [ [ { { { { ;.;.;.;.xXxXxXxXxXxXxXxXxXxXxXxXxXxXxXxXxXAXAXAXAXAXnXnXnXnXSXSXSXSXn n g g gXgX`.`.`.fXgXgXgX).).).).R R R V V O.O.+.+..X.X.X.X$X$X$X*XJ.J.J.K.K.:X:X:X:X7X7X7X7X7X7X7X7X7XpXpXpXpXpXpXpXpXpXpXpXpXpXpXpXpXpXpXpXpXpXpXpXpXpXpXpXpXpXpXpXpXpXpXpXpXpXpXpXpXpXpXpXpXpXpXpXpXpXpXpXpXpXpXpXpXpXpXpXpXpXpXpXpXpXpXpXpXpXpXpXpXpXpXpXpXpXpXpXpXpXpXpXpXpXpXpXpXpXpXpXpXpXpXpXpXpXpXpXpXpXpXpXpXpXpXpXpXpXpXpXpXpXpXpXpXpXpXpXpXpXpXpXpXpXpXpXpXpXpXpXpXpXpXpX",
"qXqXqX,X;X;X;Xo.o.o.o.<X<X<X<X<X:X:X:X:X%X%X%X%X>X>X>X>XU U U U U o.o.o.o.r.r.r.r.1.1.1.1.1.7.7.7.7.1.1.1.1.7.7.7.7.>.>.>.>.>.2.>.>.>.9.9.9.9.q.q.q.q.w.w.w.w.w.5.5.5.5.a.a.a.a.).).).).).E E E E T R R R 6 6 6 9 /././././.L.L././.`.`.`.`.! ! ! ! ! `.`.`.`.lXlXlXlXFXFXFXFXGXGXGXGXGX_._._._.).).).).).).).).).;.;.;.;.} } } } ! ! ! ! g g g g g g g g g 9 9 9 9 6 6 > > > > > > > n n n n n n n n M M M B m V V V V V V B B v w w 9 fX_._._.fX{ { { { ~ ~ ~ ~ ) ) ) ) ) 4 4 4 4 U U U U $.$.$.$.N.N.N.N.N.+.+.+.+.wXwXwXwXpXpXpXpXpX<X<X<X<XqXqXqXqXpXpXpXpXpXpXpXpXpXpXpXpXpXpXpXpXpXpXpXpXpXpXpXpXpXpXpXpXpXpXpXpXpXpXpXpXpXpXpXpXpXpXpXpXpXpXpXpXpXpXpXpXpXpXpXpXpXpXpXpXpXpXpXpXpXpXpXpXpXpXpXpXpXpXpXpXpXpXpXpXpXpXpXpXpXpXpXpXpXpXpXpXpXpXpXpXpXpXpXpXpXpXpXpXpXpXpXpXpXpXpXpXpXpXpXpXpXpXpXpXpXpXpXpXpXpXpX",
"qXqXqX,X;X;X;Xo.o.o.o.<X<X<X<X<X:X:X:X:X%X%X%X%X>X>X>X>XU U U U U o.o.o.o.r.r.r.r.1.1.1.1.1.7.7.7.7.1.1.1.1.7.7.7.7.>.>.>.>.>.>.>.>.>.9.9.9.9.q.q.q.q.w.w.w.w.w.5.5.5.5.a.t.a.a.).).).).).E E E E R R R R 9 6 6 9 /././././.L.L././.`.`.`.`.! ! ! ! ! `.`.`.`.lXlXlXlXFXFXFXFXGXGXGXGXGX_._._._.).).).).).).).).).;.;.;.;.} } } } ! ! ! ! v g g g g g g g g 9 9 9 9 6 6 > > > > > > > n n n n n n n n M M M B m V V V V V V B B v w 9 9 fXfX_._.fX{ { { { ~ ~ ~ ~ ) ) ) ) ) 4 4 4 4 U U U U $.$.@.$.N.N.N.N.N.+.+.+.+.wXwXwXwXpXpXpXpXpX<X<X<X<XqXqXqXqXpXpXpXpXpXpXpXpXpXpXpXpXpXpXpXpXpXpXpXpXpXpXpXpXpXpXpXpXpXpXpXpXpXpXpXpXpXpXpXpXpXpXpXpXpXpXpXpXpXpXpXpXpXpXpXpXpXpXpXpXpXpXpXpXpXpXpXpXpXpXpXpXpXpXpXpXpXpXpXpXpXpXpXpXpXpXpXpXpXpXpXpXpXpXpXpXpXpXpXpXpXpXpXpXpXpXpXpXpXpXpXpXpXpXpXpXpXpXpXpXpXpXpXpXpXpXpX",
"qXqXqX,X;X;X;Xo.o.o.o.<X<X<X<X<X:X:X:X:X%X%X%X%X>X>X>X>XU U U U U o.o.o.o.r.r.r.r.1.1.1.1.1.7.7.7.7.1.1.1.1.7.7.7.7.>.>.>.>.>.>.>.>.>.9.9.9.9.q.q.q.q.w.w.w.w.w.7.7.5.5.t.t.t.t.).).).).).E E E E Y R R R 9 6 6 9 /././././.L.L././.`.`.`.`.! ! ! ! ! `.`.`.`.lXlXlXlXFXFXFXFXGXGXGXGXGX_._._._.).).).).).).).).).;.;.;.;.} } } } ! ! ! ! v v v v w g g g g 9 9 9 9 3 6 > > > > > > > n n n n n n n n M M M B m V V V V V V V B g g 9 9 fXfXfXfXfX{ { { { ~ ~ ~ ~ ) ) ) ) ` 4 4 4 4 U U U U $.$.@.$.N.N.N.N.N.+.+.+.+.wXwXwXwXpXpXpXpXpX<X<X<X<XqXqXqXqXpXpXpXpXpXpXpXpXpXpXpXpXpXpXpXpXpXpXpXpXpXpXpXpXpXpXpXpXpXpXpXpXpXpXpXpXpXpXpXpXpXpXpXpXpXpXpXpXpXpXpXpXpXpXpXpXpXpXpXpXpXpXpXpXpXpXpXpXpXpXpXpXpXpXpXpXpXpXpXpXpXpXpXpXpXpXpXpXpXpXpXpXpXpXpXpXpXpXpXpXpXpXpXpXpXpXpXpXpXpXpXpXpXpXpXpXpXpXpXpXpXpXpXpXpXpXpX",
"qXqXqX,X;X;X;Xo.o.o.o.<X<X<X<X<X:X:X:X:X%X%X%X%X>X>X>X>XU U U U U o.o.o.o.r.r.r.r.1.1.1.1.1.7.7.7.7.1.1.1.1.7.7.7.7.>.>.>.>.>.>.>.>.>.9.9.9.9.q.q.q.q.w.w.w.w.w.7.7.7.5.t.t.t.t.).).).).).E Q Q E Y R R R 9 6 6 6 /././././.L.L././.`.`.`.`.! ! ! ! ! `.`._.`.lXlXlXlXFXFXFXFXGXGXGXGXGX_._._._.).).).).).).).).).;.;.;.;.} } } } ! ! ! ! v v v v w g g g g 9 9 9 9 3 3 > > > > > > > n n n n n n n n M M M B B V V V V V V V B g 9 9 9 fXfXfXfXfX{ { { { ~ ~ ~ ~ ` ) ) ) ` 4 4 4 4 U U U U $.$.@.@.N.N.N.N.N.+.+.+.+.wXwXwXwXpXpXpXpXpX<X<X<X<XqXqXqXqXpXpXpXpXpXpXpXpXpXpXpXpXpXpXpXpXpXpXpXpXpXpXpXpXpXpXpXpXpXpXpXpXpXpXpXpXpXpXpXpXpXpXpXpXpXpXpXpXpXpXpXpXpXpXpXpXpXpXpXpXpXpXpXpXpXpXpXpXpXpXpXpXpXpXpXpXpXpXpXpXpXpXpXpXpXpXpXpXpXpXpXpXpXpXpXpXpXpXpXpXpXpXpXpXpXpXpXpXpXpXpXpXpXpXpXpXpXpXpXpXpXpXpXpXpXpXpX",
"7X7X7X;X;X;X;XC.C.C.C.-X-X-X-X-X7X7X7X7XpXpXpXpX+X+X+X+X.X.X@X@X.XG G G G i.i.i.i.e.e.t.t.t.<.<.1.1.1.1.1.1.<.<.<.<.<.<.<.<.2.e.5.e.e.7.5.5.r.q.q.q.q.t.t.t.t.t.h h h z f.f.f.a./ / / / / Y Y Y Y T T T T V V V V ! ! ! ! ! -.-.;.-._._._._.9 9 9 9 9 _._._._.lXlXlXlXGXGXGXGXGXGXGXGXGX).).).).] ] ] ] [ [ [ [ [ W W W W ) ) ) ) ] ] ] ] -.-.-.-.-.gXgXgXgX).).).).gXgXfXfXgXgXgXgXgXhXhXhXhXhXhXhXhXfXgXgXfXfXgXgXgXgXnXnXnXnXgXhXhXhX/./././.L.[ [ [ [ ~ ~ ~ ~ ~ ~ ~ ~ ~ 6 6 6 8 4 4 4 4 P P P P B.B.B.B.B.X.X.X.X.qXqXqXqX:X:X:X:X:XqXqXqXqXpXpXpXpXpXpXpXpXpXpXpXpXpXpXpXpXpXpXpXpXpXpXpXpXpXpXpXpXpXpXpXpXpXpXpXpXpXpXpXpXpXpXpXpXpXpXpXpXpXpXpXpXpXpXpXpXpXpXpXpXpXpXpXpXpXpXpXpXpXpXpXpXpXpXpXpXpXpXpXpXpXpXpXpXpXpXpXpXpXpXpXpXpXpXpXpXpXpXpXpXpXpXpXpXpXpXpXpXpXpXpXpXpXpXpXpXpXpXpXpXpXpXpXpXpXpXpXpXpXpXpX",
"7X7XtX;X;X;X;XC.C.C.C.-X-X-X-X-X7X7X7X7XpXpXpXpX+X+X+X+X.X.X@X@X@XG G G G i.i.i.i.e.e.e.t.t.<.<.1.1.<.1.1.1.<.<.<.<.<.<.<.<.2.e.e.e.5.5.5.5.r.q.q.q.q.t.t.t.t.t.h h h h f.f.a.a./ / / / / Y Y Y Y T T T T V V V V ! ! ! ! ! -.-.-.-._._._._.9 9 9 9 9 _._._._.lXlXlXlXGXGXGXGXGXGXGXGXGX).).).).] ] ] ] [ [ [ [ [ W W W W ) ) ~ ) ] ] ] ] -.| | -.-.gXgXgXgX).).).).gXgXfXfXgXgXgXgXgXhXhXhXjXhXhXhXhXfXgXgXfXfXgXgXgXgXnXnXnXnXhXhXhXhX/./././.L.] [ [ [ ~ ~ ~ ~ ~ ~ ~ ~ ~ 6 6 6 8 4 4 4 4 P P P P B.B.B.B.B.X.X.X.X.qXqXqXqX:X:X:X:X:XqXqXqXqXpXpXpXpXpXpXpXpXpXpXpXpXpXpXpXpXpXpXpXpXpXpXpXpXpXpXpXpXpXpXpXpXpXpXpXpXpXpXpXpXpXpXpXpXpXpXpXpXpXpXpXpXpXpXpXpXpXpXpXpXpXpXpXpXpXpXpXpXpXpXpXpXpXpXpXpXpXpXpXpXpXpXpXpXpXpXpXpXpXpXpXpXpXpXpXpXpXpXpXpXpXpXpXpXpXpXpXpXpXpXpXpXpXpXpXpXpXpXpXpXpXpXpXpXpXpXpXpXpXpXpX",
"7XtXtX;X;X;X;XC.K C.C.-X-X-X-X-X7X7X7X7XpXpXpXpX#X#X+X+X.X.X.X.X@XG G G G i.i.i.i.e.e.e.t.t.<.<.1.1.1.1.1.1.1.<.<.1.<.<.2.2.2.e.e.e.e.5.5.5.5.q.q.q.q.t.t.t.t.t.h h h h a.a.a.a./ / / / / Y Y Y Y T T T T V V V V ! ! ! ! !  . . . ._._._._.9 9 9 9 9 _._._._.lXlXlXlXGXGXGXGXGXGXGXGXGX).).).).] ] ] ] [ [ [ [ [ W W W W ) ) ) ) ] ] ] ] | | | -.-.gXgXgXgX).).).).gXgXfXfXfXgXgXgXgXhXhXjXjXhXhXhXhXfXgXgXgXfXgXgXgXgXnXnXnXnXhXhXhXhX).)././.L.] [ [ [ ~ ~ ~ ~ ~ ~ ~ ~ ~ 8 8 8 8 4 4 4 4 P P P P B.B.B.B.B.X.X.X.X.qXqXqXqX:X:X:X:X:XqXqXqXqXpXpXpXpXpXpXpXpXpXpXpXpXpXpXpXpXpXpXpXpXpXpXpXpXpXpXpXpXpXpXpXpXpXpXpXpXpXpXpXpXpXpXpXpXpXpXpXpXpXpXpXpXpXpXpXpXpXpXpXpXpXpXpXpXpXpXpXpXpXpXpXpXpXpXpXpXpXpXpXpXpXpXpXpXpXpXpXpXpXpXpXpXpXpXpXpXpXpXpXpXpXpXpXpXpXpXpXpXpXpXpXpXpXpXpXpXpXpXpXpXpXpXpXpXpXpXpXpXpXpXpX",
"7XtXtX;X;X;X;XC.K C.C.-X-X-X-X-X7X7X7X7XpXpXpXpX#X+X+X+X.X.X.X.X@XG G G G i.i.i.i.e.e.e.t.t.1.<.1.1.1.1.1.1.1.<.<.1.<.<.<.2.2.e.e.e.e.5.5.5.5.q.q.q.q.t.t.t.t.t.h h h h a.a.a.a./ / / / / Y Y Y Y T T T T V V V V ! ! ! ! !  . . . ._._._._.9 9 9 9 9 _._._._.lXlXlXlXGXGXGXGXGXGXGXGXGX).).).).] ] ] ] [ [ [ [ [ W W W W ) ) ) ) ] ] ] ] | | | -.-.gXgXgXgX).).).).gXgXgXfXfXfXgXgXgXhXhXjXjXhXhXhXhXfXgXgXfXfXgXgXgXgXnXnXnXnXhXhXhXhXL./././.L.] ] [ [ ~ ~ ~ ~ ~ ~ ~ ~ ~ 8 8 8 8 4 4 4 4 P P P P B.B.B.B.B.X.X.X.X.qXqXqXqX:X:X:X:X:XqXqXqXqXpXpXpXpXpXpXpXpXpXpXpXpXpXpXpXpXpXpXpXpXpXpXpXpXpXpXpXpXpXpXpXpXpXpXpXpXpXpXpXpXpXpXpXpXpXpXpXpXpXpXpXpXpXpXpXpXpXpXpXpXpXpXpXpXpXpXpXpXpXpXpXpXpXpXpXpXpXpXpXpXpXpXpXpXpXpXpXpXpXpXpXpXpXpXpXpXpXpXpXpXpXpXpXpXpXpXpXpXpXpXpXpXpXpXpXpXpXpXpXpXpXpXpXpXpXpXpXpXpXpXpX",
"7X7X7X;X;X;X;XC.C.C.C.-X-X-X-X-X7X7X7X7XpXpXpXpX%X%X+X+X.X.X.X.X.XG G G G i.i.i.i.e.e.e.e.e.1.1.1.1.<.<.<.<.<.<.1.1.<.2.<.<.<.5.e.5.5.5.7.7.7.q.q.q.q.t.t.t.t.t.h h h h a.a.f.f./ / / / / Y Y Y Y T T T T V V V V Z ! ! ! !  . . . ._._._._.9 9 9 9 9 _._._._.lXlXlXlXGXGXGXGXGXGXGXGXGX).).).).] ] ] ] [ [ [ [ [ W W W W ) ) ) ) ] ] ] ` -.-.-.-.-.gXgXgXgX).).).).fXfXfXfXgXgXgXgXgXhXhXhXhXhXhXhXhXfXfXfXfXfXgXgXgXgXnXnXnXnXgXgXgXhXL.L.L.L.).[ [ [ [ ~ ~ ~ ~ ~ ~ ~ ~ ~ 8 8 8 6 4 4 4 4 P P P P B.B.B.B.B.X.X.X.X.qXqXqX9X:X:X:X:X:XqXqXqXqXpXpXpXpXpXpXpXpXpXpXpXpXpXpXpXpXpXpXpXpXpXpXpXpXpXpXpXpXpXpXpXpXpXpXpXpXpXpXpXpXpXpXpXpXpXpXpXpXpXpXpXpXpXpXpXpXpXpXpXpXpXpXpXpXpXpXpXpXpXpXpXpXpXpXpXpXpXpXpXpXpXpXpXpXpXpXpXpXpXpXpXpXpXpXpXpXpXpXpXpXpXpXpXpXpXpXpXpXpXpXpXpXpXpXpXpXpXpXpXpXpXpXpXpXpXpXpXpXpXpXpX",
"qXqXqX$X$X$X$Xo.o.o.o.#.#.#.#.#.@X@X@X@XpXpXpXpX>X>X:X:XO.O.O.O.O.I I I I i.i.i.u.<.<.<.<.<.6.6.6.6.1.1.1.1.e.e.e.e.>.>.>.>.>.,.y y ,.r.r.r.r.h.h.h.h.7.7.7.7.7.y y y y y.y.y.y.Y Y Y N Y / / / / Y Y Y Y ~ ~ ~ ~ > > > > > -.-.-.-._._._._.6 6 6 6 6 `.`.`.`.cXcXcXzXGXGXGXGXFXFXFXFXFX| | | | | | | | } } } } | { { { { { { { { ~ ~ ~ ~ ] ] ] ] ] { { { { [ [ [ [ -.-.-.-.) ) ) ) ) -.-.-.-.L.L.L.L.L.;.;.;.L././././.).).).).;.;.;.-.{ { { { { } } } } ] ] ] ] [ [ [ [ [ Z Z Z Z 9 9 8 8 I I I I N.M.B.B.B.@X@X@X@X<X<X<X<XpXpXpXpXpX2X2X2X2XqXqXqXqXpXpXpXpXpXpXpXpXpXpXpXpXpXpXpXpXpXpXpXpXpXpXpXpXpXpXpXpXpXpXpXpXpXpXpXpXpXpXpXpXpXpXpXpXpXpXpXpXpXpXpXpXpXpXpXpXpXpXpXpXpXpXpXpXpXpXpXpXpXpXpXpXpXpXpXpXpXpXpXpXpXpXpXpXpXpXpXpXpXpXpXpXpXpXpXpXpXpXpXpXpXpXpXpXpXpXpXpXpXpXpXpXpXpXpXpXpXpXpXpXpXpXpXpXpXpXpX",
"qXqXqX$X$X$X$Xo.o.o.o.#.#.#.#.#.@X@X@X@XpXpXpXpX>X>X>X:XO.O.O.O.O.L I I I i.i.i.u.<.<.<.<.<.6.6.6.6.1.1.1.1.e.e.e.e.>.>.>.>.>.,.y y ,.r.r.r.r.h.h.h.h.7.7.7.7.7.y y y y y.y.y.y.Y Y Y Y Y ^ / / / Y Y Y Y ~ ~ ~ ~ > > > > > -.-.-.-._._._._.6 6 6 6 6 `.`.`.`.cXcXzXcXGXGXGXGXFXFXFXFXFX| | | | | | | | } } } } | { { { { { { { { ~ ~ ~ ~ ] ] ] ] ] { { { { [ [ [ [ -.-.-.-.) ) ) ) ) -.-.-.-.L.L.L.L.L.;.;.L.L././././.).).).).-.-.-.-.{ { { { { } } } } ] ] ] ] [ [ [ [ [ Z Z Z Z 9 9 8 8 I I I I B.N.B.B.M.@X@X@X@X<X<X<X<XpXpXpXpXpX2X2X<X<XqXqXqXqXpXpXpXpXpXpXpXpXpXpXpXpXpXpXpXpXpXpXpXpXpXpXpXpXpXpXpXpXpXpXpXpXpXpXpXpXpXpXpXpXpXpXpXpXpXpXpXpXpXpXpXpXpXpXpXpXpXpXpXpXpXpXpXpXpXpXpXpXpXpXpXpXpXpXpXpXpXpXpXpXpXpXpXpXpXpXpXpXpXpXpXpXpXpXpXpXpXpXpXpXpXpXpXpXpXpXpXpXpXpXpXpXpXpXpXpXpXpXpXpXpXpXpXpXpXpXpX",
"qXqXqX$X$X$X$Xo.o.o.o.#.#.#.#.#.@X@X@X@XpXpXpXpX>X>X:X:XO.O.O.O.O.L I I I i.i.i.u.<.<.<.<.<.6.6.6.6.1.1.1.1.e.e.e.e.>.>.>.>.>.,.,.,.,.r.r.r.r.h.h.h.h.7.7.7.7.7.,.y y y y.y.y.y.Y Y Y Y Y ^ / / / Y Y Y Y ) ~ ~ ~ > > > > > -.-.-.-._._._._.6 6 6 6 6 `.`.`.`.cXcXcXcXGXGXGXGXFXFXFXFXFX| | | | | | | | } } } } | { { { { { { { { ~ ~ ~ ~ ] ] ] ] ] { { { { [ [ [ [ -.-.-.-.) ) ) ) ) -.-.-.-.L.L.L.L.L.L.;.L.L././././.).).).).-.-.-.-.{ { { { { } } } } ] ] ] ] [ [ [ [ [ Z Z Z Z 9 9 8 8 I I I I B.N.B.B.B.@X@X@X@X<X<X<X<XpXpXpXpXpX2X2X2X<X9X9XqXqXpXpXpXpXpXpXpXpXpXpXpXpXpXpXpXpXpXpXpXpXpXpXpXpXpXpXpXpXpXpXpXpXpXpXpXpXpXpXpXpXpXpXpXpXpXpXpXpXpXpXpXpXpXpXpXpXpXpXpXpXpXpXpXpXpXpXpXpXpXpXpXpXpXpXpXpXpXpXpXpXpXpXpXpXpXpXpXpXpXpXpXpXpXpXpXpXpXpXpXpXpXpXpXpXpXpXpXpXpXpXpXpXpXpXpXpXpXpXpXpXpXpXpXpXpXpXpX",
"qXqXqX$X$X$X$Xo.o.P o.#.#.#.@.@.@X@X@X@XpXpXpXpX:X:X:X:XO.O.O.O.O.L L L L u.i.i.u.2.<.<.<.<.6.6.6.6.1.1.1.1.e.e.e.e.>.>.>.>.>.,.,.,.,.r.r.r.r.h.h.h.h.7.7.7.7.7.y y ,.,.y.y.y.y.Y Y Y N N / / / / Y Y Y Y ~ ~ ~ ~ > > > > > -.-.-.-._._._._.6 6 6 6 6 `.`.`.`.cXcXcXcXGXGXGXGXFXFXFXFXFX| | -.-.| | | | } | | | } { { { { { { { { ~ ) ) ) ] ] ] ` ` } } } } [ [ [ [ -.-.-.-.) ) ) ) ) -.-.-.-.;.;.L.L.L.L.;.L.L././././.).).).).-.-.-.;.{ { { { { } } } } ] ] ] ] [ [ [ [ [ Z Z V V 8 9 9 9 I I I I B.N.N.N.M.@X@X@X@X<X<X<X<XpXpXpXpXpX2X2X2X2XqXqXqXqXpXpXpXpXpXpXpXpXpXpXpXpXpXpXpXpXpXpXpXpXpXpXpXpXpXpXpXpXpXpXpXpXpXpXpXpXpXpXpXpXpXpXpXpXpXpXpXpXpXpXpXpXpXpXpXpXpXpXpXpXpXpXpXpXpXpXpXpXpXpXpXpXpXpXpXpXpXpXpXpXpXpXpXpXpXpXpXpXpXpXpXpXpXpXpXpXpXpXpXpXpXpXpXpXpXpXpXpXpXpXpXpXpXpXpXpXpXpXpXpXpXpXpXpXpXpXpX",
"wXwXwXqXqXqXqX<X<X<X<X%X%X%X%X%X:X:X:X:X%X%X%X%X5X5X5X5X+X+X@X@X+XO.O.O.O.K K K K M.M.M.M.M.<.<.<.<.<.<.1.1.>.>.>.>.4.8.4.4.4.>.>.>.>.p.p.p.p.q.q.q.q.a.a.a.a.a.z z z z y.y.y.y.N N N N N v N N N Y Y Y Y Y Y Y Y ~ ~ ~ ~ ~ } } } } `.`.`.`.V V V V V `.`.`.`.MXMXMXMXFXFXFXFXCXCXCXCXCX;.;.;.;.{ { { { ] ] ] ] ] / / / / R R V R N N N N N N B N N R R R R W W W W R R R R R R W W W R R R R W W W W ! ! ! ! ! R R R R V V V V R R R R ! ! ! ! W R W W W ] / / ] { { { &.{ ] ] ] ] 9 9 9 9 @.@.$.$.K.K.K.#.#.oXoXoXoX+X+X+X+XqXqXqXqXqX5X5X5X5XpXpXpXpXpXpXpXpXpXpXpXpXpXpXpXpXpXpXpXpXpXpXpXpXpXpXpXpXpXpXpXpXpXpXpXpXpXpXpXpXpXpXpXpXpXpXpXpXpXpXpXpXpXpXpXpXpXpXpXpXpXpXpXpXpXpXpXpXpXpXpXpXpXpXpXpXpXpXpXpXpXpXpXpXpXpXpXpXpXpXpXpXpXpXpXpXpXpXpXpXpXpXpXpXpXpXpXpXpXpXpXpXpXpXpXpXpXpXpXpXpXpXpXpXpXpXpXpXpXpXpX",
"wXwXwXqXqXqXqX<X<X<X<X&X%X%X%X%X:X:X:X:X%X%X%X%X5X5X5X5X+X+X@X@X+XO.O.O.O.K K K K M.M.M.M.M.<.<.<.<.<.<.1.1.>.>.>.>.4.4.8.8.4.>.>.>.>.p.p.p.p.q.q.q.q.a.a.a.a.a.z z z z y.y.y.y.N N Y Y N N N v N Y Y Y Y Y Y Y Y ~ ~ ~ ~ ~ } } } } `.`.`.`.V V V V V `.`.`.`.MXMXMXMXFXFXFXFXCXCXCXCXCX;.;.;.;.{ { { { ] ] ] ] ] / / / / R V V R N N N N N N N N N R R R R W W W R R R R R W W W W W R R R R W W W W ! ! ! ! ! R R R R V V V V R R R R W W ! ! W R R R W / / / ] { { { &.&.] ] ] ] 9 9 9 9 @.@.$.$.K.#.#.#.#.oXoXoXoX+X+X+X+XqXqXqXqXqX5X5X5X5XpXpXpXpXpXpXpXpXpXpXpXpXpXpXpXpXpXpXpXpXpXpXpXpXpXpXpXpXpXpXpXpXpXpXpXpXpXpXpXpXpXpXpXpXpXpXpXpXpXpXpXpXpXpXpXpXpXpXpXpXpXpXpXpXpXpXpXpXpXpXpXpXpXpXpXpXpXpXpXpXpXpXpXpXpXpXpXpXpXpXpXpXpXpXpXpXpXpXpXpXpXpXpXpXpXpXpXpXpXpXpXpXpXpXpXpXpXpXpXpXpXpXpXpXpXpXpXpXpXpXpX",
"wXwXwXqXqXqXqX<X<X<X<X&X%X%X%X%X:X:X:X:X%X%X%X%X5X5X5X5X.X+X@X@X+XO.O.O.O.K K K K M.M.M.M.M.<.<.<.<.<.<.1.1.>.>.>.>.4.4.4.4.4.>.>.>.>.p.p.p.p.q.q.q.q.a.a.a.a.a.z z z z 0.y.y.y.N Y Y Y N N v v N Y Y Y Y Y Y Y Y ~ ~ ~ ~ ~ } } } } `.`.`.`.V V V V V `.`.`.`.MXMXMXMXFXFXFXFXCXCXCXCXCX;.;.;.;.{ { { { ] ] ] ] ] / / / / R V V R N N N N N N N N N R R R R W W W R R R R R W W W W W R R R R W W W W ! ! ! ! ! R R R R V V V V R R R R W W ! ! W R R R R / / / / &.{ { { &.] ] ] ] 9 9 9 9 @.@.$.$.K.K.#.#.#.oXoXoXoX+X+X+X+XqXqXqXqXqX5X5X5X5XpXpXpXpXpXpXpXpXpXpXpXpXpXpXpXpXpXpXpXpXpXpXpXpXpXpXpXpXpXpXpXpXpXpXpXpXpXpXpXpXpXpXpXpXpXpXpXpXpXpXpXpXpXpXpXpXpXpXpXpXpXpXpXpXpXpXpXpXpXpXpXpXpXpXpXpXpXpXpXpXpXpXpXpXpXpXpXpXpXpXpXpXpXpXpXpXpXpXpXpXpXpXpXpXpXpXpXpXpXpXpXpXpXpXpXpXpXpXpXpXpXpXpXpXpXpXpXpXpXpXpX",
"wXwXwXqXqXqXqX<X<X<X<X%X%X%X%X%X:X:X:X:X%X%X%X%X5X5X5X5X+X@X@X@X@XO.O.O.O.K K K K M.M.M.M.M.1.1.<.<.<.<.<.<.>.>.>.>.4.4.4.4.4.>.>.>.>.p.p.p.t.q.q.q.q.a.a.a.a.a.z z z z 0.0.0.0.N Y N Y N N N N N Y Y Y Y Y Y Y Y ~ ~ ~ ~ ~ | } } } `.`.`.`.V V V V V `.`.`.`.MXMXMXMXFXFXFXFXCXCXCXCXCX;.;.;.;.{ { { { ] ] ] ] ] / / / / V V V V N N N N N N N N N R R R R W W R R R R R R W W W W W R R R R W W W W ! ! ! ! ! R W W W V V V V R R R R W W W W W R W R W ] / / / &.&.&.{ { ] ] ] ] 9 9 8 8 $.@.$.@.#.#.#.#.#.oXoXoXoX+X+X+X+XqXqXqXqXqX5X5X5X5XpXpXpXpXpXpXpXpXpXpXpXpXpXpXpXpXpXpXpXpXpXpXpXpXpXpXpXpXpXpXpXpXpXpXpXpXpXpXpXpXpXpXpXpXpXpXpXpXpXpXpXpXpXpXpXpXpXpXpXpXpXpXpXpXpXpXpXpXpXpXpXpXpXpXpXpXpXpXpXpXpXpXpXpXpXpXpXpXpXpXpXpXpXpXpXpXpXpXpXpXpXpXpXpXpXpXpXpXpXpXpXpXpXpXpXpXpXpXpXpXpXpXpXpXpXpXpXpXpXpXpX",
"<X<X>X9X9X9X9X<X<X<X<X-X:X:X:X:X+X+X+X+X>X>X>X>X-X-X-X-X.X.XXXXXXXJ J J J z z z z p.p.p.p.p.<.<.2.2.1.1.1.1.1.1.1.1.2.2.2.2.<.y y y f z z z z t.t.t.t.4.7.7.4.4.p.p.p.a.h.h.h.h.gXgXgXhXgXY Y Y Y N N N N Y Y Y Y v v v v v [ [ ] ] _._._._.! ! ! ! ! ;.;.;.;.MXMXMXMXVXCXCXCXVXVXVXVXVX{ { &.&./ / / /  . . . . .Z Z Z Z V C C V b b b b m m m b b b b m m b b b b b n b b b b b b b m m m m n b b b b b b b b m m b b b b b b M M M M m m M M M M M M M 9 9 9 9 N N N N N ~ ~ / / 2 3 1 1 P Z.Z.Z.1X1X1X1X1X|.|.|.|.pXpXpXpXpXpXpXpXpXqXqXqXqXpXpXpXpXpXpXpXpXpXpXpXpXpXpXpXpXpXpXpXpXpXpXpXpXpXpXpXpXpXpXpXpXpXpXpXpXpXpXpXpXpXpXpXpXpXpXpXpXpXpXpXpXpXpXpXpXpXpXpXpXpXpXpXpXpXpXpXpXpXpXpXpXpXpXpXpXpXpXpXpXpXpXpXpXpXpXpXpXpXpXpXpXpXpXpXpXpXpXpXpXpXpXpXpXpXpXpXpXpXpXpXpXpXpXpXpXpXpXpXpXpXpXpXpXpXpXpXpXpXpXpX",
">X>X>X9X9X9X9X<X<X<X<X-X:X:X:X-X+X+X+X+X>X>X>X>X-X-X-X-X.X.XXXXXXXK J J J z z z z p.p.p.p.p.2.2.2.2.1.1.1.1.1.1.1.1.2.2.<.<.<.y y y y u.z u.z t.t.t.t.4.7.4.4.4.p.p.a.a.h.h.h.h.gXgXgXgXgXY Y Y Y N N N N Y Y Y Y v v v v v ] ] ] ] _._._._.! ! ! ! ! ;.;.;.;.MXMXMXMXVXCXCXCXVXVXVXVXVX{ { { { / / / /  . . . . .Z Z Z Z V V V V b b b b m m m b b m m m m b b b b b b b b b b b b b m m m m n b b b b b b b b m b b b b b b b M M M M M M M M m M M M M 9 9 9 9 N N N N N / ~ / / 2 3 2 2 Z.Z.Z.Z.1X1X1X1X1X|.|.|.|.pXpXpXpXpXpXpXpXpXqXqXqXqXpXpXpXpXpXpXpXpXpXpXpXpXpXpXpXpXpXpXpXpXpXpXpXpXpXpXpXpXpXpXpXpXpXpXpXpXpXpXpXpXpXpXpXpXpXpXpXpXpXpXpXpXpXpXpXpXpXpXpXpXpXpXpXpXpXpXpXpXpXpXpXpXpXpXpXpXpXpXpXpXpXpXpXpXpXpXpXpXpXpXpXpXpXpXpXpXpXpXpXpXpXpXpXpXpXpXpXpXpXpXpXpXpXpXpXpXpXpXpXpXpXpXpXpXpXpXpXpXpXpXpX",
">X>X>X9X9X9X9X<X<X<X<X-X:X:X:X-X+X+X+X+X>X>X>X>X-X-X-X-XXXXXXXXX.XK J J J z z z z p.p.p.p.p.2.2.2.2.1.1.1.1.1.1.1.1.<.<.<.<.<.y y y y u.u.u.z t.t.t.t.4.4.4.4.4.p.p.a.a.h.h.h.h.gXgXgXgXgXY Y Y Y N N N N Y Y Y Y v v v v v ] ] ] ] _._._._.! ! ! ! ! ;.;.;.;.MXMXMXMXVXCXCXCXVXVXVXVXVX{ { { { / / / /  . . . . .Z Z Z Z V V V V b b b b m m m m m m m m m b b b b b b b b b b b b b m m m m b b b b b b b b b m m b b b b b b M M M M M M M M m M M M M 9 9 9 9 N N N N N / / / / 2 2 2 2 P Z.Z.Z.1X1X1X1X1X|.|.|.|.pXpXpXpXpXpXpXpXpXqXqXqXqXpXpXpXpXpXpXpXpXpXpXpXpXpXpXpXpXpXpXpXpXpXpXpXpXpXpXpXpXpXpXpXpXpXpXpXpXpXpXpXpXpXpXpXpXpXpXpXpXpXpXpXpXpXpXpXpXpXpXpXpXpXpXpXpXpXpXpXpXpXpXpXpXpXpXpXpXpXpXpXpXpXpXpXpXpXpXpXpXpXpXpXpXpXpXpXpXpXpXpXpXpXpXpXpXpXpXpXpXpXpXpXpXpXpXpXpXpXpXpXpXpXpXpXpXpXpXpXpXpXpXpX",
"<X<X<X9X9X9X9X<X<X<X<X:X:X:X-X-X+X+X+X+X>X>X>X>X-X-X-X-XXXXXXXXX.XK K K J z z z z p.p.p.p.p.2.2.<.<.1.1.1.1.1.1.1.1.2.<.<.<.<.y y y y z z z z t.t.t.t.4.4.4.4.4.a.a.a.a.h.h.h.h.hXhXhXhXgXY Y Y Y N N N N Y Y Y Y v v v v v ] ] ] ] _._._._.! ! ! ! ! ;.;.;.;.MXMXMXMXVXVXVXVXVXVXVXVXVX&.&.{ &./ / / /  . . . . .Z Z Z Z V V V C b b b b m m m m m m m m b b b b b b b b b b b b b b b b b b b b b b b b b b b m m m m b b b b M M M M M M m m m M M M M 9 9 9 9 N N N N N / / / / 3 3 3 3 Z.Z.Z.Z.1X1X1X>X1X|.|.|.|.pXpXpXpXpXpXpXpXpXqXqXqXqXpXpXpXpXpXpXpXpXpXpXpXpXpXpXpXpXpXpXpXpXpXpXpXpXpXpXpXpXpXpXpXpXpXpXpXpXpXpXpXpXpXpXpXpXpXpXpXpXpXpXpXpXpXpXpXpXpXpXpXpXpXpXpXpXpXpXpXpXpXpXpXpXpXpXpXpXpXpXpXpXpXpXpXpXpXpXpXpXpXpXpXpXpXpXpXpXpXpXpXpXpXpXpXpXpXpXpXpXpXpXpXpXpXpXpXpXpXpXpXpXpXpXpXpXpXpXpXpXpXpXpX",
"9X9X9XpXpXpXpX:X:X:X:X@X@X@X@X@X,X,X,X,XC.C.C.C.K K K K V.V.V.V.V.|.|.|.|.$.$.$.$.e.e.e.e.e.,.,.4.4.r.r.r.r.q.6.1.1.1.1.<.<.<.e.e.e.e.8.8.8.8.e.u.u.u.4.4.4.4.4.0.0.0.0.h.h.h.h.;.;.;.;.;.Y N Y Y e e e e Y Y Y Y v v v v v ~ ~ ~ ~ ;.;.;.;.6 6 6 6 6 | | | | cXcXcXcXnXnXnXnXVXAXAXAXAX:.:.:.:.{ { { { ' ' ' ' ' C C C C M M M M M M M M M M M M M b m m m b b m m m m b b b n n n b n b b b b b b b b b b m m M M M M M M M M M M M M M M M M M M M M M b b b b 8 8 8 8 8 / / / ! : : : : k k k k |.|.|.|.|.+X.X.X+X>X>X>X>XpXpXpXpXpX7X7X7X7XwXwXwXwXpXpXpXpXpXpXpXpXpXpXpXpXpXpXpXpXpXpXpXpXpXpXpXpXpXpXpXpXpXpXpXpXpXpXpXpXpXpXpXpXpXpXpXpXpXpXpXpXpXpXpXpXpXpXpXpXpXpXpXpXpXpXpXpXpXpXpXpXpXpXpXpXpXpXpXpXpXpXpXpXpXpXpXpXpXpXpXpXpXpXpXpXpXpXpXpXpXpXpXpXpXpXpXpXpXpXpXpXpXpXpXpXpXpXpXpXpXpXpXpXpXpXpXpXpXpXpX",
"9XqX9XpXpXpXpX:X:X:X:X@X@X@X@X@X,X,X,X,XC.C.C.C.K K K K V.V.V.V.V.|.|.|.|.$.$.$.@.e.e.e.e.e.>.>.4.4.r.r.r.r.1.6.1.6.1.1.<.<.<.e.e.e.e.8.8.8.8.u.u.u.u.4.4.4.4.4.0.0.0.0.h.h.h.h.;.;.;.;.;.Y Y N Y e e e e Y Y Y Y v v v v v ~ ~ ~ ~ ;.;.;.;.6 6 6 6 6 | | | | cXcXcXcXnXNXnXnXVXVXAXVXVX:.:.:.:.{ { { { ' ' ' ' ' C C C C M M M M M M M M M M M M M b b m m m m m m b m b b n n n n n n n n b b n b n m b m m m M M M M M M M M M M M M M M M M M M M M M b b b b 8 8 8 8 8 / / / ! : : : : k k k k +.|.|.|.|..X.X.X.X:X>X>X>XpXpXpXpXpX7X7X7X5XwXwXwXwXpXpXpXpXpXpXpXpXpXpXpXpXpXpXpXpXpXpXpXpXpXpXpXpXpXpXpXpXpXpXpXpXpXpXpXpXpXpXpXpXpXpXpXpXpXpXpXpXpXpXpXpXpXpXpXpXpXpXpXpXpXpXpXpXpXpXpXpXpXpXpXpXpXpXpXpXpXpXpXpXpXpXpXpXpXpXpXpXpXpXpXpXpXpXpXpXpXpXpXpXpXpXpXpXpXpXpXpXpXpXpXpXpXpXpXpXpXpXpXpXpXpXpXpXpXpXpX",
"9X9X9XpXpXpXpX:X:X:X:X@X@X@X@X@X,X,X,X,XC.C.C.C.K K K K V.V.V.V.V.|.|.|.|.$.$.$.@.e.e.e.e.e.>.>.4.4.r.r.r.r.1.1.6.6.1.1.<.<.<.e.e.e.e.8.8.8.8.u.u.u.u.4.4.4.4.4.0.0.0.0.h.h.h.h.;.;.;.;.;.N Y Y Y e e e e Y Y Y Y v v v v v ~ ~ ~ ~ ;.;.;.;.6 6 6 6 6 | | | | cXcXcXcXnXNXnXNXCXVXVXVXVX:.:.:.:.{ { { { ' ' ' ' ' C C C C M M M M M M M M M M M M M b b m m m m m m b b b b n n n n n n n n n b n n n m b m m m M M M M M M M M M M M M M M M M M M M M M b b b b 8 8 8 8 8 / / / / : : : : k k k k |.|.|.|.+..X.X.X.X:X>X>X>XpXpXpXpXpX7X7X7X5XwXwXwXwXpXpXpXpXpXpXpXpXpXpXpXpXpXpXpXpXpXpXpXpXpXpXpXpXpXpXpXpXpXpXpXpXpXpXpXpXpXpXpXpXpXpXpXpXpXpXpXpXpXpXpXpXpXpXpXpXpXpXpXpXpXpXpXpXpXpXpXpXpXpXpXpXpXpXpXpXpXpXpXpXpXpXpXpXpXpXpXpXpXpXpXpXpXpXpXpXpXpXpXpXpXpXpXpXpXpXpXpXpXpXpXpXpXpXpXpXpXpXpXpXpXpXpXpXpXpXpX",
"9X9X9XpXpXpXpX:X:X:X:X@X@X@X@X@X,X,X,X,XC.C.C.C.K K K K V.V.V.V.V.|.|.|.|.$.$.$.@.e.e.e.e.e.>.>.4.4.y.y.r.r.1.1.6.6.<.<.<.<.<.e.e.e.e.8.8.8.8.u.u.u.u.4.4.4.4.4.0.0.0.0.h.h.h.h.;.;.;.;.;.Y Y Y Y e e e e Y Y Y Y v v v v v ~ ~ ~ ~ ;.;.;.;.6 6 6 6 6 | | | | cXcXcXcXnXNXnXnXVXVXVXVXVX:.:.:.:.{ { { { ' ' ' ' ' C C C C M M M M M M M M M M M M M b b b m m m m b b m m m n n b n b b n n n n n n n m m m m m M M M M m m M M M M M M M M M M M M M M M b b b b 8 0 0 8 8 ! ! / / : : : ; k k k k |.|.|.|.|.@X+X+X+X>X>X>X>XpXpXpXpXpX7X7X5X5XwXwXwXwXpXpXpXpXpXpXpXpXpXpXpXpXpXpXpXpXpXpXpXpXpXpXpXpXpXpXpXpXpXpXpXpXpXpXpXpXpXpXpXpXpXpXpXpXpXpXpXpXpXpXpXpXpXpXpXpXpXpXpXpXpXpXpXpXpXpXpXpXpXpXpXpXpXpXpXpXpXpXpXpXpXpXpXpXpXpXpXpXpXpXpXpXpXpXpXpXpXpXpXpXpXpXpXpXpXpXpXpXpXpXpXpXpXpXpXpXpXpXpXpXpXpXpXpXpXpXpX",
"9X9X9XpXpXpXpX:X:X:X:X@X@X@X@X+X,X,X,X,XC.C.C.C.K K K K V.V.V.V.V.|.|.|.|.$.$.$.@.e.e.e.e.e.>.>.4.4.r.y.r.r.1.1.6.6.<.<.<.<.<.e.e.e.e.8.8.8.8.u.u.u.u.4.4.4.4.4.0.0.0.0.h.h.h.h.;.;.;.;.;.Y Y Y Y e e e e Y Y Y Y v v v v v ~ ~ ~ ~ ;.;.;.;.6 6 6 6 6 | | | | cXcXcXcXnXNXNXnXVXVXVXVXVX:.:.:.:.{ { { { ' ' ' ' ' C C C C M M M M M M M M M M M M M b b m m m m m b b b m m n n b b n b n n b n n n n m m m m m M M M M m m M M M M M M M M M M M M M M M b b b b 8 8 0 8 8 ! ! / / : : : ; g k k k |.|.|.|.|.@X+X+X+X>X>X>X>XpXpXpXpXpX7X7X7X7XwXwXwXwXpXpXpXpXpXpXpXpXpXpXpXpXpXpXpXpXpXpXpXpXpXpXpXpXpXpXpXpXpXpXpXpXpXpXpXpXpXpXpXpXpXpXpXpXpXpXpXpXpXpXpXpXpXpXpXpXpXpXpXpXpXpXpXpXpXpXpXpXpXpXpXpXpXpXpXpXpXpXpXpXpXpXpXpXpXpXpXpXpXpXpXpXpXpXpXpXpXpXpXpXpXpXpXpXpXpXpXpXpXpXpXpXpXpXpXpXpXpXpXpXpXpXpXpXpXpXpX",
"pXpXpXwXwXwXwX5X5X5X5XqXqXqXqXqX@X@X@X@XC.C.C.C.oXoXoXoXC.C.C.C.C.&X&X&X$XK K I K u.u.u.u.u.C.C.C.C.<.<.<.<.q.q.q.q.1.1.1.1.1.1.1.1.1.1.1.1.3.9.9.9.9.7.7.7.7.7.w.w.w.w.y.y.y.y.MXMXMXMXMX`.`.`.`.e e e e :.:.:.:.Y Y Y Y Y v v v v [ [ [ [ W W W W W ! ~ ~ ~ zXzXzXzX+ + + + + O O X X                 5 5 5 5 5 $ $ $ $ # # # # # # # # X X + + # + + + + X X X X X X + + X X X X + + + + + + X X X + # # X X X X X X + + + + + + + + + + + + + + + + + # # # # X X X X X                 #.#.#.#.#.#.#.#.#.uXuXuXuX9X9X9X9XpXpXpXpXpXpXpXpXpXpXpXpXpXpXpXpXpXpXpXpXpXpXpXpXpXpXpXpXpXpXpXpXpXpXpXpXpXpXpXpXpXpXpXpXpXpXpXpXpXpXpXpXpXpXpXpXpXpXpXpXpXpXpXpXpXpXpXpXpXpXpXpXpXpXpXpXpXpXpXpXpXpXpXpXpXpXpXpXpXpXpXpXpXpXpXpXpXpXpXpXpXpXpXpXpXpXpXpXpXpXpXpXpXpXpXpXpXpXpXpXpXpXpXpXpXpXpXpXpXpXpXpXpXpXpXpXpXpXpXpX",
"pXpXpXwXwXwXwX5X5X5X5XqXqXqXqXqX@X@X@X@XC.C.C.C.oXoXoXoXC.C.C.C.C.&X&X&X$XK K K K u.u.u.u.u.C.C.C.C.<.<.<.<.q.q.q.q.1.1.1.1.1.1.1.1.1.1.1.1.3.9.9.9.9.7.7.7.7.7.w.w.w.w.y.y.y.y.MXMXMXMXMX`.`.`.`.e e e e :.:.:.:.Y Y Y Y Y v v v v [ [ [ [ W W W W W ~ ~ ~ ~ zXzXzXzX+ + + + + X X X O                 5 5 5 5 5 $ $ $ $ # # # # # # # # X + + # # + + + + X X X X X X X X X X X X + + + + + + X X X + + + X X X X X X + + + + + + + + + + + + + + + + + # # # # X X X X X                 #.#.#.#.#.#.#.#.#.uXuXuXuX9X9X9X9XpXpXpXpXpXpXpXpXpXpXpXpXpXpXpXpXpXpXpXpXpXpXpXpXpXpXpXpXpXpXpXpXpXpXpXpXpXpXpXpXpXpXpXpXpXpXpXpXpXpXpXpXpXpXpXpXpXpXpXpXpXpXpXpXpXpXpXpXpXpXpXpXpXpXpXpXpXpXpXpXpXpXpXpXpXpXpXpXpXpXpXpXpXpXpXpXpXpXpXpXpXpXpXpXpXpXpXpXpXpXpXpXpXpXpXpXpXpXpXpXpXpXpXpXpXpXpXpXpXpXpXpXpXpXpXpXpXpXpXpX",
"pXpXpXwXwXwXwX5X5X5X5XqXqXqXqXqX@X@X@X@XV.V.C.C.OXOXOXOXC.C.C.C.V.&X$X$X&XI I L L u.u.u.u.u.C.C.C.C.<.<.<.<.q.q.q.q.1.1.1.1.1.1.1.1.1.1.1.1.1.9.9.9.9.7.7.7.9.7.w.w.w.w.y.y.y.y.MXMXMXMXMX`.`.`.`.e e e e :.:.:.:.Y Y Y Y Y v v e e [ [ [ [ W W W W W ~ ~ ~ ~ zXzXzXzXX X + + + + + O O                 5 5 5 5 5 $ $ % $ # # # # # # # # # # + # # + + # + + + X + + + X X X + + + X X X X X X # + + + + + + + + # + + + + + + + + + + + + + + + + + + + # # # # X X X X X                 #.#.#.#.#.#.#.#.#.uXuXuXuX9X9X9X9XpXpXpXpXpXpXpXpXpXpXpXpXpXpXpXpXpXpXpXpXpXpXpXpXpXpXpXpXpXpXpXpXpXpXpXpXpXpXpXpXpXpXpXpXpXpXpXpXpXpXpXpXpXpXpXpXpXpXpXpXpXpXpXpXpXpXpXpXpXpXpXpXpXpXpXpXpXpXpXpXpXpXpXpXpXpXpXpXpXpXpXpXpXpXpXpXpXpXpXpXpXpXpXpXpXpXpXpXpXpXpXpXpXpXpXpXpXpXpXpXpXpXpXpXpXpXpXpXpXpXpXpXpXpXpXpXpXpXpXpX",
"pXpXpXwXwXwXwX5X5X5X5XqXqXqXqXqX@X@X@X@XV.V.C.C.OXOXOXOXC.C.C.C.V.$X$X$X$XI I L L u.u.u.u.u.C.C.C.C.<.<.<.<.q.q.q.q.1.1.1.1.1.1.1.1.1.1.1.1.1.9.9.9.9.7.7.7.7.7.w.w.w.w.y.y.y.y.MXMXMXMXMX`.`.`.`.e e e e :.:.:.:.Y Y Y Y Y v v v v [ [ [ [ W W W W W ~ ~ ~ ~ zXzXzXzXX X + + + + + + +                 5 5 5 5 5 $ $ $ $ # # # # # # # # # # + # # + + + + + + + + # # X + + + + + X X X X + X + + + + X X + + # # + + + + + + + + + + + + + + + + + + + # # # # X X X X X                 #.#.#.#.#.#.#.#.$.7XuXuXuX9X9X9X9XpXpXpXpXpXpXpXpXpXpXpXpXpXpXpXpXpXpXpXpXpXpXpXpXpXpXpXpXpXpXpXpXpXpXpXpXpXpXpXpXpXpXpXpXpXpXpXpXpXpXpXpXpXpXpXpXpXpXpXpXpXpXpXpXpXpXpXpXpXpXpXpXpXpXpXpXpXpXpXpXpXpXpXpXpXpXpXpXpXpXpXpXpXpXpXpXpXpXpXpXpXpXpXpXpXpXpXpXpXpXpXpXpXpXpXpXpXpXpXpXpXpXpXpXpXpXpXpXpXpXpXpXpXpXpXpXpXpXpXpX",
"qXqXqXpXpXpXpX2X2X2X2X>X<X<X<X<X@X@X@X@Xo.o.o.o.#.#.oXoXJ.J.J.J.J.P I I I -X-X-X-X+.+.+.+.+.L L I I P K I I e.e.e.e.e.e.e.e.t.>.>.>.>.1.1.1.1.9.9.9.9.9.9.9.9.6.q.q.q.q././././.zXzXzXzXzXL.L.L.L.6 6 6 8 =.=.=.=.0 0 0 0 0 N N N N Y Y Y Y -. .;.;.;.W W W W _._._._.                                  5 5 2 2 5 $ $ $ $ + X + X X X X X X X X X X X X X X c c c c # # # # # $ $ $ # # $ $ $ $ $ $ # # # # # # c c c c $ $ $ $ 1 1 1 1 1 1 1 1 1 1 1 1 1 X X X X X X X X X                 tXtXtXtX-X-X%X-X-XqXqXqXqX:X>X>X>XpXpXpXpXpXpXpXpXpXpXpXpXpXpXpXpXpXpXpXpXpXpXpXpXpXpXpXpXpXpXpXpXpXpXpXpXpXpXpXpXpXpXpXpXpXpXpXpXpXpXpXpXpXpXpXpXpXpXpXpXpXpXpXpXpXpXpXpXpXpXpXpXpXpXpXpXpXpXpXpXpXpXpXpXpXpXpXpXpXpXpXpXpXpXpXpXpXpXpXpXpXpXpXpXpXpXpXpXpXpXpXpXpXpXpXpXpXpXpXpXpXpXpXpXpXpXpXpXpXpXpXpXpXpXpXpXpXpXpXpX",
"qXqXqXpXpXpXpX2X2X2X2X>X<X<X<X<X@X@X@X@Xo.o.o.o.#.#.#.#.J.J.J.J.J.o.I I I -X-X-X-X+.+.+.+.+.L L I I K K I I e.e.e.e.e.e.e.e.t.>.>.>.>.1.1.1.1.9.9.9.9.9.9.9.9.6.q.q.q.q././././.zXzXzXzXzXL.L.L.L.6 6 6 8 =.=.=.=.0 0 0 0 0 N N N N Y Y Y Y  . .;.;.;.W W W W _._._._.                                  2 2 2 2 5 $ $ $ $ X X + X X X X X X X X X X X X X X c c c c # # # # # $ $ $ $ # $ $ $ $ $ # # # # # # # c c c c $ $ $ $ 1 1 1 1 1 1 1 1 1 1 1 1 1 X X + X X X X X X                 tXtXtXtX-X-X%X%X-XqXqXqXqX>X>X>X>XpXpXpXpXpXpXpXpXpXpXpXpXpXpXpXpXpXpXpXpXpXpXpXpXpXpXpXpXpXpXpXpXpXpXpXpXpXpXpXpXpXpXpXpXpXpXpXpXpXpXpXpXpXpXpXpXpXpXpXpXpXpXpXpXpXpXpXpXpXpXpXpXpXpXpXpXpXpXpXpXpXpXpXpXpXpXpXpXpXpXpXpXpXpXpXpXpXpXpXpXpXpXpXpXpXpXpXpXpXpXpXpXpXpXpXpXpXpXpXpXpXpXpXpXpXpXpXpXpXpXpXpXpXpXpXpXpXpXpXpX",
"qXqXqXpXpXpXpX2X2X2X2X>X<X>X>X>X@X@X@X@Xo.o.o.o.#.#.OXoXJ.J.J.J.J.I I I I -X-X-X-X+.+.+.+.+.L L L L I I I I e.e.e.e.e.e.e.e.e.>.>.>.>.1.1.1.1.9.9.9.9.9.9.9.6.6.q.q.q.9././././.zXzXzXzXzXL.L.L.L.6 6 6 6 =.=.=.=.0 0 0 0 0 N N v N Y Y Y Y -.-.;. .-.W W W W _._._._.                                  5 5 5 5 5 $ $ $ $ X + + X X X X X X X X X X X X X X c c c c # # # # $ $ # # $ $ $ # # # # # # # # # # # c c c c $ $ $ $ 1 1 1 1 1 1 1 1 1 1 1 1 1 + + + X X X X X X                 tXtXtXtX-X-X-X-X-XqXqXqXqX>X>X>X>XpXpXpXpXpXpXpXpXpXpXpXpXpXpXpXpXpXpXpXpXpXpXpXpXpXpXpXpXpXpXpXpXpXpXpXpXpXpXpXpXpXpXpXpXpXpXpXpXpXpXpXpXpXpXpXpXpXpXpXpXpXpXpXpXpXpXpXpXpXpXpXpXpXpXpXpXpXpXpXpXpXpXpXpXpXpXpXpXpXpXpXpXpXpXpXpXpXpXpXpXpXpXpXpXpXpXpXpXpXpXpXpXpXpXpXpXpXpXpXpXpXpXpXpXpXpXpXpXpXpXpXpXpXpXpXpXpXpXpXpX",
"qXqXqXpXpXpXpX2X2X2X2X>X>X>X>X>X@X@X@X@Xo.o.o.o.#.#.OXOXJ.J.J.J.J.I I I I -X-X-X-X+.+.+.+.+.L L L L I I I I e.e.e.e.e.e.e.e.e.>.>.>.>.1.1.1.6.9.9.9.9.9.9.9.6.6.q.q.9.9././././.zXzXzXzXzXL.L.L.L.6 6 6 6 =.=.=.=.0 0 0 0 0 N N v v Y Y Y Y -.-. . .-.W W W W _._._._.                                  5 5 5 5 5 $ $ $ $ X + + X X X X X X X X X X X X X X c c c c # # # # $ $ $ # # $ $ $ # # $ $ # # # # # # c c c c $ $ $ $ 1 1 1 1 1 1 1 1 1 1 1 1 1 X + + X X X X X X                 tXtXtXtX-X-X-X-X-XqXqXqXqX>X>X>X>XpXpXpXpXpXpXpXpXpXpXpXpXpXpXpXpXpXpXpXpXpXpXpXpXpXpXpXpXpXpXpXpXpXpXpXpXpXpXpXpXpXpXpXpXpXpXpXpXpXpXpXpXpXpXpXpXpXpXpXpXpXpXpXpXpXpXpXpXpXpXpXpXpXpXpXpXpXpXpXpXpXpXpXpXpXpXpXpXpXpXpXpXpXpXpXpXpXpXpXpXpXpXpXpXpXpXpXpXpXpXpXpXpXpXpXpXpXpXpXpXpXpXpXpXpXpXpXpXpXpXpXpXpXpXpXpXpXpXpXpX",
"wXwXwXqXqXqXqXpXpXpXpXpXpXpXpXpX%X%X%X%XuXuXuXuX XXXXXXX&X$X$X$X&X@X@X@X@X9X9X9X9X5X4X4X5X5X<X<X<X<XXXXXXXXXH G H H z z z z z >.>.>.>.9.9.9.9.6.6.6.6.s.s.s.s.s.w.w.w.w.lXlXlXlX' ' ' ' ' ) ) ) ) ;.;.;.;.5 5 5 5 Y Y Y Y Y T T T T N N N N  . . . . .6 6 6 6 W W W W                                   5 5 5 5 5 $ $ $ $ Q Q ^ Q 0 0 0 0 0 0 0 0 0 8 8 8 8 2 2 2 2 !.!.Q.Q.=.=.=.=.=.8 7 7 7 0 0 0 0 8 8 8 8 8 # # # # E.E.E.E.=.=.*.*.8 8 7 8 8 8 8 8 8 0 0 0 0 . . X . .                 8X8X8X8X7X7X7X7X7X>X>X>X>X7X7X7X7X9X9X9X9X9XwXwXwXwXpXpXpXpXpXpXpXpXpXpXpXpXpXpXpXpXpXpXpXpXpXpXpXpXpXpXpXpXpXpXpXpXpXpXpXpXpXpXpXpXpXpXpXpXpXpXpXpXpXpXpXpXpXpXpXpXpXpXpXpXpXpXpXpXpXpXpXpXpXpXpXpXpXpXpXpXpXpXpXpXpXpXpXpXpXpXpXpXpXpXpXpXpXpXpXpXpXpXpXpXpXpXpXpXpXpXpXpXpXpXpXpXpXpXpXpXpXpXpXpXpXpXpXpXpXpXpXpXpXpXpX",
"wXwXwXqXqXqXqXpXpXpXpXpXpXpXpXpX%X%X%X%XuXuXuXuX X XXXXX$X$X$X$X&X@X@X@X@X9X9X9X9X5XrX4X5X5X<X<X<X<X.XXXXXXXH H H H z z z z z >.>.>.>.9.9.9.9.6.6.6.6.s.s.s.s.0.w.w.w.w.lXlXlXlX' ' ' ' ' ) ) ) ) ;.;.;.;.5 5 5 5 Y Y Y Y Y T T T T N N N N  . . . . .6 6 6 6 W W W W                                   5 5 5 5 5 $ $ $ $ Q Q Q Q 0 0 0 0 0 0 0 0 0 8 8 8 8 2 2 2 2 !.!.Q.Q.=.=.=.=.=.7 7 7 7 0 0 0 0 8 8 8 8 8 # # # # E.E.E.E.=.=.*.*.8 8 8 8 8 8 8 8 8 0 0 0 0 . . . . .                 8X8X8X8X7X7X7X7X7X>X>X>X>X7X7X7X7X9X9X9X9X9XwXwXwXwXpXpXpXpXpXpXpXpXpXpXpXpXpXpXpXpXpXpXpXpXpXpXpXpXpXpXpXpXpXpXpXpXpXpXpXpXpXpXpXpXpXpXpXpXpXpXpXpXpXpXpXpXpXpXpXpXpXpXpXpXpXpXpXpXpXpXpXpXpXpXpXpXpXpXpXpXpXpXpXpXpXpXpXpXpXpXpXpXpXpXpXpXpXpXpXpXpXpXpXpXpXpXpXpXpXpXpXpXpXpXpXpXpXpXpXpXpXpXpXpXpXpXpXpXpXpXpXpXpXpXpX",
"wXwXwXqXqXqXqXpXpXpXpXpXpXpXpXpX%X%X%X%XuXuXuXuXXXXX X X@X+X%X%X&X$X@X@X@X9X9X9XqX5X5X5X5X4X<X<X<X<XXXXXXXXXH H H H z z z z z >.>.>.>.9.9.7.9.6.6.6.q.0.y.y.y.y.w.w.w.w.zXzXzXzX' ' ' ' ' ~ ) ) ) ;.;.;.;.7 5 5 5 Y Y Y Y Y T T T T v v v v  . . . . .6 6 6 6 W W W W                                   5 5 5 5 5 $ $ $ $ Q Q Q Q 0 0 0 0 0 0 0 8 8 8 8 8 8 2 2 4 4 Q.Q.!.!.=.=.=.=.=.8 8 8 8 0 0 0 0 8 8 8 8 8 # # # # E.E.E.E.=.=.*.*.8 8 8 0 8 8 8 8 8 0 0 0 0 . . . X X                 8X8X8X8X7X7X7X7X7X>X>X>X>X7X7X7X7X9X9X9X9X9XwXwXwXwXpXpXpXpXpXpXpXpXpXpXpXpXpXpXpXpXpXpXpXpXpXpXpXpXpXpXpXpXpXpXpXpXpXpXpXpXpXpXpXpXpXpXpXpXpXpXpXpXpXpXpXpXpXpXpXpXpXpXpXpXpXpXpXpXpXpXpXpXpXpXpXpXpXpXpXpXpXpXpXpXpXpXpXpXpXpXpXpXpXpXpXpXpXpXpXpXpXpXpXpXpXpXpXpXpXpXpXpXpXpXpXpXpXpXpXpXpXpXpXpXpXpXpXpXpXpXpXpXpXpXpX",
"wXwXwXqXqXqXqXpXpXpXpXpXpXpXpXpX%X%X%X%XuXuXuXuXXXXXXX X@X+X%X%X&X$X@X@X@X9XqXqXqX5X5X5X5X5X<X<X<X<XXXXXXXXXH H H H z z z z z >.>.>.>.9.9.7.9.6.6.6.6.0.y.y.y.s.w.w.s.s.zXzXzXzX' ' ' ' ' ~ ) ) ) ;.;.;.;.5 5 5 7 Y Y Y Y Y T T T T v v v v  . . . . .6 6 6 6 W W W W                                   5 5 5 5 5 $ $ $ $ Q Q Q Q 0 0 0 0 0 8 0 8 8 8 8 8 8 2 2 2 4 Q.Q.!.!.=.=.=.=.=.0 8 8 8 0 0 0 0 8 8 8 8 8 # # # # E.E.E.E.=.=.*.*.8 8 8 8 8 8 8 8 8 0 0 0 0 . . . X X                 8X8X8X8X7X7X7X7X7X>X>X>X>X7X7X7X7X9X9X9X9X9XwXwXwXwXpXpXpXpXpXpXpXpXpXpXpXpXpXpXpXpXpXpXpXpXpXpXpXpXpXpXpXpXpXpXpXpXpXpXpXpXpXpXpXpXpXpXpXpXpXpXpXpXpXpXpXpXpXpXpXpXpXpXpXpXpXpXpXpXpXpXpXpXpXpXpXpXpXpXpXpXpXpXpXpXpXpXpXpXpXpXpXpXpXpXpXpXpXpXpXpXpXpXpXpXpXpXpXpXpXpXpXpXpXpXpXpXpXpXpXpXpXpXpXpXpXpXpXpXpXpXpXpXpXpXpX",
"wXwXwXqXqXqXqXpXpXpXpXpXpXpXpXpX%X%X%X%XuXuXuXuXXX X X X@X@X%X&X&X@X@X@X+XqXqX9XqX5X5X5X4X2X<X<X<X<XXXXXXXXXH H H H z z z z z >.>.>.>.9.7.7.7.6.6.6.6.0.s.0.s.s.w.w.s.s.zXzXzXzX' ' ' ' ' ) ) ) ) ;.;.;.;.8 5 5 7 Y Y Y Y Y T T T T N N N N  . . . . .6 6 6 6 W W W W                                   5 5 5 5 5 $ $ $ $ Q Q Q Q 0 8 0 8 8 0 8 0 0 8 8 8 8 2 2 2 2 !.Q.E.E.=.=.=.=.=.8 8 8 8 0 0 0 0 8 8 8 8 8 # # # # E.E.E.E.=.=.=.*.8 8 8 0 8 8 8 8 8 0 0 0 0 X . . . .                 8X8X9X9X7X7X7X7X7X>X>X>X>X7X7X7X7X9X9X9X9X9XwXwXwXwXpXpXpXpXpXpXpXpXpXpXpXpXpXpXpXpXpXpXpXpXpXpXpXpXpXpXpXpXpXpXpXpXpXpXpXpXpXpXpXpXpXpXpXpXpXpXpXpXpXpXpXpXpXpXpXpXpXpXpXpXpXpXpXpXpXpXpXpXpXpXpXpXpXpXpXpXpXpXpXpXpXpXpXpXpXpXpXpXpXpXpXpXpXpXpXpXpXpXpXpXpXpXpXpXpXpXpXpXpXpXpXpXpXpXpXpXpXpXpXpXpXpXpXpXpXpXpXpXpXpXpX",
"pXpXpXpXpXpXpX9XqXqX9X5X5X5X5X5XpXpXpXpX9X9X9X9X:X:X:X:X4X2X5XrXrX5X5X5X5X#X#X#X#X<X<X<X<X<X7X7X7X7X+X+X@X@XI I P I i.i.i.i.i.,.,.,.,.r.r.r.r.1.1.1.1.<.<.<.1.1.1.1.1.1.E E E E b g g g g ! ! ! ! } } } } 6 6 3 3 / / / ^ ^ $ $ $ $ Y Y Y Y v v v v v ! ! ! ! @ @ @ @                                   5 5 5 5 5 w w w w 5 5 5 5 e e e e 0 0 0 0 0 0 0 0 0 2 2 2 2 2 2 2 2 R.R.R.R.R.T T T T q q q q 0 0 0 0 0 5 5 5 5 # # # # T.T.T.T.Q Q Q Q Q q q q q 0 0 0 0 # # # # #         =X=X=X=X>X>X>X>X:X:X:X:X:X9X9X9X9XwXwXwXwXwXwXwXwXwXpXpXpXpXpXpXpXpXpXpXpXpXpXpXpXpXpXpXpXpXpXpXpXpXpXpXpXpXpXpXpXpXpXpXpXpXpXpXpXpXpXpXpXpXpXpXpXpXpXpXpXpXpXpXpXpXpXpXpXpXpXpXpXpXpXpXpXpXpXpXpXpXpXpXpXpXpXpXpXpXpXpXpXpXpXpXpXpXpXpXpXpXpXpXpXpXpXpXpXpXpXpXpXpXpXpXpXpXpXpXpXpXpXpXpXpXpXpXpXpXpXpXpXpXpXpXpXpXpXpXpXpXpXpXpX",
"pXpXpXpXpXpXpX9X9X9X9X5X5X5X5X5XpXpXpXpX9X9X9X9X:X:X:X:XrXrXrXrXrX5X5X5X5X#X#X#X#X<X<X<X<X<X7X7X7X7X+X+X@X@XI I I I i.i.i.i.i.,.,.,.,.r.r.r.r.1.1.1.1.<.1.1.1.1.1.1.1.1.E E E E g g b g b ! ! ! ! } } } } 6 3 3 3 ^ ^ ^ ^ ^ $ $ $ $ Y Y Y Y v v v v v ! ! ! ! @ @ @ @                                   5 5 5 5 5 w w w w 5 5 5 5 e e e e 0 0 0 0 0 0 0 8 0 2 2 2 2 3 3 2 2 R.R.R.R.R.T T T T q q q q 0 0 0 8 8 5 5 5 5 # # # # T.T.T.T.E E E Q Q q q q q 0 0 0 0 # # # # #         =X=X=X=X>X>X>X>X:X:X:X:X:X9X9X9X9XwXwXwXwXwXwXwXwXwXpXpXpXpXpXpXpXpXpXpXpXpXpXpXpXpXpXpXpXpXpXpXpXpXpXpXpXpXpXpXpXpXpXpXpXpXpXpXpXpXpXpXpXpXpXpXpXpXpXpXpXpXpXpXpXpXpXpXpXpXpXpXpXpXpXpXpXpXpXpXpXpXpXpXpXpXpXpXpXpXpXpXpXpXpXpXpXpXpXpXpXpXpXpXpXpXpXpXpXpXpXpXpXpXpXpXpXpXpXpXpXpXpXpXpXpXpXpXpXpXpXpXpXpXpXpXpXpXpXpXpXpXpXpXpX",
"pXpXpXpXpXpXpX9X9X9X9X5X5X5X5X5XpXpXpXpX9X9X9X9X:X:X:X:X4X4XrXrXrX5X5X5X5X#X#X#X#X<X<X<X<X<X7X7X7X7X+X+X@X@XI I I I i.i.i.i.p.,.,.,.,.r.r.r.r.1.1.1.1.<.1.1.1.1.1.1.1.1.E E Q Q g g b b b ! ! ! ! } } } } 6 3 3 3 ^ ^ ^ ^ ^ $ $ $ $ Y Y Y Y v v v v v ! ! ! ! @ @ @ @                                   5 5 5 5 5 w w w w 5 5 5 5 e e e e 0 0 0 0 0 0 0 8 0 2 2 2 2 2 2 2 2 R.R.R.R.R.T T T T q q q q 0 0 0 8 8 5 5 5 5 # # # # T.T.T.T.E E Q Q Q q q q q 0 0 0 0 # # # # #         =X=X=X=X>X>X>X>X:X:X:X:X:X9X9X9X9XwXwXwXwXwXwXwXwXwXpXpXpXpXpXpXpXpXpXpXpXpXpXpXpXpXpXpXpXpXpXpXpXpXpXpXpXpXpXpXpXpXpXpXpXpXpXpXpXpXpXpXpXpXpXpXpXpXpXpXpXpXpXpXpXpXpXpXpXpXpXpXpXpXpXpXpXpXpXpXpXpXpXpXpXpXpXpXpXpXpXpXpXpXpXpXpXpXpXpXpXpXpXpXpXpXpXpXpXpXpXpXpXpXpXpXpXpXpXpXpXpXpXpXpXpXpXpXpXpXpXpXpXpXpXpXpXpXpXpXpXpXpXpXpX",
"pXpXpXpXpXpXpX9X9X9X9X5X5X5X5X5XpXpXpXpX9X9X9X9X:X:X:X:X4X4X4X4XrX5X5X5X5X#X#X#X#X<X<X<X<X<X7X7X7X7X+X@X@X@XI I I I i.i.p.p.p.,.>.>.,.r.r.r.r.1.1.1.1.<.1.1.1.1.1.1.1.1.Q Q Q Q b b b b b ! ! ! ! } } } } 6 3 3 3 / ^ ^ ^ ^ $ $ $ $ Y Y Y Y v v v v v ! ! ! ! @ @ @ @                                   5 5 5 5 5 w w w w 5 5 5 5 e e e e 0 0 0 0 0 8 8 0 8 2 2 2 2 2 2 2 2 T.T.R.R.R.T T T T q q q q 0 0 0 8 8 2 2 5 5 # # # # T.T.T.T.Q Q Q Q Q q q q q 8 0 0 0 # # # # #         =X=X=X=X>X>X>X>X:X:X:X:X:X9X9X9X9XwXwXwXwXwXwXwXwXwXpXpXpXpXpXpXpXpXpXpXpXpXpXpXpXpXpXpXpXpXpXpXpXpXpXpXpXpXpXpXpXpXpXpXpXpXpXpXpXpXpXpXpXpXpXpXpXpXpXpXpXpXpXpXpXpXpXpXpXpXpXpXpXpXpXpXpXpXpXpXpXpXpXpXpXpXpXpXpXpXpXpXpXpXpXpXpXpXpXpXpXpXpXpXpXpXpXpXpXpXpXpXpXpXpXpXpXpXpXpXpXpXpXpXpXpXpXpXpXpXpXpXpXpXpXpXpXpXpXpXpXpXpXpXpX",
"pXpXpXwXwXwXwX9X9X9X8XpXpXpXpXpX9X9X9X9XpXpXpXpX5X5X5X2X5X5X5X5X5XpXpXpXpX<X<X<X<X<X<X<X<X<XpXpXpXpX@X@X@X@X$.$.$.$.e.e.e.e.e.e.e.e.e.7.7.7.7.6.6.6.6.e.e.e.e.e.<.<.<.<.Y Y Y Y V V V V V Z Z Z Z 9 9 9 9 ] ] ] ] @ @ @ @ @ . . . . 2 2 2 2 Y Y Y Y Y R R R R 6 6 6 6                                   5 5 5 5 5 Y Y Y Y ; ; ; ; =.=.=.=.5 5 5 5 5 5 5 5 5 7 7 7 7 2 2 1 1 @ @ @ @ @ ( ( ( ( N N N N 0 0 0 0 0 0 0 0 0 5 5 5 5 # # # # _ _ _ _ _ w w w w 2 2 2 2 5 5 5 5 5                 F F F F pXpXpXpXpXpXpXpXpXpXpXpXpXpXpXpXpXpXpXpXpXpXpXpXpXpXpXpXpXpXpXpXpXpXpXpXpXpXpXpXpXpXpXpXpXpXpXpXpXpXpXpXpXpXpXpXpXpXpXpXpXpXpXpXpXpXpXpXpXpXpXpXpXpXpXpXpXpXpXpXpXpXpXpXpXpXpXpXpXpXpXpXpXpXpXpXpXpXpXpXpXpXpXpXpXpXpXpXpXpXpXpXpXpXpXpXpXpXpXpXpXpXpXpXpXpXpXpXpXpXpXpXpXpXpXpXpXpXpXpXpXpXpXpXpXpXpXpXpXpXpXpXpX",
"pXpXpXwXwXwXwX9X9X9X9XpXpXpXpXpX9X9X9XqXpXpXpXpX5X5X4X4X5X5X5X5X5XpXpXpXpX<X2X2X2X<X<X<X<X<XpXpXpXpX@X@X@X@X$.$.$.$.e.e.e.e.e.e.e.e.e.7.7.7.7.6.6.6.6.e.e.e.e.e.<.<.<.<.Y Y Y Y V V V V V Z Z Z Z 9 9 g 9 ` ] ] ] @ @ @ @ @ . . . . 2 2 2 2 Y Y Y Y Y T T T R 6 6 6 6                                   5 5 5 5 5 Y Y Y Y % % % % =.=.=.=.5 5 5 5 5 5 5 5 5 7 7 7 7 2 2 2 1 @ @ @ @ @ _ _ _ _ Y Y Y N 0 0 0 0 0 0 0 0 0 5 5 5 5 + + + + _ _ _ _ _ w w w w 2 2 2 2 5 5 5 7 7                 F F F F wXwXwXpXpXpXpXpXpXpXpXpXpXpXpXpXpXpXpXpXpXpXpXpXpXpXpXpXpXpXpXpXpXpXpXpXpXpXpXpXpXpXpXpXpXpXpXpXpXpXpXpXpXpXpXpXpXpXpXpXpXpXpXpXpXpXpXpXpXpXpXpXpXpXpXpXpXpXpXpXpXpXpXpXpXpXpXpXpXpXpXpXpXpXpXpXpXpXpXpXpXpXpXpXpXpXpXpXpXpXpXpXpXpXpXpXpXpXpXpXpXpXpXpXpXpXpXpXpXpXpXpXpXpXpXpXpXpXpXpXpXpXpXpXpXpXpXpXpXpXpXpXpX",
"pXpXpXwXwXwXwX9X9X9X9XpXpXpXpXpX9X9X9X9XpXpXpXpX5X5X4X4X5X5X5X5X5XpXpXpXpX<X<X<X2X<X<X<X<X<XpXpXpXpX@X@X@X@X$.$.$.$.e.e.e.e.e.e.e.e.e.7.7.7.7.6.6.6.6.e.e.e.e.e.<.<.<.<.Y Y Y Y V V V V V Z Z Z Z 9 9 9 g ` ] ] ] @ @ @ @ @ . . . . 2 2 2 2 Y Y Y Y Y R T T R 6 6 6 6                                   5 5 5 5 5 Y Y Y Y % % % % =.=.=.=.5 5 5 5 5 5 5 5 5 7 7 7 7 2 2 2 1 @ @ @ @ @ _ _ _ _ Y Y Y N 0 0 0 0 0 0 0 0 0 5 5 5 5 + + + + _ _ _ _ _ w w w w 2 2 2 2 7 5 5 7 7                 F F F F wXwXwXpXpXpXpXpXpXpXpXpXpXpXpXpXpXpXpXpXpXpXpXpXpXpXpXpXpXpXpXpXpXpXpXpXpXpXpXpXpXpXpXpXpXpXpXpXpXpXpXpXpXpXpXpXpXpXpXpXpXpXpXpXpXpXpXpXpXpXpXpXpXpXpXpXpXpXpXpXpXpXpXpXpXpXpXpXpXpXpXpXpXpXpXpXpXpXpXpXpXpXpXpXpXpXpXpXpXpXpXpXpXpXpXpXpXpXpXpXpXpXpXpXpXpXpXpXpXpXpXpXpXpXpXpXpXpXpXpXpXpXpXpXpXpXpXpXpXpXpXpXpX",
"pXpXpXwXwXwXwX9X9X9X9XpXpXpXpXpXqX9X9XqXpXpXpXpX5X5X5X5X5X5X5X5X5XpXpXpXpX<X<X<X<X<X<X<X<X<XpXpXpXpX@X@X.X.X$.$.$.$.e.e.e.e.e.e.e.e.e.7.r.r.7.6.6.6.6.e.e.e.e.e.<.<.<.<.Y Y Y Y V V V V V ) Z Z Z 9 9 9 g ] ] ] ] @ @ @ @ @ . . . . 2 2 2 2 Y Y Y Y Y R T T T 6 6 6 6                                   5 5 5 5 5 Y Y Y Y % % % % =.=.=.=.5 5 5 5 5 5 5 5 5 5 5 7 7 2 2 2 1 @ @ @ @ @ _ _ _ _ Y Y N N 0 0 0 0 0 0 0 0 0 5 5 5 5 # # + + _ _ _ _ _ w w w e 2 2 2 2 5 5 5 7 5                 F F F F wXwXpXpXpXpXpXpXpXpXpXpXpXpXpXpXpXpXpXpXpXpXpXpXpXpXpXpXpXpXpXpXpXpXpXpXpXpXpXpXpXpXpXpXpXpXpXpXpXpXpXpXpXpXpXpXpXpXpXpXpXpXpXpXpXpXpXpXpXpXpXpXpXpXpXpXpXpXpXpXpXpXpXpXpXpXpXpXpXpXpXpXpXpXpXpXpXpXpXpXpXpXpXpXpXpXpXpXpXpXpXpXpXpXpXpXpXpXpXpXpXpXpXpXpXpXpXpXpXpXpXpXpXpXpXpXpXpXpXpXpXpXpXpXpXpXpXpXpXpXpXpXpX",
"pXpXpXpXpXpXpXpXpXpXpX9X9X9X9X9XpXpXpXpXpXpXpXpXpXpXpXpX7X7X7X7X7X7X7X7X7XpXpXpXpX7X7X7X7X7X7X7X7X7X+X+X+X+X X X X XB.B.B.B.B.r.r.r.r.2.<.<.<.q.q.q.q.>.>.>.>.>.z z z z =.=.=.=.zXzXzXzXcX% % % % 6 6 6 9 [ [ [ [ Z Z Z Z Z . . . . / / / / v v v v v ; ; ; ; $ $ $ $                                   2 2 2 2 2 q q q q ; ; ; ; - - - - c c c c c Y.Y.Y.Y.Y.Y.Y.Y.Y.Y.Y.Y.R.R.R.R.R.R.R.R.R.W.W.W.W.W.W.W.W.W.!.!.!.!.E.E.E.E.T.T.T.T.T.T.T.T.T.Y.Y.Y.Y.c c c c # # # # # # # # #                 # # # # # wXqXqXqXpXpXpXpXpXpXpXpXpXpXpXpXpXpXpXpXpXpXpXpXpXpXpXpXpXpXpXpXpXpXpXpXpXpXpXpXpXpXpXpXpXpXpXpXpXpXpXpXpXpXpXpXpXpXpXpXpXpXpXpXpXpXpXpXpXpXpXpXpXpXpXpXpXpXpXpXpXpXpXpXpXpXpXpXpXpXpXpXpXpXpXpXpXpXpXpXpXpXpXpXpXpXpXpXpXpXpXpXpXpXpXpXpXpXpXpXpXpXpXpXpXpXpXpXpXpXpXpXpXpXpXpXpXpXpXpXpXpXpXpXpXpXpXpX",
"pXpXpXpXpXpXpXpXpXpXpX9X9X9X9X9XpXpXpXpXpXpXpXpXpXpXpXpX7X7X7X7X7X7X7X7X7XpXpXpXpX7X7X7X7X7X7X7X7X7X+X+X+X+X X X X XB.B.B.B.B.r.r.r.r.<.<.<.<.q.q.q.q.>.>.>.>.>.z z z z =.=.=.=.zXzXzXzXcX: : : % 6 6 6 6 [ [ [ [ Z Z Z Z Z . . . . / / / / e v v v v ; ; ; ; $ $ $ $                                   2 2 2 2 2 q q q q 1 1 : ; - - - - c c c c c Y.Y.Y.Y.Y.Y.Y.Y.Y.Y.Y.Y.R.R.R.R.R.R.R.R.R.W.W.W.W.W.W.W.W.W.W.W.W.!.E.E.E.E.T.T.T.T.T.T.T.T.T.Y.Y.Y.Y.c c c c # # # # # # # # #             . . # # # # # wXqXqXqXpXpXpXpXpXpXpXpXpXpXpXpXpXpXpXpXpXpXpXpXpXpXpXpXpXpXpXpXpXpXpXpXpXpXpXpXpXpXpXpXpXpXpXpXpXpXpXpXpXpXpXpXpXpXpXpXpXpXpXpXpXpXpXpXpXpXpXpXpXpXpXpXpXpXpXpXpXpXpXpXpXpXpXpXpXpXpXpXpXpXpXpXpXpXpXpXpXpXpXpXpXpXpXpXpXpXpXpXpXpXpXpXpXpXpXpXpXpXpXpXpXpXpXpXpXpXpXpXpXpXpXpXpXpXpXpXpXpXpXpXpXpXpXpX",
"pXpXpXpXpXpXpXpXpXpXpX9X9X9X9X9XpXpXpXpXpXpXpXpXpXpXpXpX7X7X7X7X7X7X7X7X7XpXpXpXpX7X7X7X7X7X7X7X7X7X+X+X+X+X X X X XB.B.B.B.B.r.r.r.r.1.<.<.<.q.q.q.q.>.>.>.>.>.z z z z =.=.=.=.zXzXzXzXcX: % : % 6 6 6 6 [ [ [ [ Z Z Z Z Z . . . . / / / / v v v v v ; ; ; ; $ $ $ $                                   2 2 2 2 2 q q q q 1 : : ; - - - - c c c c c Y.Y.Y.Y.Y.Y.Y.Y.Y.Y.Y.Y.R.R.R.R.R.R.R.R.R.W.W.W.W.W.W.W.!.!.W.W.!.!.W.E.E.E.T.T.T.T.T.T.T.T.T.Y.Y.Y.Y.c c c c # # # # # # # # #             . . # # # # # wXqXqXqXpXpXpXpXpXpXpXpXpXpXpXpXpXpXpXpXpXpXpXpXpXpXpXpXpXpXpXpXpXpXpXpXpXpXpXpXpXpXpXpXpXpXpXpXpXpXpXpXpXpXpXpXpXpXpXpXpXpXpXpXpXpXpXpXpXpXpXpXpXpXpXpXpXpXpXpXpXpXpXpXpXpXpXpXpXpXpXpXpXpXpXpXpXpXpXpXpXpXpXpXpXpXpXpXpXpXpXpXpXpXpXpXpXpXpXpXpXpXpXpXpXpXpXpXpXpXpXpXpXpXpXpXpXpXpXpXpXpXpXpXpXpXpXpX",
"pXpXpXpXpXpXpXpXpXpXpXqX9X9X9X9XpXpXpXpXpXpXpXpXpXpXpXpX7X7X7X7X7X7X7X7X7XpXpXpXpX7X7X7X7X7X7X7X7X7X+X+X+X+X X X X XB.B.B.B.B.r.r.r.r.1.1.1.1.q.q.q.q.>.>.>.>.>.z z z z =.=.=.=.zXzXzXzXzX$ % % % 6 6 6 6 [ [ [ [ Z Z Z Z Z . . . . / / / / v v v v v ; ; ; ; $ $ $ $                                   2 2 2 2 2 q q q q ; ; ; ; - - - - c c c c c Y.Y.Y.Y.Y.Y.Y.Y.Y.Y.Y.Y.R.R.R.R.R.R.R.R.R.W.W.W.W.W.!.!.!.!.W.W.W.W.W.W.E.E.T.T.T.T.T.T.T.T.T.Y.Y.Y.Y.c c c c # # # # # # # # #             . . # # # # # wXqXqXqXpXpXpXpXpXpXpXpXpXpXpXpXpXpXpXpXpXpXpXpXpXpXpXpXpXpXpXpXpXpXpXpXpXpXpXpXpXpXpXpXpXpXpXpXpXpXpXpXpXpXpXpXpXpXpXpXpXpXpXpXpXpXpXpXpXpXpXpXpXpXpXpXpXpXpXpXpXpXpXpXpXpXpXpXpXpXpXpXpXpXpXpXpXpXpXpXpXpXpXpXpXpXpXpXpXpXpXpXpXpXpXpXpXpXpXpXpXpXpXpXpXpXpXpXpXpXpXpXpXpXpXpXpXpXpXpXpXpXpXpXpXpXpXpX",
"pXpXpXpXpXpXpXpXpXpXpXpXpXpXpXpXpXpXpXpXpXpXpXpXpXpXwXwXwXwXwXwXwXpXpXpXpXqX9X9XqXpXpXpXpXpXpXpXpXpX-X-X-X-X+.+.+.+.@.@.@.@.@.e.e.e.e.M.M.M.M.1.1.1.1.4.4.4.2.2.y y y y `.`.`.`.cXcXcXzXzXb b b b > > > > 9 9 9 9 `.`.`.`.`.@ @ @ @ ^ ^ ^ ^ ^ ^ ^ ^ ^ 1 1 1 1 N N Y Y 5 5 5 5 1 1 1 1 1 $ $ # # # # # # ; ; ; ; ; 8 7 7 7 2 2 2 2 =.=.=.=.).sXsX).).&.&.%.%.] ] %.%.( ( ( ( _ _ _ _ _ ( ( ( ( ( ( ( ( %.%.%.%.%._ _ _ _ ( ( ( ( Q Q Q Q Q Q Q Q Q ^ ^ ^ ^ ( ( ( ( ( ( ( ( ( + + + +         X X X X + + + + + pXpXpXpXpXpXpXpXpXpXpXpXpXpXpXpXpXpXpXpXpXpXpXpXpXpXpXpXpXpXpXpXpXpXpXpXpXpXpXpXpXpXpXpXpXpXpXpXpXpXpXpXpXpXpXpXpXpXpXpXpXpXpXpXpXpXpXpXpXpXpXpXpXpXpXpXpXpXpXpXpXpXpXpXpXpXpXpXpXpXpXpXpXpXpXpXpXpXpXpXpXpXpXpXpXpXpXpXpXpXpXpXpXpXpXpXpXpXpXpXpXpXpXpXpXpXpXpXpXpXpXpXpXpXpXpXpXpXpXpXpXpXpXpXpXpXpXpX",
"pXpXpXpXpXpXpXpXpXpXpXpXpXpXpXpXpXpXpXpXpXpXpXpXpXpXpXpXwXwXwXwXwXpXpXpXpXqXqXqXqXpXpXpXpXpXpXpXpXpX-X-X-X-X+.+.+.+.@.@.@.@.@.e.e.e.e.M.B.M.M.1.1.1.1.4.4.4.4.4.y y y y `.`._._.cXcXzXzXzXb b b b > > > > 9 9 9 9 `.`.`.`.`.@ @ @ @ ^ ^ / / / / ^ ^ ^ 1 1 1 1 Y N Y N 5 5 5 5 1 1 1 1 1 $ $ $ $ # # # # ; ; ; ; ; 8 8 8 8 2 2 2 2 =.=.=.=.).sXsXsXsX%.%.%.%.%.%.%.%.( ( ( ( ( ( ( ( ( ( ( ( ( ( ( ( ( %.%.%.%.%.( ( ( ( ( ( ( ( Q Q Q Q Q Q Q Q Q ^ ^ ^ ^ ( ( ( ( ( ( ( ( ( + + # #         X X X + + + + + + pXpXpXpXpXpXpXpXpXpXpXpXpXpXpXpXpXpXpXpXpXpXpXpXpXpXpXpXpXpXpXpXpXpXpXpXpXpXpXpXpXpXpXpXpXpXpXpXpXpXpXpXpXpXpXpXpXpXpXpXpXpXpXpXpXpXpXpXpXpXpXpXpXpXpXpXpXpXpXpXpXpXpXpXpXpXpXpXpXpXpXpXpXpXpXpXpXpXpXpXpXpXpXpXpXpXpXpXpXpXpXpXpXpXpXpXpXpXpXpXpXpXpXpXpXpXpXpXpXpXpXpXpXpXpXpXpXpXpXpXpXpXpXpXpXpXpXpX",
"pXpXpXpXpXpXpXpXpXpXpXpXpXpXpXpXpXpXpXpXpXpXpXpXpXpXpXpXwXwXwXwXwXpXpXpXpXqXqXqXqXpXpXpXpXpXpXpXpXpX-X-X-X-X+.+.+.+.@.@.@.@.@.e.e.e.e.M.B.B.M.1.1.6.1.4.e.e.4.4.y y y y `.`.`._.cXcXzXzXzXb b b n > > > > 9 9 9 9 `.`.`.`.`.@ @ @ @ ^ ^ / / / / ^ ^ ^ 1 1 1 1 Y N N Y 5 5 5 5 1 1 1 1 1 $ $ $ $ # # # # ; ; ; ; ; 8 8 8 8 2 2 2 2 =.=.=.=.).sXsXsXsX&.%.%.%.%.] %.%.( ( ( ( ( ( ( ( ( ( ( ( ( ( ( ( ( %.%.%.%.%.( ( ( ( ( ( ( ( Q Q ^ Q Q Q Q Q Q ^ ^ ^ ^ ( ( ( ( ( ( ( ( ( + + # # .       X X X + + + + + + pXpXpXpXpXpXpXpXpXpXpXpXpXpXpXpXpXpXpXpXpXpXpXpXpXpXpXpXpXpXpXpXpXpXpXpXpXpXpXpXpXpXpXpXpXpXpXpXpXpXpXpXpXpXpXpXpXpXpXpXpXpXpXpXpXpXpXpXpXpXpXpXpXpXpXpXpXpXpXpXpXpXpXpXpXpXpXpXpXpXpXpXpXpXpXpXpXpXpXpXpXpXpXpXpXpXpXpXpXpXpXpXpXpXpXpXpXpXpXpXpXpXpXpXpXpXpXpXpXpXpXpXpXpXpXpXpXpXpXpXpXpXpXpXpXpXpXpX",
"pXpXpXpXpXpXpXpXpXpXpXpXpXpXpXpXpXpXpXpXpXpXpXpXpXpXpXpXwXwXwXwXwXpXpXpXpXqXqXqXqXpXpXpXpXpXpXpXpXpX-X-X-X-X+.+.+.+.@.@.@.@.#.e.e.e.e.M.N.N.N.1.1.1.1.4.e.e.e.e.y y y y `.`._._.cXcXcXcXcXn b n b > > > > 9 9 9 9 `.`.`.`.`.@ @ @ @ ^ ^ / / ^ ^ ^ ^ ^ 1 1 1 1 Y Y Y Y 5 5 5 5 1 1 1 1 1 $ $ $ $ # # # # ; ; ; ; ; 8 8 8 8 2 2 2 2 =.=.=.=.).).sXsXsX%.%.%.%.[ [ [ [ ( ( ( ( ( ( ( ( ( ( ( ( ( ( _ _ ( %.%.%.%.%.( ( ( ( ( ( ( ( Q ^ Q ^ Q Q Q Q Q ^ ^ ^ ^ ( ( ( ( ( ( ( ( ( + + # #         X X X X + + + + + pXpXpXpXpXpXpXpXpXpXpXpXpXpXpXpXpXpXpXpXpXpXpXpXpXpXpXpXpXpXpXpXpXpXpXpXpXpXpXpXpXpXpXpXpXpXpXpXpXpXpXpXpXpXpXpXpXpXpXpXpXpXpXpXpXpXpXpXpXpXpXpXpXpXpXpXpXpXpXpXpXpXpXpXpXpXpXpXpXpXpXpXpXpXpXpXpXpXpXpXpXpXpXpXpXpXpXpXpXpXpXpXpXpXpXpXpXpXpXpXpXpXpXpXpXpXpXpXpXpXpXpXpXpXpXpXpXpXpXpXpXpXpXpXpXpXpXpX",
"pXpXpXpXpXpXpXpXpXpXpXpXpXpXpXpXpXpXpXpXpXpXpXpXpXpXpXpXwXwXwXwXwXpXpXpXpXqXqXqXqXpXpXpXpXpXpXpXpXpX-X-X-X-X+.+.+.+.@.@.@.#.#.e.e.e.e.M.N.N.N.1.1.1.1.4.e.e.e.e.y y y y `.`._._.cXcXcXcXcXn n n b > > > > 9 9 9 9 `.`.`.`.`.@ @ @ @ ^ ^ / / ^ ^ ^ ^ ^ 1 1 1 1 Y Y Y Y 5 5 5 5 1 1 1 1 1 $ $ $ $ # # # # ; ; ; ; ; 8 8 8 8 2 2 2 2 =.=.=.=.).).).sXsX%.%.%.%.[ [ [ [ ( ( ( ( ( ( ( ( ( ( ( ( ( ( _ ( ( %.%.%.%.%.( ( ( ( ( ( ( ( Q Q Q Q Q Q Q Q Q ^ ^ ^ ^ ( ( ( ( ( ( ( ( ( + + # #         X X X X + + + + + pXpXpXpXpXpXpXpXpXpXpXpXpXpXpXpXpXpXpXpXpXpXpXpXpXpXpXpXpXpXpXpXpXpXpXpXpXpXpXpXpXpXpXpXpXpXpXpXpXpXpXpXpXpXpXpXpXpXpXpXpXpXpXpXpXpXpXpXpXpXpXpXpXpXpXpXpXpXpXpXpXpXpXpXpXpXpXpXpXpXpXpXpXpXpXpXpXpXpXpXpXpXpXpXpXpXpXpXpXpXpXpXpXpXpXpXpXpXpXpXpXpXpXpXpXpXpXpXpXpXpXpXpXpXpXpXpXpXpXpXpXpXpXpXpXpXpXpX",
"pXpXpXpXpXpXpXpXpXpXpXpXpXpXpXpXwXwXwXwXqXqXqXqXqXqXqXqX9X9X9X9X9X9X9X9X9XpXpXpXpXpXpXpXpXpX5X5X5X5X+X+X+X+XXXXX.X.XL L L L @.i.i.i.i.V.V.V.V.e.e.e.e.e.e.e.e.e.G G G G ~ ~ ~ ! cXcXcXcXcX_._._.(.$ $ $ $ Z Z Z ) ;.;.;.;.;.{ { { { E E E E fXfXfXfXfX^ ^ ^ ^ / / / / e e e e 8 8 8 8 8 2 2 2 2 1 1 1 1 2 2 2 2 2 1 1 1 1 w w w w 5 5 2 5 :.:.:.:.:.0 0 0 0 0 8 8 8 7 7 8 8 8 8 0 0 8 7 7 7 7 7 8 8 7 8 8 8 8 8 8 8 8 8 0 0 0 0 8 8 0 8 8 8 8 8 8 8 8 8 8 8 8 8 8 8 8 8 8 8 0 0 q 0 # # # # X X X X # # # # # # # # $ pXpXpXpXpXpXpXpXpXpXpXpXpXpXpXpXpXpXpXpXpXpXpXpXpXpXpXpXpXpXpXpXpXpXpXpXpXpXpXpXpXpXpXpXpXpXpXpXpXpXpXpXpXpXpXpXpXpXpXpXpXpXpXpXpXpXpXpXpXpXpXpXpXpXpXpXpXpXpXpXpXpXpXpXpXpXpXpXpXpXpXpXpXpXpXpXpXpXpXpXpXpXpXpXpXpXpXpXpXpXpXpXpXpXpXpXpXpXpXpXpXpXpXpXpXpXpXpXpXpXpXpXpXpXpXpXpXpXpXpXpXpXpXpX",
"pXpXpXpXpXpXpXpXpXpXpXpXpXpXpXpXwXwXwXwXqXqXqXqXqXqXqXqX9X9X9X9X9X9X9X9X9XpXpXpXpXpXpXpXpXpX5X5X5X5X+X.X.X.XXXXXXXXXL L L L @.i.i.i.i.V.V.V.V.e.e.e.e.e.e.e.e.e.G G G G ~ ~ ! ! cXcXcXcXcX_._._.(.$ $ $ % Z Z Z ) ;.;.;. . .{ { { { E E E E fXfXfXfXfX^ ^ ^ ^ / / / / e e e e 8 8 8 8 8 2 2 2 2 1 1 1 1 2 2 2 2 2 1 1 1 1 w w w w 5 5 5 5 :.:.:.:.:.8 8 0 0 8 0 0 8 7 7 7 7 8 8 8 8 8 7 7 7 7 7 7 7 7 8 8 8 8 8 8 8 8 8 0 0 0 0 8 8 8 8 8 8 8 8 8 8 8 8 8 8 8 8 8 8 8 8 8 8 0 0 0 0 # # # # X X X X # # # # # # # # $ pXpXpXpXpXpXpXpXpXpXpXpXpXpXpXpXpXpXpXpXpXpXpXpXpXpXpXpXpXpXpXpXpXpXpXpXpXpXpXpXpXpXpXpXpXpXpXpXpXpXpXpXpXpXpXpXpXpXpXpXpXpXpXpXpXpXpXpXpXpXpXpXpXpXpXpXpXpXpXpXpXpXpXpXpXpXpXpXpXpXpXpXpXpXpXpXpXpXpXpXpXpXpXpXpXpXpXpXpXpXpXpXpXpXpXpXpXpXpXpXpXpXpXpXpXpXpXpXpXpXpXpXpXpXpXpXpXpXpXpXpXpXpXpX",
"pXpXpXpXpXpXpXpXpXpXpXpXpXpXpXpXwXwXwXwXqXqXqXqXqXqXqXqX9X9X9X9X9X9X9X9X9XpXpXpXpXpXpXpXpXpX5X5X5X5X+X+X.X.XXXXXXXXXX.X.L L X.i.i.i.i.V.V.V.V.e.e.e.e.e.e.e.e.e.G G G G ~ ~ ~ ~ cXcXcXcXcX_._._.`.$ : : % ` Z Z Z ;.;.;. . .[ [ { { E E E E fXfXfXfXfX^ ^ ^ ^ / / / / e e e e 8 8 8 8 8 2 2 2 2 1 1 1 1 2 2 2 2 2 1 1 1 1 w w w e 5 5 5 5 Q.:.:.:.:.8 8 0 0 0 0 0 0 7 7 7 8 0 0 8 8 8 8 7 7 7 7 7 7 7 8 8 8 8 8 8 8 8 8 0 0 0 0 8 8 0 0 8 7 8 8 8 8 8 8 8 8 8 8 8 8 8 8 8 8 0 0 0 0 # # # # X X X X # # # # # # # # # pXpXpXpXpXpXpXpXpXpXpXpXpXpXpXpXpXpXpXpXpXpXpXpXpXpXpXpXpXpXpXpXpXpXpXpXpXpXpXpXpXpXpXpXpXpXpXpXpXpXpXpXpXpXpXpXpXpXpXpXpXpXpXpXpXpXpXpXpXpXpXpXpXpXpXpXpXpXpXpXpXpXpXpXpXpXpXpXpXpXpXpXpXpXpXpXpXpXpXpXpXpXpXpXpXpXpXpXpXpXpXpXpXpXpXpXpXpXpXpXpXpXpXpXpXpXpXpXpXpXpXpXpXpXpXpXpXpXpXpXpXpXpXpX",
"pXpXpXpXpXpXpXpXpXpXpXpXpXpXpXpXwXwXwXwXqXqXqXqXqXqXqXqX9X9X9X9X9X9X9X9X9XpXpXpXpXpXpXpXpXpX5X5X5X5X+X+X.X.XXXXXXXXXX.X.L L X.i.i.i.i.V.V.V.V.e.e.e.e.e.e.e.e.e.M.G G G ~ ~ ~ ~ cXcXcXcXcX_._._.`.% % : : ` Z Z Z ;.;.;. . .[ [ { { E E E E fXfXfXfXfX^ ^ ^ ^ / / / / e e e e 8 8 8 8 8 2 2 2 2 1 1 1 1 2 2 2 2 2 1 1 1 1 w w w e 5 5 5 5 Q.:.:.:.:.8 8 0 0 0 0 0 0 7 7 7 8 0 0 8 8 8 7 7 7 7 7 7 7 7 8 8 8 8 8 8 8 8 8 0 0 0 0 8 8 8 8 7 8 8 8 8 8 8 8 8 8 8 8 8 8 8 8 8 8 0 0 0 0 # # # # X X X X # # # # # # # # # pXpXpXpXpXpXpXpXpXpXpXpXpXpXpXpXpXpXpXpXpXpXpXpXpXpXpXpXpXpXpXpXpXpXpXpXpXpXpXpXpXpXpXpXpXpXpXpXpXpXpXpXpXpXpXpXpXpXpXpXpXpXpXpXpXpXpXpXpXpXpXpXpXpXpXpXpXpXpXpXpXpXpXpXpXpXpXpXpXpXpXpXpXpXpXpXpXpXpXpXpXpXpXpXpXpXpXpXpXpXpXpXpXpXpXpXpXpXpXpXpXpXpXpXpXpXpXpXpXpXpXpXpXpXpXpXpXpXpXpXpXpXpXpX",
"pXpXpXpXpXpXpXpXpXpXpXpXpXpXpXpXpXpXpXpX8X8X8X8XpXpXpXpXpXpXpXpXpX5X5X5X5X7X7X7X7X5X5X5X5X5X8X8X8X8X2X2X5X5XXXXXXXXXI I I I I i.i.i.i.G G G H H G G G XX XXX X Xz z z z N g g g jXjXjXjX`.lXlXlXlX6 6 6 6 b b b b /././././.N N N N R R R R dXdXdXdXdXY Y Y Y _ _ _ _ E E E E e e e e e 8 8 8 8 5 5 5 5 1 1 1 1 1 ; ; % % q q q q ; ; % % &.*.*.*.*.8 8 8 8 8 8 8 8 8 8 8 8 5 5 7 7 7 7 5 5 5 7 7 7 7 7 7 7 7 7 7 7 7 7 7 7 7 7 5 5 5 5 5 5 5 5 5 5 7 7 5 5 5 5 5 5 5 5 5 5 8 7 7 7 X X X X X X X X + + + + + # # # # # # # # pXpXpXpXpXpXpXpXpXpXpXpXpXpXpXpXpXpXpXpXpXpXpXpXpXpXpXpXpXpXpXpXpXpXpXpXpXpXpXpXpXpXpXpXpXpXpXpXpXpXpXpXpXpXpXpXpXpXpXpXpXpXpXpXpXpXpXpXpXpXpXpXpXpXpXpXpXpXpXpXpXpXpXpXpXpXpXpXpXpXpXpXpXpXpXpXpXpXpXpXpXpXpXpXpXpXpXpXpXpXpXpXpXpXpXpXpXpXpXpXpXpXpXpXpXpXpXpXpXpXpXpXpXpXpXpXpXpXpXpX",
"pXpXpXpXpXpXpXpXpXpXpXpXpXpXpXpXpXpXpXpX8X8X8X8XpXpXpXpXpXpXpXpXpX5X5X5X5X7X7X7X7X5X5X5X5X5X8X8X8X8X2X2X5X5XXXXXXXXXI I I I I i.i.i.i.G G G H H G G G XXXX X X Xz z z z N N e g gXgXjXjX`.lXzXlXlX6 6 6 6 b b b b /././././.N N N N T R R R dXdXdXdXdXY Y Y Y _ _ _ _ E E E E e e e e e 8 8 8 8 5 5 5 5 1 1 1 1 1 ; ; ; % q q q q ; ; ; % &.*.&.*.*.8 8 8 8 0 8 8 8 8 8 8 8 5 5 7 7 7 7 5 5 5 7 7 7 7 7 7 7 7 7 7 7 7 7 7 7 7 7 5 5 5 5 5 5 5 5 7 7 7 7 5 5 5 5 7 5 5 5 5 5 0 0 7 7 X X X X X X X X + + + + + # # # # # # # # pXpXpXpXpXpXpXpXpXpXpXpXpXpXpXpXpXpXpXpXpXpXpXpXpXpXpXpXpXpXpXpXpXpXpXpXpXpXpXpXpXpXpXpXpXpXpXpXpXpXpXpXpXpXpXpXpXpXpXpXpXpXpXpXpXpXpXpXpXpXpXpXpXpXpXpXpXpXpXpXpXpXpXpXpXpXpXpXpXpXpXpXpXpXpXpXpXpXpXpXpXpXpXpXpXpXpXpXpXpXpXpXpXpXpXpXpXpXpXpXpXpXpXpXpXpXpXpXpXpXpXpXpXpXpXpXpXpXpXpX",
"pXpXpXpXpXpXpXpXpXpXpXpXpXpXpXpXpXpXpXpX8X8X8X8XpXpXpXpXpXpXpXpXpX5X5X5X5X7X7X7X8X5X5X5X5X5X8X8X8X8X2X2X5X5XXXXXXXXXI I I I I i.i.i.i.G H G H H G G G XXXXXXXX Xz z z z N N N N gXgXgXgXjXzXzXzXlX6 6 6 6 b b b b /././././.N N N N R R R R dXdXdXdXdXY Y Y Y _ _ _ _ E E E E e e e e e 8 8 8 8 5 5 5 5 1 1 1 1 1 ; ; ; ; q q q q ; ; ; % &.&.&.&.&.8 8 8 8 8 8 8 8 0 8 8 8 5 5 7 7 7 5 5 5 5 7 7 7 7 7 7 7 7 7 7 7 7 7 7 7 7 7 7 7 5 5 5 5 7 7 7 7 7 7 7 7 5 5 7 5 7 7 5 7 0 0 7 7 X X X X X X X X + + X X + # # # # # # # # pXpXpXpXpXpXpXpXpXpXpXpXpXpXpXpXpXpXpXpXpXpXpXpXpXpXpXpXpXpXpXpXpXpXpXpXpXpXpXpXpXpXpXpXpXpXpXpXpXpXpXpXpXpXpXpXpXpXpXpXpXpXpXpXpXpXpXpXpXpXpXpXpXpXpXpXpXpXpXpXpXpXpXpXpXpXpXpXpXpXpXpXpXpXpXpXpXpXpXpXpXpXpXpXpXpXpXpXpXpXpXpXpXpXpXpXpXpXpXpXpXpXpXpXpXpXpXpXpXpXpXpXpXpXpXpXpXpXpXpX",
"pXpXpXpXpXpXpXpXpXpXpXpXpXpXpXpXpXpXpXpX8X8X8X8XpXpXpXpXpXpXpXpXpX5X5X5X5X7X7X7X8X5X5X5X5X5X8X8X8X8X2X2X4X5XXXXXXXXXI I I I I i.i.i.i.G G G G H G G G XXXXXXXXXXz z z z N N N N gXgXgXgXjXzXzXzXlX6 6 6 6 b b b b /././././.N N N N R R R R dXdXdXdXdXY Y Y Y _ _ _ _ E E E E e e e e e 8 8 8 8 5 5 5 5 1 1 1 1 1 ; ; ; ; q q q q ; ; ; % &.*.&.&.*.8 8 8 8 8 8 7 7 0 0 8 8 5 5 5 5 7 7 5 5 5 7 7 7 7 7 7 7 7 7 7 7 7 7 7 7 7 7 7 5 5 5 5 7 7 7 7 7 7 7 7 5 5 5 7 7 7 7 7 7 0 0 7 7 X X X X X X X X + + X X + # # # # # # # # pXpXpXpXpXpXpXpXpXpXpXpXpXpXpXpXpXpXpXpXpXpXpXpXpXpXpXpXpXpXpXpXpXpXpXpXpXpXpXpXpXpXpXpXpXpXpXpXpXpXpXpXpXpXpXpXpXpXpXpXpXpXpXpXpXpXpXpXpXpXpXpXpXpXpXpXpXpXpXpXpXpXpXpXpXpXpXpXpXpXpXpXpXpXpXpXpXpXpXpXpXpXpXpXpXpXpXpXpXpXpXpXpXpXpXpXpXpXpXpXpXpXpXpXpXpXpXpXpXpXpXpXpXpXpXpXpXpXpXpX",
"pXpXpXpXpXpXpXpXpXpXpXpXpXpXpXpX8X8X8X8X5X5X5X5X<X<X<X<X:X:X:X:X:XpXpXpXpX5X5X5X5X<X<X<X<X<X>X>X>X>X-X-X-X-X%X%X%X%XX.X.X.X.X.i.i.i.i.C.C.C.C.&X%X&X%X-X-X-X-X-X-X-X;X&XN N Y Y ;.;.L.L.;.jXjX`.jX'.'.'.'.Z Z Z Z '  . . . .Q Q Q Q 5 5 5 5 =.=.=.*.=.Q E E E :.:.:.:._ _ _ _ ^ ^ ^ ^ ^ e e e e q q q q 5 5 5 5 5 1 1 1 1 ; ; ; ; sXsXsXsXw w w w w 7 7 7 7 8 8 7 8 7 7 7 7 5 5 5 5 5 5 5 5 5 5 5 5 5 5 5 5 5 5 5 5 5 5 5 5 5 5 5 5 5 5 5 5 5 5 5 5 5 5 5 5 5 5 5 5 5 5 5 5 5 5 5 5 5 5 5 5 5 5 5 5 % % % % % $ $ $ $ $ $ $ $ =X=X=X=X=XpXpXpXpXpXpXpXpXpXpXpXpXpXpXpXpXpXpXpXpXpXpXpXpXpXpXpXpXpXpXpXpXpXpXpXpXpXpXpXpXpXpXpXpXpXpXpXpXpXpXpXpXpXpXpXpXpXpXpXpXpXpXpXpXpXpXpXpXpXpXpXpXpXpXpXpXpXpXpXpXpXpXpXpXpXpXpXpXpXpXpXpXpXpXpXpXpXpXpXpXpXpXpXpXpXpXpXpXpXpXpXpXpXpXpXpXpXpXpXpXpXpXpXpXpXpXpXpXpXpXpXpXpXpXpX",
"pXpXpXpXpXpXpXpXpXpXpXpXpXpXpXpX8X8X8X8X5X5X5X5X<X<X<X<X:X:X:X:X:XpXpXpXpX5X5X5X5X<X<X<X<X<X>X>X>X>X-X-X-X-X%X%X%X%XX.X.X.X.I i.i.i.i.C.C.C.C.&X%X%X%X-X-X-X-X-X-X-X;X;XN N Y N ;.;.;.;.;.jX`.`.jX'.'.'.'.Z Z Z C '  .'  . .Q Q Q Q 5 5 5 5 =.=.=.=.=.Q Q Q E :.:.:.:._ _ _ _ ^ ^ ^ ^ ^ e e e e q q q q 5 5 5 5 5 1 1 1 1 ; ; ; ; sXsXsXsXw w w w w 7 7 7 7 8 8 7 8 7 7 7 7 5 5 5 5 5 5 5 5 5 5 5 5 5 5 5 5 5 5 5 5 5 5 5 5 5 5 5 5 5 5 5 5 5 5 5 5 5 5 5 5 5 5 5 5 5 5 5 5 5 5 5 5 5 5 5 5 5 5 5 5 % % % % % $ $ $ $ $ $ $ $ =X=X=X=X=XpXpXpXpXpXpXpXpXpXpXpXpXpXpXpXpXpXpXpXpXpXpXpXpXpXpXpXpXpXpXpXpXpXpXpXpXpXpXpXpXpXpXpXpXpXpXpXpXpXpXpXpXpXpXpXpXpXpXpXpXpXpXpXpXpXpXpXpXpXpXpXpXpXpXpXpXpXpXpXpXpXpXpXpXpXpXpXpXpXpXpXpXpXpXpXpXpXpXpXpXpXpXpXpXpXpXpXpXpXpXpXpXpXpXpXpXpXpXpXpXpXpXpXpXpXpXpXpXpXpXpXpXpXpXpX",
"pXpXpXpXpXpXpXpXpXpXpXpXpXpXpXpX8X8X8X8X5X5X5X5X<X<X<X<X:X:X:X:X:XpXpXpXpX5XrXrX5X<X<X<X<X<X>X>X:X:X-X-X-X-X%X%X%X%XX.X.X.X.X.i.t.i.i.C.C.C.C.&X&X%X%X-X-X-X-X-X-X-X-X;XN N N N ;.;.;.;.;.jX`.`.jX'.'.'.'.Z Z Z C ' ' '  . .Q Q E E 5 5 5 5 *.*.*.*.=.Q Q Q E :.:.:.:._ _ _ _ ^ ^ ^ ^ ^ e e e e q q q q 5 5 5 5 5 1 1 1 1 ; ; ; ; sXsXsXsXw w w w w 7 7 7 7 8 8 8 8 7 7 7 7 5 5 5 5 5 5 5 5 5 5 5 5 5 5 5 5 5 5 5 5 5 5 5 5 5 5 5 5 5 5 5 5 5 5 5 5 5 5 5 5 5 5 5 5 5 5 5 5 5 5 5 5 5 5 5 5 5 5 5 5 % % % % % # # # $ $ $ $ $ =X=X=X=X=XpXpXpXpXpXpXpXpXpXpXpXpXpXpXpXpXpXpXpXpXpXpXpXpXpXpXpXpXpXpXpXpXpXpXpXpXpXpXpXpXpXpXpXpXpXpXpXpXpXpXpXpXpXpXpXpXpXpXpXpXpXpXpXpXpXpXpXpXpXpXpXpXpXpXpXpXpXpXpXpXpXpXpXpXpXpXpXpXpXpXpXpXpXpXpXpXpXpXpXpXpXpXpXpXpXpXpXpXpXpXpXpXpXpXpXpXpXpXpXpXpXpXpXpXpXpXpXpXpXpXpXpXpXpXpX",
"pXpXpXpXpXpXpXpXpXpXpXpXpXpXpXpX8X8X8X8X5X5X5X5X<X<X<X<X:X:X:X:X:XpXpXpXpX5X5XrX5X<X<X<X<X<X>X>X:X:X-X-X-X-X%X%X%X%XX.X.X.X.X.i.t.i.i.C.C.C.C.&X&X%X%X-X-X-X-X-X-X-X-X-XN N N N ;.;.;.;.;.jXjX`.jX'.'.'.'.Z Z Z C ' ' '  . .Q Q E E 5 5 5 5 *.*.*.*.*.E Q E E :.:.:.:._ _ _ _ ^ ^ ^ ^ ^ e e e e q q q q 5 5 5 5 5 1 1 1 1 ; ; ; ; sXsXsXsXw w w w w 7 7 7 7 8 8 8 8 7 7 7 7 5 5 5 5 5 5 5 5 5 5 5 5 5 5 5 5 5 5 5 5 5 5 5 5 5 5 5 5 5 5 5 5 5 5 5 5 5 5 5 5 5 5 5 5 5 5 5 5 5 5 5 5 5 5 5 5 5 5 5 5 % % % % % # # # # $ $ $ $ =X=X=X=X=XpXpXpXpXpXpXpXpXpXpXpXpXpXpXpXpXpXpXpXpXpXpXpXpXpXpXpXpXpXpXpXpXpXpXpXpXpXpXpXpXpXpXpXpXpXpXpXpXpXpXpXpXpXpXpXpXpXpXpXpXpXpXpXpXpXpXpXpXpXpXpXpXpXpXpXpXpXpXpXpXpXpXpXpXpXpXpXpXpXpXpXpXpXpXpXpXpXpXpXpXpXpXpXpXpXpXpXpXpXpXpXpXpXpXpXpXpXpXpXpXpXpXpXpXpXpXpXpXpXpXpXpXpXpXpX",
"pXpXpXpXpXpXpXpXpXpXpXpXpXpXpXpXpXpXpXpX<X<X<X<XrXrXrXrX7X7X7X7XtX:X:X:X:X%X%X%X%X%X%X%X%X%X>X>X:X:X-X-X-X-X+X+X+X+X XoX X XoXJ.J.J.J.B.B.B.B.K K K K -X-X-X-X-X:X-X-X-X:.:.:.:.] ] ~ ~ ~ `.`.`.`.zXzXzXzXM M M M 9 9 9 9 9 N N v v T T T T %.%.%.%.%._ _ _ ( &.&.&.&.T T T T _ _ _ _ _ T T T T e e e e q q q q q 8 0 0 8 1 1 1 1 5 5 5 5 E E E E E 5 5 5 5 Y Y Y Y e e e v 5 5 5 5 5 % % % % 5 5 5 2 2 2 2 2 2 5 5 5 5 5 5 5 5 5 5 5 5 5 5 5 5 5 e e e e E E E R 5 5 5 5 5 1 1 1 1 2 2 2 2 5 5 5 5 1 1 1 1 1 # # # # $ $ $ $ % % % % % pXpXpXpXpXpXpXpXpXpXpXpXpXpXpXpXpXpXpXpXpXpXpXpXpXpXpXpXpXpXpXpXpXpXpXpXpXpXpXpXpXpXpXpXpXpXpXpXpXpXpXpXpXpXpXpXpXpXpXpXpXpXpXpXpXpXpXpXpXpXpXpXpXpXpXpXpXpXpXpXpXpXpXpXpXpXpXpXpXpXpXpXpXpXpXpXpXpXpXpXpXpXpXpXpXpXpXpXpXpXpXpXpXpXpXpXpXpXpXpXpXpXpXpXpXpXpXpXpXpXpXpXpXpXpX",
"pXpXpXpXpXpXpXpXpXpXpXpXpXpXpXpXpXpXpXpX<X<X<X<XrXrXrXrX7X7X7X7XtX:X:X:X:X%X%X%X%X%X%X%X%X%X>X>X:X:X-X-X-X-X+X+X+X+X X X X XoXJ.J.J.J.B.B.B.B.K K K K -X-X-X-X-X:X-X-X-X:.:.:.:.] ] ) ) ~ `.`.`.`.zXzXzXzXM M M M 9 9 9 9 9 N N v v T T T T %.%.%.%.%._ _ _ ( &.&.&.&.T T T T _ _ _ _ _ T T T T e e e e q q q q q 8 0 0 0 1 1 1 1 5 5 5 5 E E E E E 7 5 5 5 Y Y Y Y e e e e 5 5 5 5 5 % % % % 2 5 5 2 5 2 2 2 2 5 5 5 5 5 5 5 5 5 5 5 5 5 5 5 5 5 e e e e E E E R 5 5 5 5 5 1 1 1 1 2 2 2 2 5 5 5 5 1 1 1 1 1 # # # # $ $ $ $ % % % % % pXpXpXpXpXpXpXpXpXpXpXpXpXpXpXpXpXpXpXpXpXpXpXpXpXpXpXpXpXpXpXpXpXpXpXpXpXpXpXpXpXpXpXpXpXpXpXpXpXpXpXpXpXpXpXpXpXpXpXpXpXpXpXpXpXpXpXpXpXpXpXpXpXpXpXpXpXpXpXpXpXpXpXpXpXpXpXpXpXpXpXpXpXpXpXpXpXpXpXpXpXpXpXpXpXpXpXpXpXpXpXpXpXpXpXpXpXpXpXpXpXpXpXpXpXpXpXpXpXpXpXpXpXpXpX",
"pXpXpXpXpXpXpXpXpXpXpXpXpXpXpXpXpXpXpXpX<X<X<X<X5X5XrXrX7X7X7X7XtX:X:X:X:X%X%X%X%X%X%X%X%X%X>X>X:X:X-X-X-X-X+X+X+X+X X X X X XJ.J.J.J.B.B.B.B.K K K K -X-X-X-X-X:X:X-X-X:.:.:.:.] ] ] ) ] `.`.`.`.zXzXzXzXM M M M 9 9 9 9 9 N N v v T T T T %.%.%.%.%.( _ ( ( &.&.&.&.T T T T _ _ _ _ _ T T T T e e e e q q q q q 0 0 0 8 1 1 1 1 5 5 5 5 E E E E E 5 5 5 5 Y Y Y Y v v Y Y 5 5 2 2 2 % % % % 2 5 5 5 5 5 5 2 5 5 5 5 5 5 5 5 5 5 5 5 5 5 5 5 5 5 e e e e T E E R 5 5 5 5 5 1 1 1 1 2 2 2 2 5 5 5 5 1 1 1 1 1 # # # # $ $ $ $ % % % % % pXpXpXpXpXpXpXpXpXpXpXpXpXpXpXpXpXpXpXpXpXpXpXpXpXpXpXpXpXpXpXpXpXpXpXpXpXpXpXpXpXpXpXpXpXpXpXpXpXpXpXpXpXpXpXpXpXpXpXpXpXpXpXpXpXpXpXpXpXpXpXpXpXpXpXpXpXpXpXpXpXpXpXpXpXpXpXpXpXpXpXpXpXpXpXpXpXpXpXpXpXpXpXpXpXpXpXpXpXpXpXpXpXpXpXpXpXpXpXpXpXpXpXpXpXpXpXpXpXpXpXpXpXpXpX",
"pXpXpXpXpXpXpXpXpXpXpXpXpXpXpXpXpXpXpXpX<X<X<X<X5X5XrX5X7X7X7X7XtX:X:X:X:X%X%X%X%X%X%X%X%X%X>X>X:X:X-X-X-X-X+X+X#X#X X X X X XJ.J.J.J.B.B.B.B.K K K K -X-X-X-X-X:X:X:X:X:.:.:.:.) ] ] ] ] `.`.`.`.zXzXzXzXM M M M 9 9 9 9 9 N N v v T T T T %.%.%.%.%.( _ ( ( &.&.&.&.T T T T _ _ _ _ _ T T T T e e e e q q q q q 0 0 0 8 1 1 1 1 5 5 5 5 E E E E E 5 5 5 5 Y Y Y Y v v v Y 5 5 2 2 2 % % % % 2 5 5 5 5 5 5 5 5 5 5 5 5 5 5 5 5 5 5 5 5 5 5 5 5 5 e e e e T E E R 5 5 5 5 5 1 1 1 1 2 2 2 2 5 5 5 5 1 1 1 1 1 # # # # $ $ $ $ % % % % % pXpXpXpXpXpXpXpXpXpXpXpXpXpXpXpXpXpXpXpXpXpXpXpXpXpXpXpXpXpXpXpXpXpXpXpXpXpXpXpXpXpXpXpXpXpXpXpXpXpXpXpXpXpXpXpXpXpXpXpXpXpXpXpXpXpXpXpXpXpXpXpXpXpXpXpXpXpXpXpXpXpXpXpXpXpXpXpXpXpXpXpXpXpXpXpXpXpXpXpXpXpXpXpXpXpXpXpXpXpXpXpXpXpXpXpXpXpXpXpXpXpXpXpXpXpXpXpXpXpXpXpXpXpXpX",
"pXpXpXpXpXpXpXpXpXpXpXpXpXpXpXpXpXpXpXpX<X<X<X<XrXrXrXrX7X7X7X7XtX:X:X:X:X%X%X%X%X%X%X%X%X%X>X>X>X>X-X-X-X-X#X#X+X+X X X X X XJ.J.J.J.B.B.B.B.K K K K -X-X-X-X-X:X:X:X:X:.:.:.:.) ) ) ) ] `.`.`.`.zXzXzXzXM M M M 9 9 9 9 9 N N v v T T T T %.%.%.%.%.( ( ( ( *.*.*.*.T T T T _ _ _ _ _ T T T T e e e e q q q q q 0 0 0 8 1 1 1 1 5 5 5 5 E E E E E 7 5 5 5 Y Y Y Y v v v e 2 2 5 5 5 % % % % 5 5 5 5 5 5 5 5 5 5 5 5 5 5 5 5 5 5 5 5 5 5 5 5 5 5 e e e e T T T R 5 5 5 5 5 1 1 1 1 2 2 2 2 5 5 5 5 1 1 1 1 1 # # # # $ $ $ $ % % % % % pXpXpXpXpXpXpXpXpXpXpXpXpXpXpXpXpXpXpXpXpXpXpXpXpXpXpXpXpXpXpXpXpXpXpXpXpXpXpXpXpXpXpXpXpXpXpXpXpXpXpXpXpXpXpXpXpXpXpXpXpXpXpXpXpXpXpXpXpXpXpXpXpXpXpXpXpXpXpXpXpXpXpXpXpXpXpXpXpXpXpXpXpXpXpXpXpXpXpXpXpXpXpXpXpXpXpXpXpXpXpXpXpXpXpXpXpXpXpXpXpXpXpXpXpXpXpXpXpXpXpXpXpXpXpX",
"pXpXpXpXpXpXpXpXpXpXpXqXqXqXqXqXpXpXpXpX>X>X>X>XqXqXqXqX&X&X&X&X&XOXOXOXOX<X<X<X<XrXrXrXrXrX>X>X>X>X9X9X9X9X5X5X5X5X+X+X+X+X+X;X;X;X;XJ.J.J.J.*X*X*X*XXXXXXXXXXXwXwXwXwX;.;.;.;.W W W W W `.`.`.`.zXzXzXzXcXcXcXcXw w w w w T T T T Y Y Y Y ^ ^ ^ ^ ^ &.&.&.&.=.=.=.=.Y Y Y Y ( ( ( _ _ Q Q Q Q Y Y Y Y e e e e e 0 0 0 0 2 2 2 5 2 2 2 2 ( ( ( ( ( 5 5 5 5 E E T T w e e e 5 5 5 5 5 ; : : : % % % % 5 5 5 5 5 5 5 5 5 5 5 5 5 5 5 5 5 5 5 5 5 5 T Y T Y e e e e 5 5 5 5 5 5 5 2 2 % % % % 5 5 5 5 5 5 2 2 3 X X X X # # # # % % % $ $ % % % % pXpXpXpXpXpXpXpXpXpXpXpXpXpXpXpXpXpXpXpXpXpXpXpXpXpXpXpXpXpXpXpXpXpXpXpXpXpXpXpXpXpXpXpXpXpXpXpXpXpXpXpXpXpXpXpXpXpXpXpXpXpXpXpXpXpXpXpXpXpXpXpXpXpXpXpXpXpXpXpXpXpXpXpXpXpXpXpXpXpXpXpXpXpXpXpXpXpXpXpXpXpXpXpXpXpXpXpXpXpXpXpXpXpXpXpXpXpXpXpXpXpXpXpXpXpXpXpXpXpXpX",
"pXpXpXpXpXpXpXpXpXpXpXqXqXqXqXqXpXpXpXpX>X>X>X>XqXqXqXqX&X&X&X&X;XOXOXOXOX<X<X<X<XrXrXrXrXrX>X>X>X>X9X9X9X9X5X5X5X5X+X+X+X+X+X;X;X;X;XJ.J.J.J.*X*X*X*XXXXXXXXXXXwXwXwXwX;.;.;.;.W W W W W _.`.`.`.zXzXzXzXcXcXcXcXw w w w w T T T T Y Y Y Y ^ ^ ^ ^ ^ &.&.&.&.=.=.=.=.Y Y Y Y ( ( ( ( ( Q Q Q Q N N Y N e e e e e 0 0 0 0 5 2 2 5 2 2 2 2 / ( ( ( ( 5 5 5 5 E T T T e e e e 5 5 5 5 5 : : : : % % % % 5 5 5 5 5 5 5 5 5 5 5 5 5 5 5 5 5 5 5 5 5 5 T T T T e e e e 5 5 5 5 5 5 2 5 5 % % % % 5 5 5 5 5 5 5 5 3 X X X X # # # # % % $ $ $ % % % % pXpXpXpXpXpXpXpXpXpXpXpXpXpXpXpXpXpXpXpXpXpXpXpXpXpXpXpXpXpXpXpXpXpXpXpXpXpXpXpXpXpXpXpXpXpXpXpXpXpXpXpXpXpXpXpXpXpXpXpXpXpXpXpXpXpXpXpXpXpXpXpXpXpXpXpXpXpXpXpXpXpXpXpXpXpXpXpXpXpXpXpXpXpXpXpXpXpXpXpXpXpXpXpXpXpXpXpXpXpXpXpXpXpXpXpXpXpXpXpXpXpXpXpXpXpXpXpXpXpXpX",
"pXpXpXpXpXpXpXpXpXpXpXqXqXqXqXqXpXpXpXpX>X>X>X>XqXqXqXqX&X&X&X&X;XOXOXOXOX<X<X<X<XrXrXrXrXrX>X>X>X>X9X9X9X9X5X5XrXrX+X+X+X+X+X;X;X;X;XJ.J.J.J.*X*X*X*XXXXXXXXXXXwXwXwXwX;.;.;.;.W W W W W _.`.`.`.zXzXzXzXcXcXcXcXw w w w w T T T T Y Y Y Y ^ ^ ^ ^ ^ &.&.&.*.=.=.=.=.Y Y Y Y ( ( ( ( ( Q Q Q Q N Y N N e e e e e 0 0 0 0 5 2 2 5 2 2 2 2 / ( ( ( ( 5 5 5 5 E T T T e e e q 5 5 5 5 5 : : : 1 % % % % 5 5 5 5 5 5 5 5 5 5 5 5 5 5 5 5 5 5 5 5 5 5 T T T T e e e e 5 5 5 5 5 5 5 5 2 % % % % 5 5 5 5 5 5 5 5 3 X X X X # # # # $ % $ $ $ % % % % pXpXpXpXpXpXpXpXpXpXpXpXpXpXpXpXpXpXpXpXpXpXpXpXpXpXpXpXpXpXpXpXpXpXpXpXpXpXpXpXpXpXpXpXpXpXpXpXpXpXpXpXpXpXpXpXpXpXpXpXpXpXpXpXpXpXpXpXpXpXpXpXpXpXpXpXpXpXpXpXpXpXpXpXpXpXpXpXpXpXpXpXpXpXpXpXpXpXpXpXpXpXpXpXpXpXpXpXpXpXpXpXpXpXpXpXpXpXpXpXpXpXpXpXpXpXpXpXpXpXpX",
"pXpXpXpXpXpXpXpXpXpXpXqXqXqXqXqXpXpXpXpX>X>X>X>XqXqXqXqX&X&X&X;X;XOXOXOXOX<X<X<X<XrXtXtXtXrX>X>X>X>X9X9X9X9X5X5X5X5X+X+X+X+X+X;X;X;X;XJ.J.J.J.*X*X*X*XXXXXXXXXXXwXwXwXwX;.;.;.;.W W W W R _._._._.zXzXzXzXcXcXcXcXw w w w w T T T T Y Y Y Y ^ ^ ^ ^ ^ &.&.&.&.=.=.=.=.Y Y Y Y ( ( ( ( ( Q Q Q Q Y Y Y Y e e e e e q q q 0 5 5 5 5 2 2 2 2 / / ( ( ( 5 5 5 5 T T E E e e e e 5 5 5 5 5 1 : : : % % % % 5 5 5 5 5 5 5 5 5 5 5 5 5 5 5 5 5 5 5 5 5 5 T T T T e e e e 5 5 5 5 5 5 5 5 5 % % % % 5 5 5 5 2 2 2 2 5 X X X X # # # # $ % % % % % % % % pXpXpXpXpXpXpXpXpXpXpXpXpXpXpXpXpXpXpXpXpXpXpXpXpXpXpXpXpXpXpXpXpXpXpXpXpXpXpXpXpXpXpXpXpXpXpXpXpXpXpXpXpXpXpXpXpXpXpXpXpXpXpXpXpXpXpXpXpXpXpXpXpXpXpXpXpXpXpXpXpXpXpXpXpXpXpXpXpXpXpXpXpXpXpXpXpXpXpXpXpXpXpXpXpXpXpXpXpXpXpXpXpXpXpXpXpXpXpXpXpXpXpXpXpXpXpXpXpXpXpX",
"pXpXpXpXpXpXpXpXpXpXpXqXqXqXqXqXpXpXpXpX9X9X9X9X>X>X>X>X1X1X3X3X3XOXOXOXOX@X@X@X@X$.$.$.$.$.P P Z.P ;X;X;X;X5X5X5X5XpXpXpXpXpXqXqXqXqX@X@X@X@XrXrXrXrX7X7X7X7X7XqXqXqXqXV V V V N N N N N L.L.L.L.`.`.`.`.lXlXlXlX} } } { { T T T T Y Y Y Y Q Q Q Q E =.=.=.=._ ] ] ] e e e e T T T T T _ _ _ _ T T T T w w w w e 0 0 0 0 2 2 2 2 5 5 5 5 dXdXdXdXdX5 7 7 7 w w w w # # # # X X X X X X X X X 1 1 1 1 5 5 5 5 5 5 5 5 5 5 5 5 5 5 5 5 5 5 5 5 5 5 e e e e # # # # X X X X X + # X + : : 1 1 5 5 5 5 5 5 5 5 5 # + + + # # # # $ $ $ $ $ % % ; ; $ $ $ $ pXpXpXpXpXpXpXpXpXpXpXpXpXpXpXpXpXpXpXpXpXpXpXpXpXpXpXpXpXpXpXpXpXpXpXpXpXpXpXpXpXpXpXpXpXpXpXpXpXpXpXpXpXpXpXpXpXpXpXpXpXpXpXpXpXpXpXpXpXpXpXpXpXpXpXpXpXpXpXpXpXpXpXpXpXpXpXpXpXpXpXpXpXpXpXpXpXpXpXpXpXpXpXpXpXpXpXpXpXpXpXpXpXpXpXpXpXpXpXpXpXpXpXpXpXpXpX",
"pXpXpXpXpXpXpXpXpXpXpXqXqXqXqXqXpXpXpXpX9X9X9X9X>X>X>X>X1X1X1X1X1XoXOXOXOX@X@X@X@X$.$.$.$.$.P P P P -X-X;X:X5X5X5X5XpXpXpXpXpXqXqXqXqX@X@X@X@XrXrXrXrX7X7X7X7X7XqXqXqXqXV V V V N N N N N L./././.`.`.`.gXlXlXlXlX} } } } } T T T T Y Y Y Y Q Q E E E =.=.=.=.] _ ] ] e e e e T T T T T _ _ _ _ T T T T w w w w w 0 0 0 0 2 2 2 2 5 5 5 5 sXsXsXdXdX7 7 7 7 w w w w $ # # # X X X X X X X X X : 1 1 1 5 5 5 5 5 5 5 5 5 5 5 5 5 5 5 5 5 5 5 5 5 5 e e e e # # # # X X X X X X X X X : : : ; 5 5 5 5 5 5 5 5 5 # # # + # # # # $ $ $ $ $ % % ; ; $ $ $ $ pXpXpXpXpXpXpXpXpXpXpXpXpXpXpXpXpXpXpXpXpXpXpXpXpXpXpXpXpXpXpXpXpXpXpXpXpXpXpXpXpXpXpXpXpXpXpXpXpXpXpXpXpXpXpXpXpXpXpXpXpXpXpXpXpXpXpXpXpXpXpXpXpXpXpXpXpXpXpXpXpXpXpXpXpXpXpXpXpXpXpXpXpXpXpXpXpXpXpXpXpXpXpXpXpXpXpXpXpXpXpXpXpXpXpXpXpXpXpXpXpXpXpXpXpXpXpX",
"pXpXpXpXpXpXpXpXpXpXpXqXqXqXqXqXpXpXpXpX9X9X9X9X>X>X>X>X1X1X1X1X1XoXOXOXOX@X@X@X@X$.$.$.$.$.P P P P -X-X;X:X5X5X5X5XpXpXpXpXpXqXqXqXqX@X@X@X@XrXrXrXrX7X7X7X7X7XqXqXqXqXV V V V N N N N N L./././.`.`.`.`.lXlXlXlX} } } } { T T T T Y Y Y Y Q Q E E E =.=.=.=.] _ ] ] e e e e T T T T T _ _ _ _ T T T T w w w w w 0 0 0 0 2 2 2 2 5 5 5 5 sXsXsXdXdX7 7 7 7 w w w w $ # # # X X X X X X X X X 1 1 1 1 5 5 5 5 5 5 5 5 5 5 5 5 5 5 5 5 5 5 5 5 5 5 e e e e # # # # X X X X X X X X X : : ; ; 5 5 5 5 5 5 5 5 5 + # # + # # # # $ $ $ $ $ % % ; ; $ $ $ $ pXpXpXpXpXpXpXpXpXpXpXpXpXpXpXpXpXpXpXpXpXpXpXpXpXpXpXpXpXpXpXpXpXpXpXpXpXpXpXpXpXpXpXpXpXpXpXpXpXpXpXpXpXpXpXpXpXpXpXpXpXpXpXpXpXpXpXpXpXpXpXpXpXpXpXpXpXpXpXpXpXpXpXpXpXpXpXpXpXpXpXpXpXpXpXpXpXpXpXpXpXpXpXpXpXpXpXpXpXpXpXpXpXpXpXpXpXpXpXpXpXpXpXpXpXpXpX",
"pXpXpXpXpXpXpXpXpXpXpXqXqXqXqXqXpXpXpXpX9X9X9X9X>X>X>X>X1X1X1X1X1XOXOXOXOX@X@X@X@X$.$.$.$.$.Z.J.Z.P -X-X:X:X5X5X5X5XpXpXpXpXpXqXqXqXqX@X@X@X@XrXrXrXrX7X7X7X7X7XqXqXqXqXV V V V N N N N N L.L.L./.jX`.`.`.lXlXlXlX{ { { } { T T T T Y Y Y Y E E E E Q =.=.=.=.] _ _ _ e e e e T T T T T _ _ _ _ T T T T w w w w w 8 0 0 0 2 2 2 2 5 5 5 5 dXdXdXdXdX0 0 7 7 e e w w # # # # X X X X X X X X X 1 1 : : 5 5 5 5 5 5 5 5 5 5 5 5 5 5 5 5 5 5 5 5 5 5 e e e e # # # # X X X X X X X X X ; % % ; 5 5 5 5 5 5 5 5 5 # # # # # # # # $ $ $ $ $ ; ; ; ; $ $ $ $ pXpXpXpXpXpXpXpXpXpXpXpXpXpXpXpXpXpXpXpXpXpXpXpXpXpXpXpXpXpXpXpXpXpXpXpXpXpXpXpXpXpXpXpXpXpXpXpXpXpXpXpXpXpXpXpXpXpXpXpXpXpXpXpXpXpXpXpXpXpXpXpXpXpXpXpXpXpXpXpXpXpXpXpXpXpXpXpXpXpXpXpXpXpXpXpXpXpXpXpXpXpXpXpXpXpXpXpXpXpXpXpXpXpXpXpXpXpXpXpXpXpXpXpXpXpXpX",
"pXpXpXpXpXpXpXpXpXpXpXqXqXqXqXqXpXpXpXpX5X5X5X5X7X7X7X7X4X4X4X4X4XC.C.C.C.*X*X*X*X$.$. XoXoXC.C.C.C. X X X X7X7X7X7X8X8X9X9X8XpXpXpXpX<X<X<X<X7X7X7X7XpXpXpXpXpX8X8X8X8XN N Y Y N N N N g ;.;.;.;._._._._.-.-.-.-._._._._._.T T T T T T T T E E E E E _ ( ( ( ( ( ( ( ( ( ( ( T T T T T %.%.%.%.E E E Q q q q q q 5 5 5 5 : : : : w w w e %.%.%.%.%.7 5 5 5 5 5 7 5 5 5 5 5 5 5 5 5 5 5 5 5 5 5 5 5 5 2 2 2 5 5 5 5 5 5 5 5 5 5 5 5 5 5 5 5 5 5 5 5 5 5 5 5 5 5 5 5 5 5 5 5 5 5 2 2 2 2 2 5 5 5 5 5 2 2 5 5 5 $ $ $ $ $ $ $ $ $ $ $ $ $ % % % % % % % % pXpXpXpXpXpXpXpXpXpXpXpXpXpXpXpXpXpXpXpXpXpXpXpXpXpXpXpXpXpXpXpXpXpXpXpXpXpXpXpXpXpXpXpXpXpXpXpXpXpXpXpXpXpXpXpXpXpXpXpXpXpXpXpXpXpXpXpXpXpXpXpXpXpXpXpXpXpXpXpXpXpXpXpXpXpXpXpXpXpXpXpXpXpXpXpXpXpXpXpXpXpXpXpXpXpXpXpXpXpXpXpXpXpXpXpXpXpXpXpXpXpXpXpXpXpXpX",
"pXpXpXpXpXpXpXpXpXpXpXqXqXqXqXqXpXpXpXpX5X5X5X5X7X7X7X7X4X4X4X4X4XC.C.C.C.*X*X*X*X X$. X$. XC.C.C.C. X X X X7X7X7X7X8X8X9X9X9XpXpXpXpX<X<X<X<X7X7X7X7XpXpXpXpXpX8X8X8X8XN N N Y N N N N g ;.;.;.;._._._._. . . .-._._._._._.T T T T T T T T E E E E E _ ( ( ( ( ( ( ( ( ( ( ( T T T T T %.%.%.%.E E E E q q q q q 5 5 5 5 : : : : w w w e %.%.%.%.%.5 5 5 5 5 5 5 5 5 5 5 5 5 5 5 5 5 5 5 5 5 5 5 5 5 2 2 5 5 5 5 5 5 5 5 5 5 5 5 5 5 5 5 5 5 5 5 5 5 5 5 5 5 5 5 5 5 5 5 5 5 5 2 2 2 5 5 5 5 5 5 5 2 2 5 5 5 $ $ $ $ $ $ $ $ $ $ $ $ $ % % % % % % % % pXpXpXpXpXpXpXpXpXpXpXpXpXpXpXpXpXpXpXpXpXpXpXpXpXpXpXpXpXpXpXpXpXpXpXpXpXpXpXpXpXpXpXpXpXpXpXpXpXpXpXpXpXpXpXpXpXpXpXpXpXpXpXpXpXpXpXpXpXpXpXpXpXpXpXpXpXpXpXpXpXpXpXpXpXpXpXpXpXpXpXpXpXpXpXpXpXpXpXpXpXpXpXpXpXpXpXpXpXpXpXpXpXpXpXpXpXpXpXpXpXpXpXpXpXpXpX",
"pXpXpXpXpXpXpXpXpXpXpXqXqXqXqXqXpXpXpXpX5X5X5X5X7X7X7X7X4X4X4X4X4XC.C.C.C.*X*X*X*X X$.$.$. XC.C.C.C. X X X X7X7X7X7X8X8X9X9X9XpXpXpXpX<X<X<X<X7X7X7X7XpXpXpXpXpX8X8X8X8XN N N N N N N N N ;.;.;.;._._._._. . . .-._._._._._.T T T T T T T T E E E E E _ ( ( ( ( ( ( ( ( ( ( ( T T T T T %.%.%.%.E E E E q q q q q 5 5 5 5 : : : : w w w e %.%.%.%.%.7 5 5 5 5 5 5 5 5 5 5 5 5 5 5 5 5 5 5 5 5 5 5 5 5 2 2 5 5 5 5 5 5 5 5 5 5 5 5 5 5 5 5 5 5 5 5 5 5 5 5 5 5 5 5 5 5 5 5 5 5 5 5 5 5 5 5 5 5 5 5 5 5 5 5 5 5 $ $ $ $ $ $ $ $ $ $ $ $ $ % % % % % % % % pXpXpXpXpXpXpXpXpXpXpXpXpXpXpXpXpXpXpXpXpXpXpXpXpXpXpXpXpXpXpXpXpXpXpXpXpXpXpXpXpXpXpXpXpXpXpXpXpXpXpXpXpXpXpXpXpXpXpXpXpXpXpXpXpXpXpXpXpXpXpXpXpXpXpXpXpXpXpXpXpXpXpXpXpXpXpXpXpXpXpXpXpXpXpXpXpXpXpXpXpXpXpXpXpXpXpXpXpXpXpXpXpXpXpXpXpXpXpXpXpXpXpXpXpXpXpX",
"pXpXpXpXpXpXpXpXpXpXpXqXqXqXqXqXpXpXpXpX5X5X5X5X7X7X7X7X4X4X4X4X4XC.C.C.C.*X*X*X*X$.$.$.$.$.C.C.C.C. X X X X7X7X7X7X8X8X8X8X8XpXpXpXpX<X<X<X<X7X8X8X7XpXpXpXpXpX8X8X8X8XN N N N N N N N e ;.;.;.;._._._._.-.-. .-._._._._._.T T T T T T T T E E E E E ( ( ( ( ( ( ( ( ( ( ( ( T T T T T %.%.%.%.Q Q Q Q q q q q q 5 5 5 5 : : : : w w w w %.%.%.%.%.5 5 5 5 7 7 5 5 5 5 5 5 5 5 5 5 5 5 5 5 5 5 5 5 5 5 2 2 2 2 5 5 5 5 5 5 5 5 5 5 5 5 5 5 5 5 5 5 5 5 5 5 5 5 5 5 5 5 5 5 5 5 5 5 2 2 5 5 5 5 5 5 5 5 5 5 2 $ $ $ $ $ $ $ $ $ $ $ $ $ % % % % % % % % pXpXpXpXpXpXpXpXpXpXpXpXpXpXpXpXpXpXpXpXpXpXpXpXpXpXpXpXpXpXpXpXpXpXpXpXpXpXpXpXpXpXpXpXpXpXpXpXpXpXpXpXpXpXpXpXpXpXpXpXpXpXpXpXpXpXpXpXpXpXpXpXpXpXpXpXpXpXpXpXpXpXpXpXpXpXpXpXpXpXpXpXpXpXpXpXpXpXpXpXpXpXpXpXpXpXpXpXpXpXpXpXpXpXpXpXpXpXpXpXpXpXpXpXpXpXpX",
"pXpXpXpXpXpXpXpXpXpXpXqXqXqXqXqXpXpXpXpX5X5X5X5X7X7X7X7X4X4X4X4X4XC.C.C.C.*X*X*X*X$.$.$. X$.C.C.C.C. X X X X7X7X7X7X8X8X8X8X8XpXpXpXpX<X<X<X<X7X7X8X8XpXpXpXpXpX8X8X8X8XN N N N N N N N e ;.;.;.;._._._._.;.-. .-._._._._._.T T T T T T T T E E E E E ( ( ( ( ( ( ( ( ( ( ( ( T T T T T %.%.%.%.Q Q Q Q q q q q q 5 5 5 5 : : : : w w w w %.%.%.%.%.5 5 5 5 7 7 5 5 5 5 5 5 5 5 5 5 5 5 5 5 5 5 5 5 5 5 2 2 2 2 5 5 5 5 5 5 5 5 5 5 5 5 5 5 5 5 5 5 5 5 5 5 5 5 5 5 5 5 5 5 5 5 5 5 5 5 5 5 5 5 5 5 5 5 5 5 2 $ $ $ $ $ $ $ $ $ $ $ $ $ % % % % % % % % pXpXpXpXpXpXpXpXpXpXpXpXpXpXpXpXpXpXpXpXpXpXpXpXpXpXpXpXpXpXpXpXpXpXpXpXpXpXpXpXpXpXpXpXpXpXpXpXpXpXpXpXpXpXpXpXpXpXpXpXpXpXpXpXpXpXpXpXpXpXpXpXpXpXpXpXpXpXpXpXpXpXpXpXpXpXpXpXpXpXpXpXpXpXpXpXpXpXpXpXpXpXpXpXpXpXpXpXpXpXpXpXpXpXpXpXpXpXpXpXpXpXpXpXpXpXpX",
"pXpXpXpXpXpXpXpXpXpXpXqXqXqXqXqXpXpXpXpXpXpXpXpX7X7X7X7X2X2X2X2X<XXXXXXXXX-X%X%X%XXXXXXXXXXX#.#.#.#.*X*X*X*X<X<X<X<X-X-X-X-X-X2X2X2X2XpXpXpXpX8X9X9X9XpXpXpXpXpXqXqXqXqX........E E E E E ) ` ` `  . . . .6 6 6 6 V V V V V v v e v T T T T T T T T T E E E E T R R R E E E Q T T T T T ^ ^ ^ ^ ( ( ( ( N N N N N 5 5 5 5 e e e e e e e e 0 0 0 0 0 7 8 8 8 5 5 5 5 5 5 5 5 5 5 5 5 5 5 5 5 5 2 2 2 2 5 5 5 5 5 # # # # d.d.d.d.d.d.d.d.d.d.d.d.d.t t t t Q E E E 2 2 2 2 2 2 2 2 2 2 2 2 2 2 2 2 2 2 2 2 2 2 ; ; ; ; % % % % % % % % % ; ; ; ; ; ; ; ; $ $ $ $ pXpXpXpXpXpXpXpXpXpXpXpXpXpXpXpXpXpXpXpXpXpXpXpXpXpXpXpXpXpXpXpXpXpXpXpXpXpXpXpXpXpXpXpXpXpXpXpXpXpXpXpXpXpXpXpXpXpXpXpXpXpXpXpXpXpXpXpXpXpXpXpXpXpXpXpXpXpXpXpXpXpXpXpXpXpXpXpXpXpXpXpXpXpXpXpXpXpXpXpXpXpXpXpXpXpXpXpXpXpXpXpXpXpXpXpXpXpXpXpXpXpXpX",
"pXpXpXpXpXpXpXpXpXpXpXqXqXqXqXqXpXpXpXpXpXpXpXpX7X7X7X7X2X2X2X2X2XXXXXXXXX-X%X%X-XXXXXXXXXXX#.#.#.#.*X*X*X*X<X<X<X<X-X-X-X-X-X2X2X2X2XpXpXpXpX8X9X9X9XpXpXpXpXpXqXqXqXqX........E E E E E ) ` ` `  . . . .6 6 6 6 V V V V V v v e e T T T T T T T T T E E E E R R R R E E E Q T T T T T ^ ^ ^ ^ ( ( ( ( N N N N N 5 5 5 5 e e e e e e e e 0 0 0 0 0 7 7 8 8 5 5 5 5 5 5 5 5 5 5 5 5 5 5 5 5 5 2 2 2 2 5 5 5 5 5 # # # # d.d.d.d.d.d.d.d.d.d.d.d.d.t t t t Q E E E 2 2 2 2 2 2 2 2 2 2 2 2 2 2 2 2 2 2 2 2 2 2 ; ; ; ; % % % % % % % % % ; ; ; ; ; ; ; ; $ $ $ $ pXpXpXpXpXpXpXpXpXpXpXpXpXpXpXpXpXpXpXpXpXpXpXpXpXpXpXpXpXpXpXpXpXpXpXpXpXpXpXpXpXpXpXpXpXpXpXpXpXpXpXpXpXpXpXpXpXpXpXpXpXpXpXpXpXpXpXpXpXpXpXpXpXpXpXpXpXpXpXpXpXpXpXpXpXpXpXpXpXpXpXpXpXpXpXpXpXpXpXpXpXpXpXpXpXpXpXpXpXpXpXpXpXpXpXpXpXpXpXpXpXpXpX",
"pXpXpXpXpXpXpXpXpXpXpXqXqXqXqXqXpXpXpXpXpXpXpXpX7X7X7X7X2X2X2X2X2XXXXXXXXX%X%X%X-XXXXXXXXXXX#.#.#.#.*X*X*X*X<X<X<X<X-X-X-X-X-X2X2X2X2XpXpXpXpX8X9X9X8XpXpXpXpXpXqXqXqXqX........E E E E E ` ` ` `  . . . .6 6 6 6 V V V V V e e e e T T T T T T T T T E E E E R R R T E E E E T T T T T ^ ^ ^ ^ ( ( ( ( N N N N N 5 5 5 5 e e e e e e e e 0 0 0 0 0 8 8 8 8 5 5 5 5 5 5 5 5 5 5 5 5 5 5 5 5 5 2 2 2 2 5 5 5 5 5 + + + + d.d.d.d.d.d.d.d.d.d.d.d.d.t t t t E E E E 2 2 2 2 2 2 2 2 2 2 2 2 2 2 2 2 2 2 2 2 2 2 ; ; ; ; % % % % % % % % % ; ; ; ; ; ; ; ; $ $ $ $ pXpXpXpXpXpXpXpXpXpXpXpXpXpXpXpXpXpXpXpXpXpXpXpXpXpXpXpXpXpXpXpXpXpXpXpXpXpXpXpXpXpXpXpXpXpXpXpXpXpXpXpXpXpXpXpXpXpXpXpXpXpXpXpXpXpXpXpXpXpXpXpXpXpXpXpXpXpXpXpXpXpXpXpXpXpXpXpXpXpXpXpXpXpXpXpXpXpXpXpXpXpXpXpXpXpXpXpXpXpXpXpXpXpXpXpXpXpXpXpXpXpXpX",
"pXpXpXpXpXpXpXpXpXpXpXqXqXqXqXqXpXpXpXpXpXpXpXpX7X7X7X7X2X2X2X2X2XXXXXXXXX%X%X%X-XXXXXXXXXXX#.#.#.#.*X*X*X*X<X<X<X<X-X-X-X-X-X2X2X2X2XpXpXpXpX8X9X9X8XpXpXpXpXpXqXqXqXqX........E E E E E ) ` ` )  . . . .6 6 6 6 V V V V V e e e e T T T T T T T T T R E E E R T R R E E E E T T T T T ^ ^ ^ ^ ( ( ( ( N N N N N 5 5 5 5 e e e e e e e e 0 0 0 0 0 8 8 8 8 5 5 5 5 5 5 5 5 5 5 5 5 5 5 5 5 5 2 2 2 2 5 5 5 5 5 + + + + d.d.d.d.d.d.d.d.d.d.d.d.d.t t t t E E E E 2 2 2 2 2 2 2 2 2 2 2 2 2 2 2 2 2 2 2 2 2 2 ; ; ; ; % % % % % % % % % ; ; ; ; ; ; ; ; $ $ $ $ pXpXpXpXpXpXpXpXpXpXpXpXpXpXpXpXpXpXpXpXpXpXpXpXpXpXpXpXpXpXpXpXpXpXpXpXpXpXpXpXpXpXpXpXpXpXpXpXpXpXpXpXpXpXpXpXpXpXpXpXpXpXpXpXpXpXpXpXpXpXpXpXpXpXpXpXpXpXpXpXpXpXpXpXpXpXpXpXpXpXpXpXpXpXpXpXpXpXpXpXpXpXpXpXpXpXpXpXpXpXpXpXpXpXpXpXpXpXpXpXpXpXpX",
"pXpXpXpXpXpXpXpXpXpXpX9X9X9X9X9XpXpXpXpXpXpXpXpXpXpXpXpX<X<X<X<X<XpXpXpXpX%X%X%X%X9X8X8X8X8XuXuXuXuXrXrXrXrX9X9X9X9XpXpXpXpXpXpXpXpXpX9X9X9X9XpXpXpXpXwXwXwXwXwX9X9X8X8X$X$X$X$Xe e e e e cXcXcXcX! ! ! ! nXnXnXnX! ! ! ! ! 5 5 5 5 T T T T T T T T T &.&.&.&.T T T T *.*.*.*.T T T T T T T T T _ _ _ _ Y Y Y Y Y e e e e e e e e e e e e e e e e e 0 0 0 0 5 5 5 5 2 2 2 2 2 2 2 2 2 2 2 2 2 2 2 2 2 1 2 2 2 2 # # # # $ $ $ $ % % % % % % $ $ % $ $ $ $ % % % % 5 5 5 5 5 2 2 2 2 1 1 1 1 1 1 1 1 1 1 1 1 1 1 1 1 1 1 1 1 1 : : : : : 1 1 1 1 1 1 1 1 1 1 1 1 < < < < < pXpXpXpXpXpXpXpXpXpXpXpXpXpXpXpXpXpXpXpXpXpXpXpXpXpXpXpXpXpXpXpXpXpXpXpXpXpXpXpXpXpXpXpXpXpXpXpXpXpXpXpXpXpXpXpXpXpXpXpXpXpXpXpXpXpXpXpXpXpXpXpXpXpXpXpXpXpXpXpXpXpXpXpXpXpXpXpXpXpXpXpXpXpXpXpXpXpXpXpXpXpXpXpXpXpXpXpXpXpXpXpXpXpXpXpXpXpX",
"pXpXpXpXpXpXpXpXpXpXpX9X9X9X9X9XpXpXpXpXpXpXpXpXpXpXpXpX<X<X<X<X<XpXpXpXpX%X%X%X%X9X8X8X8X8XuXuXuXuXrXrXrXrX9X9X9X9XpXpXpXpXpXpXpXpXpX9X9X9X9XpXpXpXpXwXwXwXwXwX9X9X9X8X$X$X$X$Xe e e e e cXcXcXcX! ! ! ! nXnXnXnX! ! ! ! ! 5 5 5 5 T T T T T T T T T &.&.&.&.T T T T *.*.*.*.T T T T T T T T T _ _ _ _ Y Y Y Y Y e e e e e e e e e e e e e e e e e 0 0 0 0 5 5 2 2 2 2 2 2 2 2 2 2 2 2 2 2 2 2 2 2 2 1 2 2 2 2 # # # # $ $ $ $ % % % % % % % % % $ $ $ $ % % % % 5 5 5 5 5 2 2 2 2 1 1 1 1 1 1 1 1 1 1 1 1 1 1 1 1 1 1 1 1 1 : : : : : 1 1 1 1 1 1 1 1 1 1 1 1 < < < < < pXpXpXpXpXpXpXpXpXpXpXpXpXpXpXpXpXpXpXpXpXpXpXpXpXpXpXpXpXpXpXpXpXpXpXpXpXpXpXpXpXpXpXpXpXpXpXpXpXpXpXpXpXpXpXpXpXpXpXpXpXpXpXpXpXpXpXpXpXpXpXpXpXpXpXpXpXpXpXpXpXpXpXpXpXpXpXpXpXpXpXpXpXpXpXpXpXpXpXpXpXpXpXpXpXpXpXpXpXpXpXpXpXpXpXpXpXpX",
"pXpXpXpXpXpXpXpXpXpXpX9X9X9X9X9XpXpXpXpXpXpXpXpXpXpXpXpX<X<X<X<X<XpXpXpXpX%X%X%X%X8X8X8X8X8XuXuXuXuXrXrXrXrXqXqX9X9XpXpXpXpXpXpXpXpXpX9X9X9X8XpXpXpXpXwXwXwXwXwX8X8X8X8X$X$X$X$Xe e e e e cXcXcXcX! ! ! ! nXnXnXnX~ ~ ! ! ! 5 5 5 5 T T T T T T T T T &.&.&.&.T T T T *.*.*.*.T T T T T T T T T _ _ _ _ Y Y Y Y Y e e e e e e e e e e e e e e e e e 0 0 0 0 5 5 5 5 2 2 2 2 2 2 5 5 5 2 2 2 2 2 2 2 2 1 1 1 1 1 $ $ # # $ $ % % % % $ $ $ % % % % $ $ $ $ % % % % 5 5 5 5 5 2 2 2 2 1 1 1 1 1 1 1 1 1 1 1 1 1 1 1 1 1 1 1 1 1 : : : : : 1 1 1 1 1 1 1 1 1 1 1 1 < < < < < pXpXpXpXpXpXpXpXpXpXpXpXpXpXpXpXpXpXpXpXpXpXpXpXpXpXpXpXpXpXpXpXpXpXpXpXpXpXpXpXpXpXpXpXpXpXpXpXpXpXpXpXpXpXpXpXpXpXpXpXpXpXpXpXpXpXpXpXpXpXpXpXpXpXpXpXpXpXpXpXpXpXpXpXpXpXpXpXpXpXpXpXpXpXpXpXpXpXpXpXpXpXpXpXpXpXpXpXpXpXpXpXpXpXpXpXpXpX",
"pXpXpXpXpXpXpXpXpXpXpX9X9X9X9X9XpXpXpXpXpXpXpXpXpXpXpXpX<X<X<X<X<XpXpXpXpX%X%X%X%X8X8X8X9X9XuXuXuXuXrXrXrXrX9XqX9X9XpXpXpXpXpXpXpXpXpX9X9X9X9XpXpXpXpXwXwXwXwXwX8X8X8X8X$X$X$X$Xe e e e e cXcXcXcX! ! ! ! nXnXnXnX~ ! ! ! ! 5 5 5 5 T T T T T T T T T &.&.&.&.T T T T *.*.*.*.T T T T T T T T T _ _ _ _ Y Y Y Y Y e e e e e e e e e e e e e e e e e 0 0 0 0 5 5 5 5 2 2 2 2 2 2 5 5 5 2 2 2 2 2 2 2 2 1 1 1 1 1 $ $ # # $ $ % % % % $ $ % % % % % $ $ $ $ % % % % 5 5 5 5 5 2 2 2 2 1 1 1 1 1 1 1 1 1 1 1 1 1 1 1 1 1 1 1 1 1 : : : : : 1 1 1 1 1 1 1 1 1 1 1 1 < < < < < pXpXpXpXpXpXpXpXpXpXpXpXpXpXpXpXpXpXpXpXpXpXpXpXpXpXpXpXpXpXpXpXpXpXpXpXpXpXpXpXpXpXpXpXpXpXpXpXpXpXpXpXpXpXpXpXpXpXpXpXpXpXpXpXpXpXpXpXpXpXpXpXpXpXpXpXpXpXpXpXpXpXpXpXpXpXpXpXpXpXpXpXpXpXpXpXpXpXpXpXpXpXpXpXpXpXpXpXpXpXpXpXpXpXpXpXpXpX",
"pXpXpXpXpXpXpXpXpXpXpX8X8X8X8X8X5X5X5X5X<X<X<X<XpXpXpXpX5X5X5X5X5X5X5X5X5X5X5X5X5XpXpXpXpXpX2X2X2X2XpXpXpXpXpXpXpXpXpXpXpXpXpXqXqXqXqX8X8X8X8XrXrX4XrXpXpXpXpXpX4X4X4X4X X X X X: : : : : cXcXcXcXB B B B nXnXnXnXxXxXxXxXxX5 5 5 5 Y Y Y Y Y Y Y Y Y *.&.&.&.R R R R dXdXdXdXT T T T T Y Y Y Y ( ( ( ( E E E E E Y Y Y Y Y Y Y Y e e e e e e e e e e e e e 0 0 0 0 7 7 7 7 5 5 5 7 5 5 5 5 5 5 5 5 5 5 7 7 7 7 7 7 7 7 5 5 5 7 5 5 5 5 5 5 5 5 5 5 5 5 5 5 5 5 5 5 5 5 5 5 5 5 5 5 5 5 2 5 5 5 5 5 2 2 2 2 2 2 2 2 2 2 2 2 2 2 2 2 2 2 2 2 2 2 2 2 2 2 1 1 1 1 2 2 2 2 2 pXpXpXpXpXpXpXpXpXpXpXpXpXpXpXpXpXpXpXpXpXpXpXpXpXpXpXpXpXpXpXpXpXpXpXpXpXpXpXpXpXpXpXpXpXpXpXpXpXpXpXpXpXpXpXpXpXpXpXpXpXpXpXpXpXpXpXpXpXpXpXpXpXpXpXpXpXpXpXpXpXpXpXpXpXpXpXpXpXpXpXpXpXpXpXpXpXpXpXpXpXpXpXpXpXpXpXpXpXpXpXpXpXpXpXpXpXpX",
"pXpXpXpXpXpXpXpXpXpXpX8X8X8X8X8X5X5X5X5X<X<X<X<XpXpXpXpX5X5X5X5X5X5X5X5X5X5X5X5X5XpXpXpXpXpX2X2X2X2XpXpXpXpXpXpXpXpXpXpXpXpXpXqXqXqXqX8X8X8X8XrXrXrXrXpXpXpXpXpX4X4X4X4X X X X X: : : : : cXcXcXcXN B B B nXnXnXnXxXxXxXxXxX5 5 5 5 Y Y Y Y Y Y Y Y Y *.&.&.&.R R R R dXdXdXdXT T T T T Y Y Y Y ( ( ( ( E E E E E Y Y Y Y Y Y Y Y e e e e e e e e e e e e e 0 0 0 0 7 7 7 7 5 5 5 5 5 5 5 5 5 5 5 5 5 5 7 7 7 7 7 7 7 5 5 5 5 5 5 5 5 5 5 5 5 5 5 5 5 5 5 5 5 5 5 5 5 5 5 5 5 5 5 5 5 5 5 5 5 5 5 5 2 2 2 2 2 2 2 2 2 2 2 2 2 2 2 2 2 2 2 2 2 2 2 2 2 2 1 1 1 1 2 2 2 2 2 pXpXpXpXpXpXpXpXpXpXpXpXpXpXpXpXpXpXpXpXpXpXpXpXpXpXpXpXpXpXpXpXpXpXpXpXpXpXpXpXpXpXpXpXpXpXpXpXpXpXpXpXpXpXpXpXpXpXpXpXpXpXpXpXpXpXpXpXpXpXpXpXpXpXpXpXpXpXpXpXpXpXpXpXpXpXpXpXpXpXpXpXpXpXpXpXpXpXpXpXpXpXpXpXpXpXpXpXpXpXpXpXpXpXpXpXpXpX",
"pXpXpXpXpXpXpXpXpXpXpX8X8X8X8X8X5X5X5X5X<X<X<X<XpXpXpXpX5X5XrX5X5X5X5X5X5X5X5X5X5XpXpXpXpXpX2X2X2X2XpXpXpXpXpXpXpXpXpXpXpXpXpXqXqXqXqX8X8X8X8XrXrXrXrXpXpXpXpXpX4X4X4XrXoX$.$.$.: : : : : cXcXcXcXB B B B nXnXnXnXkXkXkXxXxX5 5 5 5 Y Y Y Y Y Y Y Y Y *.*.*.*.R R R R dXdXdXdXT T T T T Y Y Y Y ( ( ( ( E E E E E Y Y Y Y N N N Y e e e e e e e e e e e e e q q 0 0 7 7 7 7 7 7 5 5 5 5 5 5 5 5 5 5 5 5 7 7 7 5 5 5 5 7 7 7 7 7 5 5 5 5 5 5 5 5 5 5 5 5 5 5 5 5 5 5 5 5 5 5 5 5 5 5 5 5 5 5 5 5 5 5 2 2 2 2 2 2 2 2 2 2 2 2 2 2 2 2 2 2 2 2 2 2 2 2 2 2 1 1 1 1 2 2 2 2 2 pXpXpXpXpXpXpXpXpXpXpXpXpXpXpXpXpXpXpXpXpXpXpXpXpXpXpXpXpXpXpXpXpXpXpXpXpXpXpXpXpXpXpXpXpXpXpXpXpXpXpXpXpXpXpXpXpXpXpXpXpXpXpXpXpXpXpXpXpXpXpXpXpXpXpXpXpXpXpXpXpXpXpXpXpXpXpXpXpXpXpXpXpXpXpXpXpXpXpXpXpXpXpXpXpXpXpXpXpXpXpXpXpXpXpXpXpXpX",
"pXpXpXpXpXpXpXpXpXpXpX8X8X8X8X8X5X5X5X5X<X<X<X<XpXpXpXpX5XrXrX5X5X5X5X5X5X5X5X5X5XpXpXpXpXpX2X2X2X2XpXpXpXpXpXpXpXpXpXpXpXpXpXqX9XqXqX8X8X8X8XrXrXrXrXpXpXpXpXpX4X4X4XrXoXoX$.$.: : : : : cXcXcXcXB B B B nXnXnXnXkXkXkXxXxX5 5 5 5 Y Y Y Y Y Y Y Y Y *.*.*.*.R R R R dXdXdXdXT T T T T Y Y Y Y ( ( ( ( E E E E E Y Y Y Y N N N Y e e e e e e e e e e e e e q q 0 0 7 7 7 7 7 7 5 5 5 5 7 5 5 5 5 5 5 5 7 7 5 5 5 5 5 7 7 7 7 7 5 5 5 5 5 5 5 5 5 5 5 5 5 5 5 5 5 5 5 5 5 5 5 5 5 5 5 5 5 5 5 5 5 5 2 2 2 2 2 2 2 2 2 2 2 2 2 2 2 2 2 2 2 2 2 2 2 2 2 2 1 1 1 1 2 2 2 2 2 pXpXpXpXpXpXpXpXpXpXpXpXpXpXpXpXpXpXpXpXpXpXpXpXpXpXpXpXpXpXpXpXpXpXpXpXpXpXpXpXpXpXpXpXpXpXpXpXpXpXpXpXpXpXpXpXpXpXpXpXpXpXpXpXpXpXpXpXpXpXpXpXpXpXpXpXpXpXpXpXpXpXpXpXpXpXpXpXpXpXpXpXpXpXpXpXpXpXpXpXpXpXpXpXpXpXpXpXpXpXpXpXpXpXpXpXpXpX",
"pXpXpXpXpXpXpXqXqXqXqXpXpXpXpXpXpXpXpXpXpXpXpXpXqXqXqXqX-X-X-X-X-X2X2X2X2XpXpXpXpX>X>X>X>X>XpXpXpXpXpXpXpXpX5X5X5X5XpXpXpXpXpXpXpXpXpX9XqXqX9XpXpXpXpXwXpXpXwXwX8X8X8X8XtXtXtXtX! ! ! ! ! /./././.).).).).L.L.L.L.jXjXjXjXjXE E E E T T T T Y Y Y Y Y :.).P.sXT R R R         Y Y Y Y Y Y Y Y Y Y Y T T :.Q.:.:.:.:.:.:.:.dXdXdXdXbXbXbXbXmXmXmXmXmXmXmXmXmXmXmXmXmXmXmXmXmXnXnXnXnXnXkXkXkXkXdXdXdXdXsXsXsXsXsX=.=.=.=.q q q 0 ( ( ( ( / / / / / v v v v 7 7 7 7 5 5 5 5 5 : : : : %.%.%.%.^ ^ ^ ^ 0 0 0 0 0 1 1 1 1 1 1 1 1 % % % % % $ $ $ $ # # # # . . . . X X X X X F F F F pXpXpXpXpXpXpXpXpXpXpXpXpXpXpXpXpXpXpXpXpXpXpXpXpXpXpXpXpXpXpXpXpXpXpXpXpXpXpXpXpXpXpXpXpXpXpXpXpXpXpXpXpXpXpXpXpXpXpXpXpXpXpXpXpXpXpXpXpXpXpXpXpXpXpXpXpXpXpXpXpXpXpXpXpXpXpXpXpXpXpXpXpXpXpXpXpXpXpXpXpXpXpXpXpXpXpXpXpXpXpXpXpXpX",
"pXpXpXpXpXpXpXqXqXqXqXpXpXpXpXpXpXpXpXpXpXpXpXpXqXqXqXqX-X-X-X-X-X2X2X2X2XpXpXpXpX>X>X>X>X>XpXpXpXpXpXpXpXpX5X5X5X5XpXpXpXpXpXpXpXpXpX9XqXqXqXpXpXpXpXwXwXpXwXwX8X8X8X7XtXtXtXtX! ! ! ! ! /./././.).).).).L.L.L.L.jXjXjXjXjXE E E E T T T T Y Y Y Y Y :.:.:.sXT R R R         Y Y Y Y Y Y Y Y Y Y T T T Q.:.:.:.:.:.:.:.:.dXdXdXdXbXbXbXbXmXmXmXmXmXmXmXmXmXmXmXmXmXmXmXmXmXnXnXnXnXnXkXkXkXkXdXdXdXdXsXsXsXsXsX=.=.=.=.0 0 q 0 ( ( ( ( / / / / / v v v v 7 7 7 7 5 5 5 5 5 : : : : %.%.%.%.^ ^ ^ ^ 0 0 0 0 0 1 1 1 1 1 1 1 1 % % % % % $ $ $ $ # # # # . . . . X X X X X F F F F pXpXpXpXpXpXpXpXpXpXpXpXpXpXpXpXpXpXpXpXpXpXpXpXpXpXpXpXpXpXpXpXpXpXpXpXpXpXpXpXpXpXpXpXpXpXpXpXpXpXpXpXpXpXpXpXpXpXpXpXpXpXpXpXpXpXpXpXpXpXpXpXpXpXpXpXpXpXpXpXpXpXpXpXpXpXpXpXpXpXpXpXpXpXpXpXpXpXpXpXpXpXpXpXpXpXpXpXpXpXpXpXpXpX",
"pXpXpXpXpXpXpXqXqXqXqXpXwXwXwXpXpXpXpXpXpXpXpXpXqXqXqXqX-X-X-X-X-X2X2X2X2XpXpXpXpX>X>X>X>X>XpXpXpXpXpXpXpXpX5X5X5X5XpXpXpXpXpXpXpXpXpX9X9X9X9XpXpXpXpXpXwXwXwXwX8X8X8X8XtXtXtXtX! ! ! ! ! /./././.).).).).L.L.L.L.jXjXjXjXjXE E E E T T T T Y Y Y Y Y Q.:.:.:.T R R T         Y Y Y Y Y Y Y Y Y T T T T :.:.:.:.Q.:.:.:.:.dXdXdXdXbXbXbXbXmXmXmXmXmXmXmXmXmXmXmXmXmXmXmXmXmXnXnXnXnXnXkXkXkXkXdXdXdXfXsXsXsXsXsX=.=.=.=.0 0 0 0 ( ( ( ( / / / / / v v v v 7 7 7 7 5 5 5 5 5 : : : : %.%.%.%.^ ^ ^ ^ 0 0 0 0 0 1 1 1 1 1 1 1 1 % % % % % $ $ $ $ # # # # . . . X X X X X X F F F F pXpXpXpXpXpXpXpXpXpXpXpXpXpXpXpXpXpXpXpXpXpXpXpXpXpXpXpXpXpXpXpXpXpXpXpXpXpXpXpXpXpXpXpXpXpXpXpXpXpXpXpXpXpXpXpXpXpXpXpXpXpXpXpXpXpXpXpXpXpXpXpXpXpXpXpXpXpXpXpXpXpXpXpXpXpXpXpXpXpXpXpXpXpXpXpXpXpXpXpXpXpXpXpXpXpXpXpXpXpXpXpXpXpX",
"pXpXpXpXpXpXpXqXqXqXqXpXpXpXwXwXpXpXpXpXpXpXpXpXqXqXqXqX-X-X-X-X-X2X2X2X2XpXpXpXpX>X>X>X>X>XpXpXpXpXpXpXpXpX5X5X5X5XpXpXpXpXpXpXpXpXpX9X9X9X9XpXpXpXpXpXwXwXwXwX8X8X8X8XtXtXtXtX! ! ! ! ! /./././.).).).).L.L.L.L.jXjXjXjXjXE E E E T T T T Y Y Y Y Y Q.Q.Q.:.T R R T         Y Y Y Y Y Y Y Y Y T T T T Q.:.Q.:.:.:.:.:.:.dXdXdXdXbXbXbXbXmXmXmXmXmXmXmXmXmXmXmXmXmXmXmXmXmXnXnXnXnXnXkXkXkXkXdXfXfXfXsXsXsXsXsX=.=.=.=.0 0 0 0 ( ( ( ( / / / / / v v v v 7 7 7 7 5 5 5 5 5 : : ; : %.%.%.%.^ ^ ^ ^ 7 7 0 0 0 1 1 1 1 1 1 1 1 % % % % % $ $ $ $ # # # # . . . . X X X X X F F F F pXpXpXpXpXpXpXpXpXpXpXpXpXpXpXpXpXpXpXpXpXpXpXpXpXpXpXpXpXpXpXpXpXpXpXpXpXpXpXpXpXpXpXpXpXpXpXpXpXpXpXpXpXpXpXpXpXpXpXpXpXpXpXpXpXpXpXpXpXpXpXpXpXpXpXpXpXpXpXpXpXpXpXpXpXpXpXpXpXpXpXpXpXpXpXpXpXpXpXpXpXpXpXpXpXpXpXpXpXpXpXpXpXpX",
"pXpXpXpXpXpXpXqXqXqXqXpXpXpXpXpXpXpXpXpXpXpXpXpXqXqXqXqX-X-X-X-X-X2X2X2X2XpXpXpXpX>X>X>X>X>XpXpXpXpXpXpXpXpX5X5X5X5XpXpXpXpXpXpXpXpXpX9X9X9X9XpXpXpXpXpXwXwXwXwX8X8X8X8XtXtXtXtX! ! ! ! ! /./././.).).).).L.L.L.L.jXjXjXjXjXE E E E T T T T Y Y Y Y Y Q.Q.Q.Q.R R R T         Y Y Y Y Y Y Y Y Y T T T T Q.:.:.:.:.:.:.:.:.dXdXdXdXbXbXbXbXmXmXmXmXmXmXmXmXmXmXmXmXmXmXmXmXmXnXnXbXbXnXkXkXkXkXdXfXfXfXsXsXsXsXsX=.=.=.=.0 0 0 0 ( ( ( ( / / / / / v v v v 7 7 7 7 5 5 5 5 5 : : 1 ; %.%.%.%.^ ^ ^ ^ 7 7 0 0 0 1 1 1 1 1 1 1 1 % % % % % $ $ $ $ # # # # . . . . X X X X X F F F F pXpXpXpXpXpXpXpXpXpXpXpXpXpXpXpXpXpXpXpXpXpXpXpXpXpXpXpXpXpXpXpXpXpXpXpXpXpXpXpXpXpXpXpXpXpXpXpXpXpXpXpXpXpXpXpXpXpXpXpXpXpXpXpXpXpXpXpXpXpXpXpXpXpXpXpXpXpXpXpXpXpXpXpXpXpXpXpXpXpXpXpXpXpXpXpXpXpXpXpXpXpXpXpXpXpXpXpXpXpXpXpXpXpX",
"pXpXpXpXpXpXpXpXpXpXpX5X5X5X5X5X>X>X>X>XrXrXrXrX$X$X$X$X#.#.#.#.#.-X-X-X-XpXpXpXpX5X5X5X5X5X<X<X<X<XpXpXpXpX7X7X8X8X9X9X9X9X9XpXpXpXpXpXpXpXpXpXpXpXpXpXpXpXpXpX4X4X4X4XrX4X4X2X..........[ [ [ [ L.L.L.L.[ [ [ [ -.-.-.-.-.N N N N Y Y Y Y Y Y Y Y Y :.:.:.:.R R R R         } { { { { Y Y Y Y Y Y Y Y Y Y Y Y Y *.*.*.&.^ ^ ^ Q 0 0 0 q E E E E E mXmXmXmXmXmXmXmXmXmXmXmXnXnXbXbXbXkXbXbXbXdXdXfXfXsXsXsXsXsX=.=.=.=.1 1 1 1 &.&.&.&.E E E E E e e e e 7 7 7 7 5 5 5 5 5 % % % % N N N N 2 2 2 2 % % ; ; ; % % % % % % % % $ $ $ $ $ + + + + Y Y Y Y e e e e 2 5 5 5 2 X X X X pXpXpXpXpXpXpXpXpXpXpXpXpXpXpXpXpXpXpXpXpXpXpXpXpXpXpXpXpXpXpXpXpXpXpXpXpXpXpXpXpXpXpXpXpXpXpXpXpXpXpXpXpXpXpXpXpXpXpXpXpXpXpXpXpXpXpXpXpXpXpXpXpXpXpXpXpXpXpXpXpXpXpXpXpXpXpXpXpXpXpXpXpXpXpXpXpXpXpXpXpXpXpXpXpXpXpXpXpXpXpXpXpXpX",
"pXpXpXpXpXpXpXpXpXpXpX5X5X5X5X5X>X>X>X>X5X5XrXrX$X$X@X@X#.#.#.#.#.-X-X-X-XpXpXpXpX5X5X5X5X5X<X<X<X<XpXpXpXpX7X7X8X8X9X9X9X9X9XpXpXpXpXpXpXpXpXpXpXpXpXpXpXpXpXpX4X4X4X4X5X5X4X2X..........[ [ [ [ L.L.L.L.[ [ [ [ -.-.-.-.-.N N N N Y Y Y Y Y Y Y Y Y :.:.:.:.R R R T         } { { { { Y Y Y Y Y Y Y Y Y Y Y Y Y &.&.&.&.^ ^ ^ Q 0 q q q E E E E E mXmXmXmXmXmXmXmXmXmXmXmXnXnXbXbXnXbXkXkXkXdXdXdXfXsXsXsXsXsX=.=.=.=.1 1 1 1 &.&.&.&.E E E E E e e e e 7 7 7 7 5 5 5 5 5 % % % % N N N N 2 2 2 2 % % % % ; % % % % % % % % $ $ $ $ $ + + + + Y Y Y Y e e e e 5 5 5 5 5 X X X X pXpXpXpXpXpXpXpXpXpXpXpXpXpXpXpXpXpXpXpXpXpXpXpXpXpXpXpXpXpXpXpXpXpXpXpXpXpXpXpXpXpXpXpXpXpXpXpXpXpXpXpXpXpXpXpXpXpXpXpXpXpXpXpXpXpXpXpXpXpXpXpXpXpXpXpXpXpXpXpXpXpXpXpXpXpXpXpXpXpXpXpXpXpXpXpXpXpXpXpXpXpXpXpXpXpXpXpXpXpXpXpXpXpX",
"pXpXpXpXpXpXpXpXpXpXpX5X5X5X5X5X>X>X>X>X5X5XrXrX$X$X@X@X#.#.#.#.#.-X-X-X-XpXpXpXpX5X5X5X5X5X<X<X<X<XpXpXpXpX7X7X7X8X9X9X9X9X9XpXpXpXpXpXpXpXpXpXpXpXpXpXpXpXpXpX4X4X4X4X5X5XrX5X..........[ [ [ [ L.L.L.L.[ [ [ [ -.-.-.-.-.N N N N Y Y Y Y Y Y Y Y Y :.:.:.:.R R R T         } { { { { Y Y Y Y Y Y Y Y Y Y Y Y Y &.&.&.&.^ ^ ^ Q 0 q q q E E E E E mXmXmXmXmXVXmXmXmXmXmXmXnXnXnXnXnXbXkXkXkXdXdXdXfXsXsXsXsXsX=.=.=.=.1 1 1 1 &.&.&.&.E E E E E e e e e 7 7 7 7 5 5 5 5 5 % % % % N N N N 2 2 2 2 % % % % ; % % % % % % % % $ $ $ $ $ + + + + Y Y Y Y e e e e 5 5 5 5 5 X X X X pXpXpXpXpXpXpXpXpXpXpXpXpXpXpXpXpXpXpXpXpXpXpXpXpXpXpXpXpXpXpXpXpXpXpXpXpXpXpXpXpXpXpXpXpXpXpXpXpXpXpXpXpXpXpXpXpXpXpXpXpXpXpXpXpXpXpXpXpXpXpXpXpXpXpXpXpXpXpXpXpXpXpXpXpXpXpXpXpXpXpXpXpXpXpXpXpXpXpXpXpXpXpXpXpXpXpXpXpXpXpXpXpXpX",
"pXpXpXpXpXpXpXpXpXpXpX5X5X5X5X5X>X>X>X>X5X5X5XrX$X$X@X@X#.#.#.#.#.-X-X-X-XpXpXpXpX5X5X5X5X5X<X<X<X<XpXpXpXpX7X7X7X7X9X9X9X9X9XpXpXpXpXpXpXpXpXpXpXpXpXpXpXpXpXpX4X4X4X4X5X5X5X5X..........[ [ [ [ L.L.L.L.[ [ [ [ -.-.-.-.| N N N N Y Y Y Y Y Y Y Y Y :.:.:.:.R R R R         } { { { { Y Y Y Y Y Y Y Y Y Y Y Y Y &.&.&.&.^ ^ ^ Q 0 q q q E R R E E mXmXmXmXmXVXmXmXmXmXmXmXbXnXnXnXnXbXkXkXkXdXdXdXdXsXsXsXsXsX=.=.=.=.1 1 1 1 &.&.&.&.E E E E E e e e e 7 7 7 7 5 5 5 5 5 % % % % Y N N N 2 2 2 2 % % % ; ; % % % % % % % % $ $ $ $ $ + + + + Y Y Y Y e e e e 2 2 2 5 5 X X X X pXpXpXpXpXpXpXpXpXpXpXpXpXpXpXpXpXpXpXpXpXpXpXpXpXpXpXpXpXpXpXpXpXpXpXpXpXpXpXpXpXpXpXpXpXpXpXpXpXpXpXpXpXpXpXpXpXpXpXpXpXpXpXpXpXpXpXpXpXpXpXpXpXpXpXpXpXpXpXpXpXpXpXpXpXpXpXpXpXpXpXpXpXpXpXpXpXpXpXpXpXpXpXpXpXpXpXpXpXpXpXpXpXpX",
"pXpXpXpXpXpXpXpXpXpXpXpXpXpXpXpX4X4X4X4X9X9X9X9XXXXXXXXXC.C.C.C.C.tXtXtXtXpXpXpXpXqXqXqXqXqX<X<X<X<X7X7X7X7X9X9X9X9XpXpXpXpXpXwXwXwXwXwXwXwXwX9X9X9X9XpXpXpXpXpX7X7X7X7XpXpXpXpX<X<X<X<X<X| | | | /./././.Z Z Z W B B B B B v v N N Y Y Y Y Y Y Y Y Y :.:.:.:.N N N N         ;.-.-.-.-.3 3 3 3 Y Y Y Y Y Y Y Y Y DXDXDXDXbXbXbXkXbXbXbXbXnXnXnXnXnXe e e e DXDXDXDXmXmXmXmXbXbXbXbXbXbXkXkXhXdXdXdXdXsXsXsXsXsX=.=.=.=.5 2 2 2 *.*.*.*.E E E E E e e e e 7 7 7 7 5 5 5 5 5 $ $ $ $ q q q q 1 1 1 1 % % % % % % $ $ $ $ $ $ $ $ $ $ $ $ X X X X 5 5 5 5 # # # # # # # # # X X X X pXpXpXpXpXpXpXpXpXpXpXpXpXpXpXpXpXpXpXpXpXpXpXpXpXpXpXpXpXpXpXpXpXpXpXpXpXpXpXpXpXpXpXpXpXpXpXpXpXpXpXpXpXpXpXpXpXpXpXpXpXpXpXpXpXpXpXpXpXpXpXpXpXpXpXpXpXpXpXpXpXpXpXpXpXpXpXpXpXpXpXpXpXpXpXpXpXpXpXpXpXpXpXpXpXpXpXpXpXpXpXpXpXpX",
"pXpXpXpXpXpXpXpXpXpXpXpXpXpXpXpXrXrXrXrX9X9X9X9X@X@X@X@XC.C.C.C.C.tXtXtXtXpXpXpXpXqXqXqXqXqX<X<X<X<X7X7X7X7X9X9X9X9XpXpXpXpXpXwXwXwXwXwXwXwXwX9X9X9X9XpXpXpXpXpX7X7X7X7XpXpXpXpX<X<X<X<X<X| | | | _._././.W W W W B B B B B N N N N Y Y Y Y Y Y T Y Y :.:.Q.).N N N N         -.-.-.-.;.3 3 2 2 Y Y Y Y Y Y Y Y Y DXDXDXDXbXbXbXbXbXbXbXbXnXnXnXnXnXe e e e DXDXDXDXmXmXmXmXbXbXnXbXbXhXkXbXbXdXdXdXdXsXsXsXsXsX=.=.=.=.2 2 2 2 *.*.*.*.E E E E E e e e e 7 7 7 7 5 5 5 5 5 $ $ $ $ q q q q 1 1 1 1 % % % % % $ $ $ $ $ $ $ $ $ $ $ $ $ . . . . 5 5 5 5 # # # # $ $ $ # # X # # # pXpXpXpXpXpXpXpXpXpXpXpXpXpXpXpXpXpXpXpXpXpXpXpXpXpXpXpXpXpXpXpXpXpXpXpXpXpXpXpXpXpXpXpXpXpXpXpXpXpXpXpXpXpXpXpXpXpXpXpXpXpXpXpXpXpXpXpXpXpXpXpXpXpXpXpXpXpXpXpXpXpXpXpXpXpXpXpXpXpXpXpXpXpXpXpXpXpXpXpXpXpXpXpXpXpXpXpXpXpXpXpXpXpX",
"pXpXpXpXpXpXpXpXpXpXpXpXpXpXpXpXrXrXrXrX9X9X9X9XXX@X@X@XC.C.C.C.C.tXtXtXtXpXpXpXpXqXqXqXqXqX<X<X<X<X7X7X7X7X9X9X9X9XpXpXpXpXpXwXwXwXwXwXwXwXwX9X9X9X9XpXpXpXpXpX7X7X7X7XpXpXpXpX<X<X<X<X<X| | | | _._././.W W W W B B B B B N N N N Y Y Y Y Y Y Y T Y :.:.Q.).N N N N         -.-.-.-.;.3 3 2 2 Y Y Y Y Y Y Y Y Y DXDXDXDXbXbXbXbXbXbXbXbXnXnXnXnXnXe e e e DXDXDXDXnXmXmXmXbXbXnXbXbXkXkXbXbXdXdXdXdXsXsXsXsXsX=.=.=.=.2 2 2 2 *.*.*.*.E E E E E e e e e 7 7 7 7 5 5 5 5 5 $ $ $ $ q q q q 1 1 1 1 % % % % % $ $ $ $ $ $ $ $ $ $ $ $ $ . . . . 5 5 5 5 # # # # $ $ # # # X # + # pXpXpXpXpXpXpXpXpXpXpXpXpXpXpXpXpXpXpXpXpXpXpXpXpXpXpXpXpXpXpXpXpXpXpXpXpXpXpXpXpXpXpXpXpXpXpXpXpXpXpXpXpXpXpXpXpXpXpXpXpXpXpXpXpXpXpXpXpXpXpXpXpXpXpXpXpXpXpXpXpXpXpXpXpXpXpXpXpXpXpXpXpXpXpXpXpXpXpXpXpXpXpXpXpXpXpXpXpXpXpXpXpXpX",
"pXpXpXpXpXpXpXpXpXpXpXpXpXpXpXpX4X4XrXrX9X9X9X9XXXXX@X@XC.C.C.C.C.tXtXtXtXpXpXpXpXqXqXqXqXqX<X<X<X<X7X7X7X7X9X9X9X9XpXpXpXpXpXwXwXwXwXwXwXwXwX9X9X9X9XpXpXpXpXpX7X7X7X7XpXpXpXpX<X<X<X<X<X| | | | /./././.W W W W B B B B B N N N N Y Y Y Y Y Y Y Y Y :.:.:.Q.N N N N         -.-.-.;.;.3 3 2 2 Y Y Y Y Y Y Y Y Y DXDXDXDXbXbXbXbXbXbXbXbXnXnXnXnXnXe e e e DXDXDXDXmXmXmXmXbXbXnXnXbXkXkXkXbXdXdXdXdXsXsXsXsXsX=.=.=.=.2 2 2 2 *.*.*.*.E E E E E e e e e 7 7 7 7 5 5 5 5 5 $ $ $ $ q q q q 1 1 1 1 % % % % % $ $ $ $ $ $ $ $ $ $ $ $ $ . . . . 5 5 5 5 # # # # $ $ $ $ # X X + X pXpXpXpXpXpXpXpXpXpXpXpXpXpXpXpXpXpXpXpXpXpXpXpXpXpXpXpXpXpXpXpXpXpXpXpXpXpXpXpXpXpXpXpXpXpXpXpXpXpXpXpXpXpXpXpXpXpXpXpXpXpXpXpXpXpXpXpXpXpXpXpXpXpXpXpXpXpXpXpXpXpXpXpXpXpXpXpXpXpXpXpXpXpXpXpXpXpXpXpXpXpXpXpXpXpXpXpXpXpXpXpXpXpX",
"pXpXpXpXpXpXpXpXpXpXpX5X5X5X5X5XpXpXpXpX<X<X<X<XrXrXtXtX*X*XOXOX*XOXOXOXOXtXtXtXuXqXqXqXqXqXrXrXrXrXpXpXpXpX9X9X9X9XqXqXqXqXqXwXwXwXwXpXpXpXpXpXpXpXpX9X9X9X9X9XpXpXpXpXpXpXpXpX2X2X<X<X<X;.;.;.;._._._._.W W W ! $ $ $ % % 7 5 5 5 T T T T Y Y Y Y Y =.=.=.=.7 5 5 5 X X X X  .;.;. . .T T T T q q q q Y Y Y Y Y AXAXAXAXhXkXkXkXbXbXbXbXbXbXnXnXnXv v v v GXGXGXGXnXnXnXnXbXbXbXbXbXhXhXhXkXdXdXdXdX:.:.:.sXsX*.*.*.*.5 5 5 5 *.*.*.*.T T T E T e e e e 7 7 7 7 5 5 5 5 5 # # # # q q q q ; ; ; ; % % % % % $ $ $ $ $ $ $ $ $ $ $ $ $ . . . . ; ; ; ; $ # # # # # # # # X X X X pXpXpXpXpXpXpXpXpXpXpXpXpXpXpXpXpXpXpXpXpXpXpXpXpXpXpXpXpXpXpXpXpXpXpXpXpXpXpXpXpXpXpXpXpXpXpXpXpXpXpXpXpXpXpXpXpXpXpXpXpXpXpXpXpXpXpXpXpXpXpXpXpXpXpXpXpXpXpXpXpXpXpXpXpXpXpXpXpXpXpXpXpXpXpXpXpXpXpXpXpXpXpXpXpXpXpXpXpXpXpXpXpXpX",
"pXpXpXpXpXpXpXpXpXpXpX5X5X5X5X5XpXpXpXpX<X<X<X<XrXrXrXrX*X*X*XOX*XOXOXOXOXtXtX7XuXqXqXqXqXqXrXrXrXrXpXpXpXpX9X9X9X9XqXqXqXqXqXwXwXwXwXpXpXpXpXpXpXpXpX9X9X9X9X9XpXpXpXpXpXpXpXpX2X2X2X2X4X;.;.;.;._._._._.W W W ! $ $ $ $ $ 5 5 5 5 T T T T Y Y Y Y Y =.=.=.=.7 5 5 5 X X X X  .;. . . .T T T T q q q q Y Y Y Y Y AXAXAXAXkXkXkXkXbXbXbXbXnXnXnXnXnXY Y v v GXGXGXGXbXbXnXnXbXbXbXbXbXhXhXhXhXdXdXdXdX:.:.sXsXsX=.*.*.*.5 5 5 5 *.*.*.*.T T T E T e e e e 7 7 7 7 5 5 5 5 5 # # # # w w w w ; ; ; ; % % % % % $ $ $ $ $ $ $ $ $ $ $ $ # . . X X ; ; % % $ $ $ $ # # # # # + + + X pXpXpXpXpXpXpXpXpXpXpXpXpXpXpXpXpXpXpXpXpXpXpXpXpXpXpXpXpXpXpXpXpXpXpXpXpXpXpXpXpXpXpXpXpXpXpXpXpXpXpXpXpXpXpXpXpXpXpXpXpXpXpXpXpXpXpXpXpXpXpXpXpXpXpXpXpXpXpXpXpXpXpXpXpXpXpXpXpXpXpXpXpXpXpXpXpXpXpXpXpXpXpXpXpXpXpXpXpXpXpXpXpXpX",
"pXpXpXpXpXpXpXpXpXpXpX5X5X5X5X5XpXpXpXpX<X<X<X<XrXrXrXrXOX*XOX*X*XOXOXOXOXtXtX7XuXqXqXqXqXqXrXrXrXrXpXpXpXpX9X9X9X9XqXqXqXqXqXwXwXwXwXpXpXpXpXpXpXpXpX9X9X9X9X9XpXpXpXpXpXpXpXpX2X2X2X2X4X;.;.;.;._._._._.! W W W $ $ $ $ $ 5 5 5 5 T T T T Y Y Y Y Y =.=.=.=.7 5 5 5 X X X X  .;. . . .T T T T q q q q Y Y Y Y Y AXAXAXAXkXkXkXkXbXbXbXbXnXnXnXnXnXv Y v v GXGXGXGXbXbXnXnXbXbXbXbXbXhXhXhXhXdXdXdXdXQ.:.:.sXsX*.*.*.*.5 5 5 5 *.*.*.*.T T T E T e e e e 7 7 7 7 5 5 5 5 5 # # # # w w w w ; ; ; ; % % % % % $ $ $ $ $ $ $ $ $ $ $ $ $ . . . . 1 % % % $ $ $ $ # # # # # + + X X pXpXpXpXpXpXpXpXpXpXpXpXpXpXpXpXpXpXpXpXpXpXpXpXpXpXpXpXpXpXpXpXpXpXpXpXpXpXpXpXpXpXpXpXpXpXpXpXpXpXpXpXpXpXpXpXpXpXpXpXpXpXpXpXpXpXpXpXpXpXpXpXpXpXpXpXpXpXpXpXpXpXpXpXpXpXpXpXpXpXpXpXpXpXpXpXpXpXpXpXpXpXpXpXpXpXpXpXpXpXpXpXpXpX",
"pXpXpXpXpXpXpXpXpXpXpX5X5X5X5X5XpXpXpXpX<X<X<X<XtXtXrXrXOXOXOX*X*XOXOXOXOXuXuXtXtXqXqXqXqXqXrXrXrXrXpXpXpXpX9X9X9X9XqXqXqXqXqXwXwXwXwXpXpXpXpXpXpXpXpX9X9X9X9X9XpXpXpXpXpXpXpXpX<X<X2X2X4X;.;.;.;._._._._.! ! ! ! $ $ $ $ $ 5 5 5 5 T T T T Y Y Y Y Y =.=.=.=.5 7 7 5 X X X X ;.;.;.;.;.T T T T q q q q Y Y Y Y Y AXAXAXAXkXkXkXkXbXbXbXbXnXnXnXbXbXv v v v GXGXGXGXbXbXnXnXbXbXbXbXbXhXhXhXhXdXdXdXdXQ.:.:.Q.Q.=.=.=.=.5 5 5 5 *.*.*.*.T T T T T e e e e 7 7 7 7 5 5 5 5 5 # # # # w w w w ; ; ; ; % % % % % $ $ $ $ $ $ $ $ $ $ $ $ $ . . . . 1 1 % % # # $ $ # # # # # + X X X pXpXpXpXpXpXpXpXpXpXpXpXpXpXpXpXpXpXpXpXpXpXpXpXpXpXpXpXpXpXpXpXpXpXpXpXpXpXpXpXpXpXpXpXpXpXpXpXpXpXpXpXpXpXpXpXpXpXpXpXpXpXpXpXpXpXpXpXpXpXpXpXpXpXpXpXpXpXpXpXpXpXpXpXpXpXpXpXpXpXpXpXpXpXpXpXpXpXpXpXpXpXpXpXpXpXpXpXpXpXpXpXpXpX",
"pXpXpXpXpXpXpXpXpXpXpX5X5X5X5X5XpXpXpXpX<X<X<X<XtXtXtXrX*XOX*X*X*XOXOXOXOXuXuXtXtXqXqXqXqXqXrXrXrXrXpXpXpXpX9X9X9X9XqXqXqXqXqXwXwXwXwXpXpXpXpXpXpXpXpX9X9X9X9X9XpXpXpXpXpXpXpXpX<X2X2X2X4X;.;.;.;._._._._.! ! ! W $ $ $ $ $ 5 7 5 5 T T T T Y Y Y Y Y =.=.=.=.5 7 5 5 X X X X ;.;.;.;.;.T T T T q q q q Y Y Y Y Y AXAXAXAXkXkXkXkXbXbXbXbXnXnXbXbXbXv v Y Y GXGXGXGXbXbXnXnXbXbXbXbXbXhXhXhXhXdXdXdXdXQ.:.:.Q.Q.=.=.=.=.5 5 5 5 *.*.*.*.T T T T T e e e e 7 7 7 7 5 5 5 5 5 # # # # w w w w ; ; ; ; % % % % % $ $ $ $ $ $ $ $ $ $ $ $ $ . . . . 1 1 % % # # # $ # # # # # + X X X pXpXpXpXpXpXpXpXpXpXpXpXpXpXpXpXpXpXpXpXpXpXpXpXpXpXpXpXpXpXpXpXpXpXpXpXpXpXpXpXpXpXpXpXpXpXpXpXpXpXpXpXpXpXpXpXpXpXpXpXpXpXpXpXpXpXpXpXpXpXpXpXpXpXpXpXpXpXpXpXpXpXpXpXpXpXpXpXpXpXpXpXpXpXpXpXpXpXpXpXpXpXpXpXpXpXpXpXpXpXpXpXpXpX",
"pXpXpXpXpXpXpXpXpXpXpXpXpXpXpXpXpXpXpXpXpXpXpXpXpXpXpXpXrXrXrXrXrX<X<X<X<X<X<X<X<XpXpXpXpXpXuXuXuXuX9X9X9X9XpXpXpXpXqXqXqXqXqXpXpXpXpXpXpXpXpXpXpXpXpXpXpXpXpXpXqXqXqXqX9X9X9X9XpXpXpXpXpX........ .;.;.;.: : : : $ $ $ $ $ 8 8 7 5 Y Y Y Y Y Y Y Y Y %.%.] _ % : : % : : : : /.L.L.L.L.Q Q Q Q Y Y N N e e e e e mXmXmXmXdXdXdXdXfXfXfXfXkXkXkXkXkXe e e e DXDXDXDXbXbXbXbXhXhXkXkXkXdXdXdXdXsXsXsXQ.:.:.:.:.:.%.%.%.%.Y Y Y Y *.*.*.*.Y Y Y Y Y q q q q 5 5 5 5 2 5 5 5 5 # # + + 0 0 0 0 $ $ $ $ $ $ $ $ $ $ $ $ $ # # # $ # # # # #         $ $ $ $ # # # # # # # # # X X X X pXpXpXpXpXpXpXpXpXpXpXpXpXpXpXpXpXpXpXpXpXpXpXpXpXpXpXpXpXpXpXpXpXpXpXpXpXpXpXpXpXpXpXpXpXpXpXpXpXpXpXpXpXpXpXpXpXpXpXpXpXpXpXpXpXpXpXpXpXpXpXpXpXpXpXpXpXpXpXpXpXpXpXpXpXpXpXpXpXpXpXpXpXpXpXpXpXpXpXpXpXpXpXpXpXpXpXpXpXpXpXpXpXpX",
"pXpXpXpXpXpXpXpXpXpXpXpXpXpXpXpXpXpXpXpXpXpXpXpXpXpXpXpXrXrXrXrXrX<X<X<X<X<X<X<X<XpXpXpXpXpXuXuXuXuX9X9X9X9XpXpXpXpXqXqXqXqXqXpXpXpXpXpXpXpXpXpXpXpXpXpXpXpXpXpXqXqXqXqX9X9X9X9XpXpXpXpXpX........ .;.;.;.: : : : $ $ $ $ $ 8 8 5 5 Y Y Y Y Y Y Y Y Y _ %.%._ % % : % : : : : L.L.L.L.L.Q Q ^ ^ Y Y N Y e e e e e mXmXmXmXdXdXdXdXfXfXfXfXkXkXkXkXkXe e e e DXDXDXDXbXbXbXbXhXhXbXbXkXdXdXdXdXsXsXsX).:.:.:.:.:.%.%.%.%.Y Y Y Y *.*.*.*.Y Y Y Y Y q q q q 5 5 5 5 2 5 5 5 5 # # + + 0 0 0 0 $ $ $ $ $ $ $ $ $ $ $ $ $ # # # $ # # # # #         $ $ $ $ # # # # # # # # # X X X X pXpXpXpXpXpXpXpXpXpXpXpXpXpXpXpXpXpXpXpXpXpXpXpXpXpXpXpXpXpXpXpXpXpXpXpXpXpXpXpXpXpXpXpXpXpXpXpXpXpXpXpXpXpXpXpXpXpXpXpXpXpXpXpXpXpXpXpXpXpXpXpXpXpXpXpXpXpXpXpXpXpXpXpXpXpXpXpXpXpXpXpXpXpXpXpXpXpXpXpXpXpXpXpXpXpXpXpXpXpXpXpXpXpX",
"pXpXpXpXpXpXpXpXpXpXpXpXpXpXpXpXpXpXpXpXpXpXpXpXpXpXpXpXrXrXrXrXrX<X<X<X<X<X<X<X<XpXpXpXpXpXuXuXuXuX9X9XuXuXpXpXpXpXqXqXqXqXqXpXpXpXpXpXpXpXpXpXpXpXpXpXpXpXpXpXqXqXqXqX9X9X9X9XpXpXpXpXpX........ . .;. .: : : : $ $ $ $ $ 7 8 5 5 Y Y Y Y Y Y Y Y Y %.%.%.%.% % % % : : : : L.L.L.L.L.Q Q ^ ^ Y Y Y Y e e e e e mXmXmXmXdXdXdXdXfXfXfXfXkXkXkXkXkXe e e e DXDXDXDXbXbXbXbXhXhXbXbXbXdXdXdXdXsXsXsXsX:.:.:.:.:.%.%.%.%.Y Y Y Y *.*.*.*.Y Y Y Y Y q q q q 5 5 5 5 2 2 5 2 2 + + + + 0 0 0 0 $ $ $ $ $ $ $ $ $ $ $ $ $ $ # # # # # # # #         $ $ $ $ # # # # # # # # # X X X X pXpXpXpXpXpXpXpXpXpXpXpXpXpXpXpXpXpXpXpXpXpXpXpXpXpXpXpXpXpXpXpXpXpXpXpXpXpXpXpXpXpXpXpXpXpXpXpXpXpXpXpXpXpXpXpXpXpXpXpXpXpXpXpXpXpXpXpXpXpXpXpXpXpXpXpXpXpXpXpXpXpXpXpXpXpXpXpXpXpXpXpXpXpXpXpXpXpXpXpXpXpXpXpXpXpXpXpXpXpXpXpXpXpX",
"pXpXpXpXpXpXpXpXpXpXpXpXpXpXpXpXpXpXpXpXpXpXpXpXpXpXpXpXrXrXrXrXrX<X<X<X<X<X<X<X<XpXpXpXpXpXuXuXuXuX9X9XuXuXpXpXpXpXqXqXqXqXqXpXpXpXpXpXpXpXpXpXpXpXpXpXpXpXpXpXqXqXqXqX9X9X9X9XpXpXpXpXpX........ . . . .: : : : $ $ $ $ $ 7 7 5 5 Y Y Y Y Y Y Y Y Y ] %.%.] % % % % : : : : L.L.L.L.L.Q Q ^ ^ Y Y Y Y e e e e e mXmXmXmXdXdXdXdXfXfXfXfXkXkXkXkXkXe e e e DXDXDXDXbXbXbXbXhXhXbXbXbXdXdXdXdXsXsXsXsX:.Q.:.:.:.%.%.%.%.Y Y Y Y *.*.*.*.Y Y Y Y Y q q q q 5 5 5 5 2 2 2 2 2 + + + + 0 0 0 0 $ $ $ $ $ $ $ $ $ $ $ $ $ # # # # # # # # #         $ $ $ $ # # # # # # # # # X X X X pXpXpXpXpXpXpXpXpXpXpXpXpXpXpXpXpXpXpXpXpXpXpXpXpXpXpXpXpXpXpXpXpXpXpXpXpXpXpXpXpXpXpXpXpXpXpXpXpXpXpXpXpXpXpXpXpXpXpXpXpXpXpXpXpXpXpXpXpXpXpXpXpXpXpXpXpXpXpXpXpXpXpXpXpXpXpXpXpXpXpXpXpXpXpXpXpXpXpXpXpXpXpXpXpXpXpXpXpXpXpXpXpXpX",
"pXpXpXpXpXpXpXpXpXpXpX9X9X9X9X9XpXpXpXpXpXpXpXpXpXpXpXpX<X<X<X<X<X7X7X7X7X5X5X5X5XpXpXpXpXpXpXpXpXpX8X8X8X8XqXqXqXqXqXqXwXwXwXpXpXpXpXpXpXpXpXpXpXpXpXpXpXpXpXpXpXpXpXpXpXpXpXpXpXpXpXpXpX=X=X=X=X} } } } > > > > 6 6 6 6 6 5 5 5 5 Y Y Y Y Y Y Y Y Y ( / / / # # # # 3 3 3 3 -.-.| | | T T T T / / / / e e e e e hXhXhXhXsXsXQ.Q.dXdXdXdXdXdXdXdXdX5 5 5 5 nXnXnXnXhXhXhXhXhXhXhXhXhX*.&.&.*.:.:.:.:.&.*.*.*.*./ / / / 5 5 5 5 8 8 8 8 5 5 5 5 5 2 2 2 2 % % % ; % % % % % # # # # ; ; ; ; % % % % % % % % % % % % % 1 1 1 1 : 1 1 1 1 1 1 1 1 1 1 1 1 1 1 1 1 2 2 2 2 2 2 2 2 1 5 5 5 5 pXpXpXpXpXpXpXpXpXpXpXpXpXpXpXpXpXpXpXpXpXpXpXpXpXpXpXpXpXpXpXpXpXpXpXpXpXpXpXpXpXpXpXpXpXpXpXpXpXpXpXpXpXpXpXpXpXpXpXpXpXpXpXpXpXpXpXpXpXpXpXpXpXpXpXpXpXpXpXpXpXpXpXpXpXpXpXpXpXpXpXpXpXpXpXpXpXpXpXpXpXpXpXpXpXpXpXpXpXpX",
"pXpXpXpXpXpXpXpXpXpXpX9X9X9X9X9XpXpXpXpXpXpXpXpXpXpXpXpX<X<X<X<X<X7X7X7X7X5X5X5X5XpXpXpXpXpXpXpXpXpX8X8X8X8XqXqXqXqXqXqXwXwXwXpXpXpXpXpXpXpXpXpXpXpXpXpXpXpXpXpXpXpXpXpXpXpXpXpXpXpXpXpXpX=X=X=X=X} } } } > > > > 6 6 6 6 6 5 5 5 5 Y Y Y Y Y Y Y Y Y ( / / / # # # # 3 3 3 3 -.-.-.| | T T T T / / / / e e e e e hXhXhXhXOXOXQ.Q.dXdXdXdXdXdXdXdXdX5 5 5 5 nXnXnXnXhXhXhXhXhXhXhXhXhX*.&.&.*.:.:.:.:.&.*.*.*.*./ / / / 5 5 5 5 8 8 8 8 5 5 5 5 5 2 2 2 2 % % % ; % % % % % # # # # ; ; ; ; % % % % % % % % % % % % % 1 1 1 1 : 1 1 1 1 1 1 1 1 1 1 1 1 1 1 1 1 2 2 2 2 2 2 2 2 1 5 5 5 5 pXpXpXpXpXpXpXpXpXpXpXpXpXpXpXpXpXpXpXpXpXpXpXpXpXpXpXpXpXpXpXpXpXpXpXpXpXpXpXpXpXpXpXpXpXpXpXpXpXpXpXpXpXpXpXpXpXpXpXpXpXpXpXpXpXpXpXpXpXpXpXpXpXpXpXpXpXpXpXpXpXpXpXpXpXpXpXpXpXpXpXpXpXpXpXpXpXpXpXpXpXpXpXpXpXpXpXpXpXpX",
"pXpXpXpXpXpXpXpXpXpXpXqX9XqX9X9XpXpXpXpXpXpXpXpXpXpXpXpX<X<X<X<X<X7X7X7X7X5X5X5X5XpXpXpXpXpXpXpXpXpX8X8X8X8XqXqXqXqXwXwXwXwXwXpXpXpXpXpXpXpXpXpXpXpXpXpXpXpXpXpXpXpXpXpXpXpXpXpXpXpXpXpXpX6X=X=X=X} } } } > > > > 6 6 6 6 6 5 5 5 5 Y Y Y Y Y Y Y Y Y ( / / / # # # # 3 3 3 3 | -.-.-.-.T T T T / / / / e e e e e hXhXhXhXsXQ.Q.Q.dXdXdXdXdXdXdXdXdX5 5 5 5 nXnXnXnXhXhXhXhXhXhXhXhXhX&.&.&.*.:.:.:.:.&.*.*.*.*./ / / / 5 5 5 5 8 8 8 8 5 5 5 5 5 2 2 2 2 : % % ; % % % % % # # # # ; ; ; ; % % % % % % % % % % % % % 1 1 1 1 : : : 1 1 1 1 1 1 1 1 1 1 1 1 1 1 2 2 2 2 2 1 2 2 2 5 5 5 5 pXpXpXpXpXpXpXpXpXpXpXpXpXpXpXpXpXpXpXpXpXpXpXpXpXpXpXpXpXpXpXpXpXpXpXpXpXpXpXpXpXpXpXpXpXpXpXpXpXpXpXpXpXpXpXpXpXpXpXpXpXpXpXpXpXpXpXpXpXpXpXpXpXpXpXpXpXpXpXpXpXpXpXpXpXpXpXpXpXpXpXpXpXpXpXpXpXpXpXpXpXpXpXpXpXpXpXpXpXpX",
"pXpXpXpXpXpXpXpXpXpXpXqXqXqX9X9XpXpXpXpXpXpXpXpXpXpXpXpX<X<X<X<X<X7X7X7X7X5X5X5X5XpXpXpXpXpXpXpXpXpX8X8X8X8XqXqXqXqXwXwXwXwXwXpXpXpXpXpXpXpXpXpXpXpXpXpXpXpXpXpXpXpXpXpXpXpXpXpXpXpXpXpXpX6X=X=X=X} } } } > > > > 6 6 6 6 6 5 5 5 5 Y Y Y Y Y Y Y Y Y ( / / / # # # # 3 3 3 3 | -.-.-.-.T T T T / / / / e e e e e hXhXhXhXsXQ.Q.:.sXdXdXdXdXdXdXdXdX5 5 5 5 nXnXnXnXhXhXhXhXhXhXhXhXhX&.&.&.*.:.:.:.:.&.*.*.*.*./ / / / 5 5 5 5 8 8 8 8 5 5 5 5 5 2 2 2 2 : % % ; % % % % % # # # # ; ; ; ; % % % % % % % % % % % % % 1 1 1 1 : : : : 1 1 1 1 1 1 1 1 1 1 1 1 1 2 2 2 2 2 1 2 2 2 5 5 5 5 pXpXpXpXpXpXpXpXpXpXpXpXpXpXpXpXpXpXpXpXpXpXpXpXpXpXpXpXpXpXpXpXpXpXpXpXpXpXpXpXpXpXpXpXpXpXpXpXpXpXpXpXpXpXpXpXpXpXpXpXpXpXpXpXpXpXpXpXpXpXpXpXpXpXpXpXpXpXpXpXpXpXpXpXpXpXpXpXpXpXpXpXpXpXpXpXpXpXpXpXpXpXpXpXpXpXpXpXpXpX",
"pXpXpXpXpXpXpXpXpXpXpXqXqXqXqXqX8X8X8X9X7X7X7X7X5X5X5X5XpXpXpXpXpXwXwXwXwXpXpXpXpXpXpXpXpXpXpXpXpXpXpXpXpXpXqXqXqXqXpXpXpXpXpXpXpXpXpXpXpXpXpXpXpXpXpXpXpXpXpXpXpXpXpXpXpXpXpXpXpXpXpXpXpXpXpXpXpX_._._._.9 9 9 9 $ % $ $ $ 0 0 0 0 T T T T T T T T T N Y Y Y X X X X 9 9 9 9 ;.;.L.;.;.E E E E _ _ _ _ Y Y Y Y Y 0 0 0 0 0 0 0 0 5 5 5 7 7 7 7 7 7 7 7 7 7 8 8 8 8 0 0 0 0 7 7 7 7 7 8 8 8 8 8 7 7 7 0 0 0 8 8 7 7 7 7 8 8 8 8 0 0 0 0 8 8 8 8 8 7 7 7 7 7 7 7 7 8 8 8 8 8 7 7 7 7 8 8 8 8 7 7 7 7 8 8 8 8 8 7 7 7 7 7 7 7 7 8 7 7 8 8 0 0 7 7 7 7 7 7 7 7 7 7 5 5 7 7 7 8 8 8 7 8 8 8 8 q q q q pXpXpXpXpXpXpXpXpXpXpXpXpXpXpXpXpXpXpXpXpXpXpXpXpXpXpXpXpXpXpXpXpXpXpXpXpXpXpXpXpXpXpXpXpXpXpXpXpXpXpXpXpXpXpXpXpXpXpXpXpXpXpXpXpXpXpXpXpXpXpXpXpXpXpXpXpXpXpXpXpXpXpXpXpXpXpXpXpXpXpXpXpXpXpXpXpXpXpXpXpXpXpXpXpXpX",
"pXpXpXpXpXpXpXpXpXpXpXqXqXqXqXqX8X8X8X9X7X7X7X7X5X5X5X5XpXpXpXpXpXwXwXwXwXpXpXpXpXpXpXpXpXpXpXpXpXpXpXpXpXpXqXqXqXqXpXpXpXpXpXpXpXpXpXpXpXpXpXpXpXpXpXpXpXpXpXpXpXpXpXpXpXpXpXpXpXpXpXpXpXpXpXpXpX_._._._.9 9 9 9 $ % % $ $ 0 0 0 0 T T T T T T T T T N Y Y Y X X X X 9 9 9 9 L.L.L.;.;.E E E E _ _ _ _ Y Y Y Y Y 0 0 0 0 0 0 0 0 5 7 5 7 7 7 7 7 7 7 7 7 7 8 8 8 8 0 0 0 0 7 7 7 7 7 8 8 8 8 8 7 7 7 0 0 0 8 8 7 7 7 7 8 8 8 8 0 0 0 0 8 8 8 8 8 7 7 7 7 7 7 7 7 8 8 8 8 8 7 7 7 7 8 8 8 8 7 7 7 7 8 8 8 8 8 7 7 7 7 7 7 7 7 8 7 7 8 8 0 0 7 7 7 7 7 7 7 7 7 7 5 5 7 5 7 8 8 8 7 8 8 8 8 q q q q pXpXpXpXpXpXpXpXpXpXpXpXpXpXpXpXpXpXpXpXpXpXpXpXpXpXpXpXpXpXpXpXpXpXpXpXpXpXpXpXpXpXpXpXpXpXpXpXpXpXpXpXpXpXpXpXpXpXpXpXpXpXpXpXpXpXpXpXpXpXpXpXpXpXpXpXpXpXpXpXpXpXpXpXpXpXpXpXpXpXpXpXpXpXpXpXpXpXpXpXpXpXpXpXpXpX",
"pXpXpXpXpXpXpXpXpXpXpXqXqXqXqXqX8X8X8X8X7X7X7X7X5X5X5X5XpXpXpXpXpXwXwXwXwXpXpXpXpXpXpXpXpXpXpXpXpXpXpXpXpXpXqXqXqXqXpXpXpXpXpXpXpXpXpXpXpXpXpXpXpXpXpXpXpXpXpXpXpXpXpXpXpXpXpXpXpXpXpXpXpXpXpXpXpX_._._._.9 9 9 9 $ $ % $ $ 0 0 0 0 Y T T T T T T T T N Y Y Y X X X X 9 9 9 9 L.L.L.;.;.E E E E _ _ _ _ Y Y Y Y Y 0 0 0 0 0 0 0 0 7 7 7 7 7 7 7 7 7 7 7 7 7 8 8 8 8 0 0 0 0 7 7 7 7 7 8 8 8 8 8 8 8 7 0 0 0 0 0 7 7 7 7 8 8 8 8 0 0 0 0 8 8 8 8 8 7 7 7 7 7 7 7 7 8 8 8 8 8 7 7 7 7 8 8 8 8 7 7 7 7 8 8 8 8 8 7 7 7 7 7 7 7 7 8 8 8 8 8 7 7 7 7 7 7 7 7 7 7 7 7 5 5 5 5 5 7 8 7 7 8 7 7 8 q q q q pXpXpXpXpXpXpXpXpXpXpXpXpXpXpXpXpXpXpXpXpXpXpXpXpXpXpXpXpXpXpXpXpXpXpXpXpXpXpXpXpXpXpXpXpXpXpXpXpXpXpXpXpXpXpXpXpXpXpXpXpXpXpXpXpXpXpXpXpXpXpXpXpXpXpXpXpXpXpXpXpXpXpXpXpXpXpXpXpXpXpXpXpXpXpXpXpXpXpXpXpXpXpXpXpXpX",
"pXpXpXpXpXpXpXpXpXpXpXqXqXqXqXqX8X8X8X8X7X7X7X7X5X5X5X5XpXpXpXpXpXwXwXwXwXpXpXpXpXpXpXpXpXpXpXpXpXpXpXpXpXpXqXqXqXqXpXpXpXpXpXpXpXpXpXpXpXpXpXpXpXpXpXpXpXpXpXpXpXpXpXpXpXpXpXpXpXpXpXpXpXpXpXpXpX_._.)._.9 9 9 9 $ $ $ $ $ 0 0 0 0 Y T T T T T T T T N Y Y Y X X X X 9 9 9 9 L.L.L.;.;.R E E E _ _ _ _ Y Y Y Y Y 0 0 0 0 0 0 0 0 7 7 7 7 7 7 7 7 7 7 7 7 7 8 8 8 8 0 0 0 0 7 7 7 7 7 8 8 8 8 8 8 7 7 0 0 0 0 0 7 7 7 7 8 8 8 8 0 0 0 0 8 8 8 8 8 7 7 7 7 7 7 7 7 8 8 8 8 8 7 7 7 7 8 8 8 8 7 7 7 7 8 8 8 8 8 7 7 7 7 7 7 7 7 8 8 8 8 8 7 7 7 7 7 7 7 7 7 7 7 7 5 5 5 5 5 7 7 7 7 8 7 7 8 q q q q pXpXpXpXpXpXpXpXpXpXpXpXpXpXpXpXpXpXpXpXpXpXpXpXpXpXpXpXpXpXpXpXpXpXpXpXpXpXpXpXpXpXpXpXpXpXpXpXpXpXpXpXpXpXpXpXpXpXpXpXpXpXpXpXpXpXpXpXpXpXpXpXpXpXpXpXpXpXpXpXpXpXpXpXpXpXpXpXpXpXpXpXpXpXpXpXpXpXpXpXpXpXpXpXpXpX",
"pXpXpXpXpXpXpXpXpXpXpXpXpXpXpXpXpXpXpXpXpXpXpXpXpXpXpXpX8X8X9X9X8X8X8X9X9XpXpXpXpX9X9X9X9X9XqXqXqXqXpXpXpXpXpXpXpXpXpXpXpXpXpXpXpXpXpXpXpXpXpXpXpXpXpXpXpXpXpXpXpXpXpXpXpXpXpXpXpXpXpXpXpXpXpXpXpX .-.-.-.! ! ! ! : : : > > 9 9 9 9 Y Y Y Y T T T T T 2 2 2 2 . . . . w w w 9 ;.;.;.;.;.v v v v ( ( ( ( mXmXmXmXmX8 7 7 7 7 8 8 8 0 8 8 7 7 7 7 7 7 7 7 7 7 7 7 7 7 7 7 7 7 7 7 7 7 7 7 7 7 7 7 7 7 7 7 7 7 7 7 7 7 7 7 7 7 7 7 8 8 8 8 7 7 7 7 7 8 8 8 8 7 7 7 7 7 7 7 7 7 7 7 7 7 5 5 5 5 8 8 8 8 7 7 7 7 7 7 7 7 7 7 7 7 7 7 7 7 7 7 7 7 7 7 8 8 8 8 7 7 7 7 7 7 7 7 7 8 8 8 8 7 7 7 7 w w w w pXpXpXpXpXpXpXpXpXpXpXpXpXpXpXpXpXpXpXpXpXpXpXpXpXpXpXpXpXpXpXpXpXpXpXpXpXpXpXpXpXpXpXpXpXpXpXpXpXpXpXpXpXpXpXpXpXpXpXpXpXpXpXpXpXpXpXpXpXpXpXpXpXpXpXpXpXpXpXpXpXpXpXpXpXpXpXpXpXpXpXpXpXpXpXpXpXpXpXpXpXpXpXpXpXpX",
"pXpXpXpXpXpXpXpXpXpXpXpXpXpXpXpXpXpXpXpXpXpXpXpXpXpXpXpX8X8X8X8X8X8X8X8X9XpXpXpXpX9X9X9X9X9XqXqXqXqXpXpXpXpXpXpXpXpXpXpXpXpXpXpXpXpXpXpXpXpXpXpXpXpXpXpXpXpXpXpXpXpXpXpXpXpXpXpXpXpXpXpXpXpXpXpXpX .-.-.-.! ! ! ! : : : > > 9 9 9 9 Y Y Y Y T T T T T 2 2 2 2 . . . . w w w 9 ;.;.;.;.;.v v v v ( / ( ( nXmXmXmXmX8 7 7 7 7 8 8 0 0 8 8 7 7 7 7 7 7 7 7 7 7 7 7 7 7 7 7 7 7 7 7 7 7 7 7 7 7 7 7 7 7 7 7 7 7 7 7 7 7 7 7 7 7 7 7 8 8 8 8 7 7 7 7 7 8 8 8 8 7 7 7 7 7 7 7 7 7 7 7 8 7 5 5 5 5 8 8 8 8 7 7 7 7 7 7 7 7 7 7 7 7 7 7 7 7 7 7 7 7 7 7 8 8 8 8 7 7 7 7 7 7 7 7 7 8 8 8 8 8 7 7 7 w w w w pXpXpXpXpXpXpXpXpXpXpXpXpXpXpXpXpXpXpXpXpXpXpXpXpXpXpXpXpXpXpXpXpXpXpXpXpXpXpXpXpXpXpXpXpXpXpXpXpXpXpXpXpXpXpXpXpXpXpXpXpXpXpXpXpXpXpXpXpXpXpXpXpXpXpXpXpXpXpXpXpXpXpXpXpXpXpXpXpXpXpXpXpXpXpXpXpXpXpXpXpXpXpXpXpXpX",
"pXpXpXpXpXpXpXpXpXpXpXpXpXpXpXpXpXpXpXpXpXpXpXpXpXpXpXpX8X8X8X8X8X8X8X8X9XpXpXpXpX9X9X9X9X9XqXqXqXqXpXpXpXpXpXpXpXpXpXpXpXpXpXpXpXpXpXpXpXpXpXpXpXpXpXpXpXpXpXpXpXpXpXpXpXpXpXpXpXpXpXpXpXpXpXpXpX .-.-.-.! ! ! ! > : : : > 9 9 9 9 Y Y Y Y T T T T T 2 2 2 2 . . . . w w 9 9 ;.;.;.;.;.v v v v / / / / nXnXmXmXmX8 8 8 7 8 8 8 0 8 8 8 7 7 7 7 7 7 7 7 7 7 7 7 7 7 7 7 7 7 7 7 7 7 7 7 7 7 7 7 7 7 7 7 7 7 7 7 7 7 7 7 7 7 7 7 8 8 8 8 7 7 7 7 7 8 8 8 8 7 7 7 7 7 7 7 7 7 7 7 8 8 5 5 5 5 8 8 8 8 7 7 7 7 7 7 7 7 7 7 7 7 7 7 7 7 7 7 7 7 7 7 8 8 8 8 7 7 7 7 7 7 7 7 7 8 8 8 8 8 0 0 7 w w w w pXpXpXpXpXpXpXpXpXpXpXpXpXpXpXpXpXpXpXpXpXpXpXpXpXpXpXpXpXpXpXpXpXpXpXpXpXpXpXpXpXpXpXpXpXpXpXpXpXpXpXpXpXpXpXpXpXpXpXpXpXpXpXpXpXpXpXpXpXpXpXpXpXpXpXpXpXpXpXpXpXpXpXpXpXpXpXpXpXpXpXpXpXpXpXpXpXpXpXpXpXpXpXpXpXpX",
"pXpXpXpXpXpXpXpXpXpXpXpXpXpXpXpXpXpXpXpXpXpXpXpXpXpXpXpX8X8X8X8X8X8X8X8X9XpXpXpXpX9X9X9X9X9XqXqXqXqXpXpXpXpXpXpXpXpXpXpXpXpXpXpXpXpXpXpXpXpXpXpXpXpXpXpXpXpXpXpXpXpXpXpXpXpXpXpXpXpXpXpXpXpXpXpXpX .-.-. .! ! ! ! > : : : > 9 9 9 9 Y Y Y Y T T T T T 2 2 2 2 . . . . w w w 9 ;.-.;.;.;.v v v v / / / / nXnXmXmXmX8 8 8 8 8 8 8 0 8 8 8 8 7 7 7 7 7 7 7 7 7 7 7 7 7 7 7 7 7 7 7 7 7 7 7 7 7 7 7 7 7 7 7 7 7 7 7 7 7 7 7 7 7 7 7 8 8 8 8 7 7 7 7 7 8 8 8 8 7 7 7 7 7 7 7 7 7 7 7 8 8 5 7 5 5 8 8 8 8 7 7 7 7 7 7 7 7 7 7 7 7 7 7 7 7 7 7 7 7 7 7 8 8 8 8 7 7 7 7 7 7 7 7 7 8 8 8 8 8 0 0 0 w w w w pXpXpXpXpXpXpXpXpXpXpXpXpXpXpXpXpXpXpXpXpXpXpXpXpXpXpXpXpXpXpXpXpXpXpXpXpXpXpXpXpXpXpXpXpXpXpXpXpXpXpXpXpXpXpXpXpXpXpXpXpXpXpXpXpXpXpXpXpXpXpXpXpXpXpXpXpXpXpXpXpXpXpXpXpXpXpXpXpXpXpXpXpXpXpXpXpXpXpXpXpXpXpXpXpXpX",
"pXpXpXpXpXpXpXpXpXpXpXpXpXpXpXpXpXpXpXpXpXpXpXpXpXpXpXpX8X8X8X8X8X8X8X8X8XpXpXpXpX9X9X9X9X9XqXqXqXqXpXpXpXpXpXpXpXpXpXpXpXpXpXpXpXpXpXpXpXpXpXpXpXpXpXpXpXpXpXpXpXpXpXpXpXpXpXpXpXpXpXpXpXpXpXpXpX-.-. . .! ! W ! > : : : : 9 9 9 9 Y Y Y Y T T T T T 2 2 2 2 . . . . w w w w ;.-.-.;.;.v e e e / / / / mXmXmXmXmX8 8 8 8 8 8 8 8 8 8 8 8 7 7 7 7 7 7 7 7 7 7 7 7 7 7 7 7 7 7 7 7 7 7 7 7 7 7 7 7 7 7 7 7 7 7 7 7 7 7 7 7 7 7 7 8 8 8 8 5 5 7 7 7 8 8 8 8 7 7 7 7 7 7 7 7 7 7 7 8 8 5 5 5 5 8 8 8 8 7 7 7 7 7 7 7 7 7 7 7 7 7 7 7 7 7 7 7 7 7 7 8 8 8 8 7 7 7 7 7 7 7 7 7 8 8 8 8 8 8 8 8 w w w w pXpXpXpXpXpXpXpXpXpXpXpXpXpXpXpXpXpXpXpXpXpXpXpXpXpXpXpXpXpXpXpXpXpXpXpXpXpXpXpXpXpXpXpXpXpXpXpXpXpXpXpXpXpXpXpXpXpXpXpXpXpXpXpXpXpXpXpXpXpXpXpXpXpXpXpXpXpXpXpXpXpXpXpXpXpXpXpXpXpXpXpXpXpXpXpXpXpXpXpXpXpXpXpXpXpX",
"pXpXpXpXpXpXpXpXpXpXpXpXpXpXpXpXpXpXpXpXpXpXpXpXpXpXpXpXpXpXpXpXpXpXpXpXpXpXpXpXpXpXpXpXpXpXpXpXpXpXpXpXpXpXpXpXpXpXpXpXpXpXpXpXpXpXpXpXpXpXpXpXpXpXpXpXpXpXpXpXpXpXpXpXpXpXpXpXpXpXpXpXpXpXpXpXpX[ [ [ [ ` ` ` ` 9 9 9 9 9 g g g g N v v v 8 8 7 7 7 1 1 1 1 . . . . 9 9 9 9 ;.;.;.;.;.Y Y Y Y R R T T dXdXdXdXdX0 0 0 0 0 0 0 0 0 0 0 8 0 0 0 0 0 8 8 8 8 0 0 0 0 8 8 8 8 7 7 7 7 7 8 8 8 8 0 0 0 0 0 8 0 0 0 0 0 0 0 8 7 8 8 q q q q 8 8 8 8 8 0 0 0 0 0 0 0 0 0 0 0 0 0 q q q q 0 0 0 8 0 0 q q q q q q q 0 0 0 0 0 q 0 0 q q q q q q q q q 0 0 0 0 0 0 0 0 e e e e e e e e e q q q q e e e e 6X6X6X6X6XpXpXpXpXpXpXpXpXpXpXpXpXpXpXpXpXpXpXpXpXpXpXpXpXpXpXpXpXpXpXpXpXpXpXpXpXpXpXpXpXpXpXpXpXpXpXpXpXpXpXpXpXpXpXpXpXpXpXpXpXpXpXpXpXpXpXpXpXpXpXpXpXpXpXpXpXpXpXpXpXpXpXpXpXpXpXpXpXpXpXpXpXpXpXpXpXpXpXpXpXpX",
"pXpXpXpXpXpXpXpXpXpXpXpXpXpXpXpXpXpXpXpXpXpXpXpXpXpXpXpXpXpXpXpXpXpXpXpXpXpXpXpXpXpXpXpXpXpXpXpXpXpXpXpXpXpXpXpXpXpXpXpXpXpXpXpXpXpXpXpXpXpXpXpXpXpXpXpXpXpXpXpXpXpXpXpXpXpXpXpXpXpXpXpXpXpXpXpXpX[ [ [ [ ` ` ` ` 9 9 9 9 9 g g g g N N N v 7 8 7 7 7 1 1 1 1 . . . . 9 9 9 9 ;.;.;.;.;.T T Y T R R R R dXdXdXdXdX0 0 0 0 0 0 0 0 0 8 0 8 8 0 0 0 0 8 8 8 8 0 0 0 0 8 8 8 8 7 7 7 7 7 8 8 7 8 0 0 0 8 8 8 0 0 0 0 0 0 0 8 8 8 8 q q q q 8 8 8 8 8 8 0 0 0 0 0 0 0 0 0 0 0 0 q q q q 0 0 0 0 0 0 q q w w q q q 0 0 0 0 0 0 0 0 q q q q q q q q q 0 0 0 0 0 0 0 0 e e e e e e e e e q q q q e e e e 6X6X6X6X6XpXpXpXpXpXpXpXpXpXpXpXpXpXpXpXpXpXpXpXpXpXpXpXpXpXpXpXpXpXpXpXpXpXpXpXpXpXpXpXpXpXpXpXpXpXpXpXpXpXpXpXpXpXpXpXpXpXpXpXpXpXpXpXpXpXpXpXpXpXpXpXpXpXpXpXpXpXpXpXpXpXpXpXpXpXpXpXpXpXpXpXpXpXpXpXpXpXpXpXpXpX",
"pXpXpXpXpXpXpXpXpXpXpXpXpXpXpXpXpXpXpXpXpXpXpXpXpXpXpXpXpXpXpXpXpXpXpXpXpXpXpXpXpXpXpXpXpXpXpXpXpXpXpXpXpXpXpXpXpXpXpXpXpXpXpXpXpXpXpXpXpXpXpXpXpXpXpXpXpXpXpXpXpXpXpXpXpXpXpXpXpXpXpXpXpXpXpXpXpX[ [ [ [ ` ` ` ` 9 9 9 9 9 g g g g N N N v 7 8 7 7 7 1 1 1 1 . . . . 9 9 9 9 ;.;.;.;.;.T T T T R R R R dXdXdXdXdX0 0 0 0 0 0 0 0 0 8 8 8 8 0 0 0 0 8 8 8 8 0 0 0 0 8 8 8 8 7 7 7 7 7 8 8 7 7 0 0 0 8 8 8 8 0 0 0 0 0 0 8 8 8 8 q q q q 8 8 8 8 8 8 0 0 0 0 0 0 0 0 0 0 0 0 q q q q 0 0 0 0 0 0 q q w w q q q 0 0 0 0 q 0 0 0 q q q q q q q q q 0 0 0 0 0 0 0 0 e e e e e e e e e q q q q e e e e 6X6X6X6X6XpXpXpXpXpXpXpXpXpXpXpXpXpXpXpXpXpXpXpXpXpXpXpXpXpXpXpXpXpXpXpXpXpXpXpXpXpXpXpXpXpXpXpXpXpXpXpXpXpXpXpXpXpXpXpXpXpXpXpXpXpXpXpXpXpXpXpXpXpXpXpXpXpXpXpXpXpXpXpXpXpXpXpXpXpXpXpXpXpXpXpXpXpXpXpXpXpXpXpXpXpX",
"pXpXpXpXpXpXpXpXpXpXpXpXpXpXpXpXpXpXpXpXpXpXpXpXpXpXpXpXpXpXpXpXpXpXpXpXpXpXpXpXpXpXpXpXpXpXpXpXpXpXpXpXpXpXpXpXpXpXpXpXpXpXpXpXpXpXpXpXpXpXpXpXpXpXpXpXpXpXpXpXpXpXpXpXpXpXpXpXpXpXpXpXwXwXwXpXpX[ [ [ [ ` ` ` ` 9 9 9 9 9 n n n n N N v N 8 8 8 8 8 1 1 1 1 . . . . 9 9 9 9 ;.;.;.;.;.T T T T T T T R dXdXdXdXdX0 0 0 0 0 0 0 0 8 0 0 0 0 0 0 0 0 8 8 8 8 0 0 0 0 8 8 8 8 7 7 7 7 7 8 7 7 7 0 0 0 8 8 0 0 0 0 0 0 0 0 8 8 8 8 q q q q 8 8 0 8 8 0 0 0 0 0 0 0 0 0 0 0 0 0 q q q q 0 0 0 0 0 q q q w w w w w 0 0 0 0 q 0 0 0 q q q q q q q q q q q 0 0 0 0 0 0 e e e e e e e e e q q q q e e e e 6X6X6X6X6XpXpXpXpXpXpXpXpXpXpXpXpXpXpXpXpXpXpXpXpXpXpXpXpXpXpXpXpXpXpXpXpXpXpXpXpXpXpXpXpXpXpXpXpXpXpXpXpXpXpXpXpXpXpXpXpXpXpXpXpXpXpXpXpXpXpXpXpXpXpXpXpXpXpXpXpXpXpXpXpXpXpXpXpXpXpXpXpXpXpXpXpXpXpXpXpXpXpXpXpXpX",
"pXpXpXpXpXpXpXpXpXpXpXpXpXpXpXpXpXpXpXpXpXpXpXpXpXpXpXpXpXpXpXpXpXpXpXpXpXpXpXpXpXpXpXpXpXpXpXpXpXpXpXpXpXpXpXpXpXpXpXpXpXpXpXpXpXpXpXpXpXpXpXpXpXpXpXpXpXpXpXpXpXpXpXpXpXpXpXpXpXpXpXpXwXwXpXpXpX=X=X=X=X| | | | B B B B B B B B B e e e e 2 5 5 5 5 X X X X         $ $ $ $ ) ~ ~ ) ) Y Y Y Y 0 0 0 0 ^ Q Q ^ ^ E E E E T T T T v v v v v v v e v q q q q q q q q 8 8 0 0 5 5 5 5 5 2 2 2 2 2 2 2 2 ; ; ; ; ; % % % % $ $ $ $ # # # # # # # # # X X X X X X X X X X X X X . . X X X X                                                                                           }.}.}.}.pXpXpXpXpXpXpXpXpXpXpXpXpXpXpXpXpXpXpXpXpXpXpXpXpXpXpXpXpXpXpXpXpXpXpXpXpXpXpXpXpXpXpXpXpXpXpXpXpXpXpXpXpXpXpXpXpXpXpXpXpXpXpXpXpXpXpXpXpXpXpXpXpXpXpXpXpXpXpXpXpXpXpXpXpXpXpXpXpXpXpXpXpXpXpXpXpXpXpXpXpXpXpXpXpXpXpXpXpXpX",
"pXpXpXpXpXpXpXpXpXpXpXpXpXpXpXpXpXpXpXpXpXpXpXpXpXpXpXpXpXpXpXpXpXpXpXpXpXpXpXpXpXpXpXpXpXpXpXpXpXpXpXpXpXpXpXpXpXpXpXpXpXpXpXpXpXpXpXpXpXpXpXpXpXpXpXpXpXpXpXpXpXpXpXpXpXpXpXpXpXpXpXpXqXwXwXwXwX=X=X=X=X| | | | B B B B B B B B B e e e e 5 5 5 5 5 X X X X         $ $ $ $ ) ~ ~ ) ) Y Y Y Y 0 0 0 0 ^ ^ ^ ^ Q E E E E T T T T v v v v v v v e e q q q q q q q q 0 0 0 0 5 5 5 5 5 2 2 2 2 2 2 2 2 ; ; ; ; ; % % % % $ $ $ $ # # # # # # # # # X X X X X X X X X X X X X . . X X X . .                                                                                         }.}.}.}.pXpXpXpXpXpXpXpXpXpXpXpXpXpXpXpXpXpXpXpXpXpXpXpXpXpXpXpXpXpXpXpXpXpXpXpXpXpXpXpXpXpXpXpXpXpXpXpXpXpXpXpXpXpXpXpXpXpXpXpXpXpXpXpXpXpXpXpXpXpXpXpXpXpXpXpXpXpXpXpXpXpXpXpXpXpXpXpXpXpXpXpXpXpXpXpXpXpXpXpXpXpXpXpXpXpXpXpXpXpX",
"pXpXpXpXpXpXpXpXpXpXpXpXpXpXpXpXpXpXpXpXpXpXpXpXpXpXpXpXpXpXpXpXpXpXpXpXpXpXpXpXpXpXpXpXpXpXpXpXpXpXpXpXpXpXpXpXpXpXpXpXpXpXpXpXpXpXpXpXpXpXpXpXpXpXpXpXpXpXpXpXpXpXpXpXpXpXpXpXpXpXpXpXwXwXwXwXwX=X=X=X=X| | | | B B B B B B B B B e e e e 5 5 5 5 5 X X X X         $ $ $ $ ) ~ ~ ) ) Y Y Y Y 0 0 0 0 ^ ^ ^ Q Q E E E E T T T T v v v v v v e e e q q q q q q q q 0 0 0 0 5 5 5 5 5 2 2 2 2 2 2 2 2 ; ; ; ; ; % % % % $ $ $ $ # # # # # # # # # X X X X X X X X X X X X X . . . . X X .                                                                                         }.}.}.}.pXpXpXpXpXpXpXpXpXpXpXpXpXpXpXpXpXpXpXpXpXpXpXpXpXpXpXpXpXpXpXpXpXpXpXpXpXpXpXpXpXpXpXpXpXpXpXpXpXpXpXpXpXpXpXpXpXpXpXpXpXpXpXpXpXpXpXpXpXpXpXpXpXpXpXpXpXpXpXpXpXpXpXpXpXpXpXpXpXpXpXpXpXpXpXpXpXpXpXpXpXpXpXpXpXpXpXpXpXpX",
"pXpXpXpXpXpXpXpXpXpXpXpXpXpXpXpXpXpXpXpXpXpXpXpXpXpXpXpXpXpXpXpXpXpXpXpXpXpXpXpXpXpXpXpXpXpXpXpXpXpXpXpXpXpXpXpXpXpXpXpXpXpXpXpXpXpXpXpXpXpXpXpXpXpXpXpXpXpXpXpXpXpXpXpXpXpXpXpXpXpXpXpXpXpXpXpXpX=X=X=X=X| | | | B B B B B B B B B e e e e 5 5 5 5 5 X X X X         $ $ $ $ ~ ) ) ) ) Y Y Y Y 0 0 0 0 Q Q Q Q Q E E E E T T T T v v v v v v v v v q q q q q q q q 0 0 0 8 5 5 5 5 5 2 2 2 2 2 2 2 2 ; ; ; ; ; % % % % $ $ $ $ # # # # # # # # # X X X X X X X X X X X X X X X . .                                                                                               }.}.}.}.pXpXpXpXpXpXpXpXpXpXpXpXpXpXpXpXpXpXpXpXpXpXpXpXpXpXpXpXpXpXpXpXpXpXpXpXpXpXpXpXpXpXpXpXpXpXpXpXpXpXpXpXpXpXpXpXpXpXpXpXpXpXpXpXpXpXpXpXpXpXpXpXpXpXpXpXpXpXpXpXpXpXpXpXpXpXpXpXpXpXpXpXpXpXpXpXpXpXpXpXpXpXpXpXpXpXpXpXpXpX",
"pXpXpXpXpXpXpXpXpXpXpXpXpXpXpXpXpXpXpXpXpXpXpXpXpXpXpXpXpXpXpXpXpXpXpXpXpXpXpXpXpXpXpXpXpXpXpXpXpXpXpXpXpXpXpXpXpXpXpXpXpXpXpXpXpXpXpXpXpXpXpXpXpXpXpXpXpXpXpXpXpXpXpXpXpXpXpXpXpXpXpXpXpXpXpXpXpXpXpXpXpX;.;.;.;.~ ~ ~ ~ ~ B B B B q q q q N N N N N X X X X         : : : : V V V V V N N N N 5 5 5 5 X X X X X                                                                                                                                                                                                                                                                 pXpXpXpXpXpXpXpXpXpXpXpXpXpXpXpXpXpXpXpXpXpXpXpXpXpXpXpXpXpXpXpXpXpXpXpXpXpXpXpXpXpXpXpXpXpXpXpXpXpXpXpXpXpXpXpXpXpXpXpXpXpXpXpXpXpXpXpXpXpXpXpXpXpXpXpXpXpXpXpXpXpXpXpXpXpXpXpXpXpXpXpXpXpXpXpXpXpXpXpXpXpXpXpXpXpXpXpXpXpXpXpXpXpX",
"pXpXpXpXpXpXpXpXpXpXpXpXpXpXpXpXpXpXpXpXpXpXpXpXpXpXpXpXpXpXpXpXpXpXpXpXpXpXpXpXpXpXpXpXpXpXpXpXpXpXpXpXpXpXpXpXpXpXpXpXpXpXpXpXpXpXpXpXpXpXpXpXpXpXpXpXpXpXpXpXpXpXpXpXpXpXpXpXpXpXpXpXpXpXpXpXpXpXpXpXpX;.;.;.;.~ ~ ~ ~ ~ B B B B q q q q N N N N N X X X X         : : : : V V V V V N N N N 5 5 5 5 X X X X X                                                                                                                                                                                                                                                                 pXpXpXpXpXpXpXpXpXpXpXpXpXpXpXpXpXpXpXpXpXpXpXpXpXpXpXpXpXpXpXpXpXpXpXpXpXpXpXpXpXpXpXpXpXpXpXpXpXpXpXpXpXpXpXpXpXpXpXpXpXpXpXpXpXpXpXpXpXpXpXpXpXpXpXpXpXpXpXpXpXpXpXpXpXpXpXpXpXpXpXpXpXpXpXpXpXpXpXpXpXpXpXpXpXpXpXpXpXpXpXpXpXpX",
"pXpXpXpXpXpXpXpXpXpXpXpXpXpXpXpXpXpXpXpXpXpXpXpXpXpXpXpXpXpXpXpXpXpXpXpXpXpXpXpXpXpXpXpXpXpXpXpXpXpXpXpXpXpXpXpXpXpXpXpXpXpXpXpXpXpXpXpXpXpXpXpXpXpXpXpXpXpXpXpXpXpXpXpXpXpXpXpXpXpXpXpXpXpXpXpXpXpXpXpXpX;.;.;.;.~ ~ ~ ~ ~ B B B B q q q q N N N N N X X X X         : 1 : : V V V V V N N N v 5 5 5 5 X X X X X                                                                                                                                                                                                                                                                 pXpXpXpXpXpXpXpXpXpXpXpXpXpXpXpXpXpXpXpXpXpXpXpXpXpXpXpXpXpXpXpXpXpXpXpXpXpXpXpXpXpXpXpXpXpXpXpXpXpXpXpXpXpXpXpXpXpXpXpXpXpXpXpXpXpXpXpXpXpXpXpXpXpXpXpXpXpXpXpXpXpXpXpXpXpXpXpXpXpXpXpXpXpXpXpXpXpXpXpXpXpXpXpXpXpXpXpXpXpXpXpXpXpX",
"pXpXpXpXpXpXpXpXpXpXpXpXpXpXpXpXpXpXpXpXpXpXpXpXpXpXpXpXpXpXpXpXpXpXpXpXpXpXpXpXpXpXpXpXpXpXpXpXpXpXpXpXpXpXpXpXpXpXpXpXpXpXpXpXpXpXpXpXpXpXpXpXpXpXpXpXpXpXpXpXpXpXpXpXpXpXpXpXpXpXpXpXpXpXpXpXpXpXpXpXpX;.;.;.;.~ ~ ~ ~ ~ B B B B q q q q N N N N N X X X X         : 1 : : V V V V V N N N N 7 7 5 5 X X X X X                                                                                                                                                                                                                                                                 pXpXpXpXpXpXpXpXpXpXpXpXpXpXpXpXpXpXpXpXpXpXpXpXpXpXpXpXpXpXpXpXpXpXpXpXpXpXpXpXpXpXpXpXpXpXpXpXpXpXpXpXpXpXpXpXpXpXpXpXpXpXpXpXpXpXpXpXpXpXpXpXpXpXpXpXpXpXpXpXpXpXpXpXpXpXpXpXpXpXpXpXpXpXpXpXpXpXpXpXpXpXpXpXpXpXpXpXpXpXpXpXpXpX",
"pXpXpXpXpXpXpXpXpXpXpXpXpXpXpXpXpXpXpXpXpXpXpXpXpXpXpXpXpXpXpXpXpXpXpXpXpXpXpXpXpXpXpXpXpXpXpXpXpXpXpXpXpXpXpXpXpXpXpXpXpXpXpXpXpXpXpXpXpXpXpXpXpXpXpXpXpXpXpXpXpXpXpXpXpXpXpXpXpXpXpXpXpXpXpXpXpXpXpXpXpX;.;.-. .[ } [ } } V V V V ; % % % q q q q w         # # # # E E E E w w w w w e e e e X X X X                                                                                                                                                                                                                                                                   pXpXpXpXpXpXpXpXpXpXpXpXpXpXpXpXpXpXpXpXpXpXpXpXpXpXpXpXpXpXpXpXpXpXpXpXpXpXpXpXpXpXpXpXpXpXpXpXpXpXpXpXpXpXpXpXpXpXpXpXpXpXpXpXpXpXpXpXpXpXpXpXpXpXpXpXpXpXpXpXpXpXpXpXpXpXpXpXpXpXpXpXpXpXpXpXpXpXpXpXpXpXpXpXpXpXpXpXpXpXpXpXpXpXpXpXpXpX",
"pXpXpXpXpXpXpXpXpXpXpXpXpXpXpXpXpXpXpXpXpXpXpXpXpXpXpXpXpXpXpXpXpXpXpXpXpXpXpXpXpXpXpXpXpXpXpXpXpXpXpXpXpXpXpXpXpXpXpXpXpXpXpXpXpXpXpXpXpXpXpXpXpXpXpXpXpXpXpXpXpXpXpXpXpXpXpXpXpXpXpXpXpXpXpXpXpXpXpXpXpX .-.-. .[ [ { } } V V V V % % % % q q q w q         # # # # E E E E w w w w w e e e e X X X X                                                                                                                                                                                                                                                                   pXpXpXpXpXpXpXpXpXpXpXpXpXpXpXpXpXpXpXpXpXpXpXpXpXpXpXpXpXpXpXpXpXpXpXpXpXpXpXpXpXpXpXpXpXpXpXpXpXpXpXpXpXpXpXpXpXpXpXpXpXpXpXpXpXpXpXpXpXpXpXpXpXpXpXpXpXpXpXpXpXpXpXpXpXpXpXpXpXpXpXpXpXpXpXpXpXpXpXpXpXpXpXpXpXpXpXpXpXpXpXpXpXpXpXpXpXpX",
"pXpXpXpXpXpXpXpXpXpXpXpXpXpXpXpXpXpXpXpXpXpXpXpXpXpXpXpXpXpXpXpXpXpXpXpXpXpXpXpXpXpXpXpXpXpXpXpXpXpXpXpXpXpXpXpXpXpXpXpXpXpXpXpXpXpXpXpXpXpXpXpXpXpXpXpXpXpXpXpXpXpXpXpXpXpXpXpXpXpXpXpXpXpXpXpXpXpXpXpXpX .;.-.-.[ [ { } } V V V V ; ; % % q q q q q         # # # # R R E E w w w w w e e e e X X X X                                                                                                                                                                                                                                                                   pXpXpXpXpXpXpXpXpXpXpXpXpXpXpXpXpXpXpXpXpXpXpXpXpXpXpXpXpXpXpXpXpXpXpXpXpXpXpXpXpXpXpXpXpXpXpXpXpXpXpXpXpXpXpXpXpXpXpXpXpXpXpXpXpXpXpXpXpXpXpXpXpXpXpXpXpXpXpXpXpXpXpXpXpXpXpXpXpXpXpXpXpXpXpXpXpXpXpXpXpXpXpXpXpXpXpXpXpXpXpXpXpXpXpXpXpXpX",
"pXpXpXpXpXpXpXpXpXpXpXpXpXpXpXpXpXpXpXpXpXpXpXpXpXpXpXpXpXpXpXpXpXpXpXpXpXpXpXpXpXpXpXpXpXpXpXpXpXpXpXpXpXpXpXpXpXpXpXpXpXpXpXpXpXpXpXpXpXpXpXpXpXpXpXpXpXpXpXpXpXpXpXpXpXpXpXpXpXpXpXpXpXpXpXpXpXpXpXpXpX-.-.-.;.} } } [ [ V V V V ; % 1 1 q q q q q         # # # # E E E R w w w w w e e e e X X X X                                                                                                                                                                                                                                                                   pXpXpXpXpXpXpXpXpXpXpXpXpXpXpXpXpXpXpXpXpXpXpXpXpXpXpXpXpXpXpXpXpXpXpXpXpXpXpXpXpXpXpXpXpXpXpXpXpXpXpXpXpXpXpXpXpXpXpXpXpXpXpXpXpXpXpXpXpXpXpXpXpXpXpXpXpXpXpXpXpXpXpXpXpXpXpXpXpXpXpXpXpXpXpXpXpXpXpXpXpXpXpXpXpXpXpXpXpXpXpXpXpXpXpXpXpXpX",
"pXpXpXpXpXpXpXpXpXpXpXpXpXpXpXpXpXpXpXpXpXpXpXpXpXpXpXpXpXpXpXpXpXpXpXpXpXpXpXpXpXpXpXpXpXpXpXpXpXpXpXpXpXpXpXpXpXpXpXpXpXpXpXpXpXpXpXpXpXpXpXpXpXpXpXpXpXpXpXpXpXpXpXpXpXpXpXpXpXpXpXpXpXpXpXpXpXpXpXpXpX-.-.-.-.} } { [ [ V V V V ; ; 1 1 q q q q q         # # # # E E E R w w w w w e e e e X X X X                                                                                                                                                                                                                                                                   pXpXpXpXpXpXpXpXpXpXpXpXpXpXpXpXpXpXpXpXpXpXpXpXpXpXpXpXpXpXpXpXpXpXpXpXpXpXpXpXpXpXpXpXpXpXpXpXpXpXpXpXpXpXpXpXpXpXpXpXpXpXpXpXpXpXpXpXpXpXpXpXpXpXpXpXpXpXpXpXpXpXpXpXpXpXpXpXpXpXpXpXpXpXpXpXpXpXpXpXpXpXpXpXpXpXpXpXpXpXpXpXpXpXpXpXpXpX",
"pXpXpXpXpXpXpXpXpXpXpXpXpXpXpXpXpXpXpXpXpXpXpXpXpXpXpXpXpXpXpXpXpXpXpXpXpXpXpXpXpXpXpXpXpXpXpXpXpXpXpXpXpXpXpXpXpXpXpXpXpXpXpXpXpXpXpXpXpXpXpXpXpXpXpXpXpXpXpXpXpXpXpXpXpXpXpXpXpXpXpXpXpXpXpXpXpXpXpXpXpX| | | | ~ ~ ~ ~ ~ > > 2 2 . . . . 5 5 5 5 5         5 5 5 5 E E E E N N N N N 0 0 0 0                                                                                                                                                                                                                                                                           pXpXpXpXpXpXpXpXpXpXpXpXpXpXpXpXpXpXpXpXpXpXpXpXpXpXpXpXpXpXpXpXpXpXpXpXpXpXpXpXpXpXpXpXpXpXpXpXpXpXpXpXpXpXpXpXpXpXpXpXpXpXpXpXpXpXpXpXpXpXpXpXpXpXpXpXpXpXpXpXpXpXpXpXpXpXpXpXpXpXpXpXpXpXpXpXpXpXpXpXpXpXpXpXpXpXpXpXpXpXpXpXpXpXpXpXpXpX",
"pXpXpXpXpXpXpXpXpXpXpXpXpXpXpXpXpXpXpXpXpXpXpXpXpXpXpXpXpXpXpXpXpXpXpXpXpXpXpXpXpXpXpXpXpXpXpXpXpXpXpXpXpXpXpXpXpXpXpXpXpXpXpXpXpXpXpXpXpXpXpXpXpXpXpXpXpXpXpXpXpXpXpXpXpXpXpXpXpXpXpXpXpXpXpXpXpXpXpXpXpX| | | | ~ ~ ~ ~ ~ > > 2 2 . . . . 5 5 5 5 5         5 5 5 5 E E E E N N N N N 0 0 0 0                                                                                                                                                                                                                                                                           pXpXpXpXpXpXpXpXpXpXpXpXpXpXpXpXpXpXpXpXpXpXpXpXpXpXpXpXpXpXpXpXpXpXpXpXpXpXpXpXpXpXpXpXpXpXpXpXpXpXpXpXpXpXpXpXpXpXpXpXpXpXpXpXpXpXpXpXpXpXpXpXpXpXpXpXpXpXpXpXpXpXpXpXpXpXpXpXpXpXpXpXpXpXpXpXpXpXpXpXpXpXpXpXpXpXpXpXpXpXpXpXpXpXpXpXpXpX",
"pXpXpXpXpXpXpXpXpXpXpXpXpXpXpXpXpXpXpXpXpXpXpXpXpXpXpXpXpXpXpXpXpXpXpXpXpXpXpXpXpXpXpXpXpXpXpXpXpXpXpXpXpXpXpXpXpXpXpXpXpXpXpXpXpXpXpXpXpXpXpXpXpXpXpXpXpXpXpXpXpXpXpXpXpXpXpXpXpXpXpXpXpXpXpXpXpXpXpXpXpX| | | | ~ ~ ~ ~ ~ 3 > 2 > . . . . 5 5 5 5 7         5 5 5 5 E E E E N N N N N 0 0 0 0                                                                                                                                                                                                                                                                           pXpXpXpXpXpXpXpXpXpXpXpXpXpXpXpXpXpXpXpXpXpXpXpXpXpXpXpXpXpXpXpXpXpXpXpXpXpXpXpXpXpXpXpXpXpXpXpXpXpXpXpXpXpXpXpXpXpXpXpXpXpXpXpXpXpXpXpXpXpXpXpXpXpXpXpXpXpXpXpXpXpXpXpXpXpXpXpXpXpXpXpXpXpXpXpXpXpXpXpXpXpXpXpXpXpXpXpXpXpXpXpXpXpXpXpXpXpX",
"pXpXpXpXpXpXpXpXpXpXpXpXpXpXpXpXpXpXpXpXpXpXpXpXpXpXpXpXpXpXpXpXpXpXpXpXpXpXpXpXpXpXpXpXpXpXpXpXpXpXpXpXpXpXpXpXpXpXpXpXpXpXpXpXpXpXpXpXpXpXpXpXpXpXpXpXpXpXpXpXpXpXpXpXpXpXpXpXpXpXpXpXpXpXpXpXpXpXpXpXpX| | | | ~ ~ ~ ~ ~ > > > > . . . . 5 5 7 5 7         5 5 5 5 E E E E N N N N N 0 0 0 0                                                                                                                                                                                                                                                                           pXpXpXpXpXpXpXpXpXpXpXpXpXpXpXpXpXpXpXpXpXpXpXpXpXpXpXpXpXpXpXpXpXpXpXpXpXpXpXpXpXpXpXpXpXpXpXpXpXpXpXpXpXpXpXpXpXpXpXpXpXpXpXpXpXpXpXpXpXpXpXpXpXpXpXpXpXpXpXpXpXpXpXpXpXpXpXpXpXpXpXpXpXpXpXpXpXpXpXpXpXpXpXpXpXpXpXpXpXpXpXpXpXpXpXpXpXpX",
"pXpXpXpXpXpXpXpXpXpXpXpXpXpXpXpXpXpXpXpXpXpXpXpXpXpXpXpXpXpXpXpXpXpXpXpXpXpXpXpXpXpXpXpXpXpXpXpXpXpXpXpXpXpXpXpXpXpXpXpXpXpXpXpXpXpXpXpXpXpXpXpXpXpXpXpXpXpXpXpXpXpXpXpXpXpXpXpXpXpXpXpXpXpXpXpXpXpXpXpXpX] %.%.%.~ ! ! ~ ~                 # # $ $ $         R R R R R T T R q q q q q : : : :                                                                                                                                                                                                                                                                 6X6X6X6X6XpXpXpXpXpXpXpXpXpXpXpXpXpXpXpXpXpXpXpXpXpXpXpXpXpXpXpXpXpXpXpXpXpXpXpXpXpXpXpXpXpXpXpXpXpXpXpXpXpXpXpXpXpXpXpXpXpXpXpXpXpXpXpXpXpXpXpXpXpXpXpXpXpXpXpXpXpXpXpXpXpXpXpXpXpXpXpXpXpXpXpXpXpXpXpXpXpXpXpXpXpXpXpXpXpXpXpXpXpXpXpXpXpXpXpXpXpXpX",
"pXpXpXpXpXpXpXpXpXpXpXpXpXpXpXpXpXpXpXpXpXpXpXpXpXpXpXpXpXpXpXpXpXpXpXpXpXpXpXpXpXpXpXpXpXpXpXpXpXpXpXpXpXpXpXpXpXpXpXpXpXpXpXpXpXpXpXpXpXpXpXpXpXpXpXpXpXpXpXpXpXpXpXpXpXpXpXpXpXpXpXpXpXpXpXpXpXpXpXpXpX] %.%.%.~ ~ ~ ~ ~                 # # $ $ $         R R R R R T T R q q q q q : : : :                                                                                                                                                                                                                                                                 6X6X6X6X6XpXpXpXpXpXpXpXpXpXpXpXpXpXpXpXpXpXpXpXpXpXpXpXpXpXpXpXpXpXpXpXpXpXpXpXpXpXpXpXpXpXpXpXpXpXpXpXpXpXpXpXpXpXpXpXpXpXpXpXpXpXpXpXpXpXpXpXpXpXpXpXpXpXpXpXpXpXpXpXpXpXpXpXpXpXpXpXpXpXpXpXpXpXpXpXpXpXpXpXpXpXpXpXpXpXpXpXpXpXpXpXpXpXpXpXpXpXpX",
"pXpXpXpXpXpXpXpXpXpXpXpXpXpXpXpXpXpXpXpXpXpXpXpXpXpXpXpXpXpXpXpXpXpXpXpXpXpXpXpXpXpXpXpXpXpXpXpXpXpXpXpXpXpXpXpXpXpXpXpXpXpXpXpXpXpXpXpXpXpXpXpXpXpXpXpXpXpXpXpXpXpXpXpXpXpXpXpXpXpXpXpXpXpXpXpXpXpXpXpXpX%.%.%.%.~ ~ ~ ~ ~                 # # # # #         R T T T T R R R q q q q q : : 1 1                                                                                                                                                                                                                                                                 6X6X6X6X6XpXpXpXpXpXpXpXpXpXpXpXpXpXpXpXpXpXpXpXpXpXpXpXpXpXpXpXpXpXpXpXpXpXpXpXpXpXpXpXpXpXpXpXpXpXpXpXpXpXpXpXpXpXpXpXpXpXpXpXpXpXpXpXpXpXpXpXpXpXpXpXpXpXpXpXpXpXpXpXpXpXpXpXpXpXpXpXpXpXpXpXpXpXpXpXpXpXpXpXpXpXpXpXpXpXpXpXpXpXpXpXpXpXpXpXpXpXpX",
"pXpXpXpXpXpXpXpXpXpXpXpXpXpXpXpXpXpXpXpXpXpXpXpXpXpXpXpXpXpXpXpXpXpXpXpXpXpXpXpXpXpXpXpXpXpXpXpXpXpXpXpXpXpXpXpXpXpXpXpXpXpXpXpXpXpXpXpXpXpXpXpXpXpXpXpXpXpXpXpXpXpXpXpXpXpXpXpXpXpXpXpXpXpXpXpXpXpXpXpXpX%.%.%.%.~ ~ ~ ~ ~                 # # $ # #         R T T T T R R R q q q q q : : 1 :                                                                                                                                                                                                                                                                 6X6X6X6X6XpXpXpXpXpXpXpXpXpXpXpXpXpXpXpXpXpXpXpXpXpXpXpXpXpXpXpXpXpXpXpXpXpXpXpXpXpXpXpXpXpXpXpXpXpXpXpXpXpXpXpXpXpXpXpXpXpXpXpXpXpXpXpXpXpXpXpXpXpXpXpXpXpXpXpXpXpXpXpXpXpXpXpXpXpXpXpXpXpXpXpXpXpXpXpXpXpXpXpXpXpXpXpXpXpXpXpXpXpXpXpXpXpXpXpXpXpXpX",
"pXpXpXpXpXpXpXpXpXpXpXpXpXpXpXpXpXpXpXpXpXpXpXpXpXpXpXpXpXpXpXpXpXpXpXpXpXpXpXpXpXpXpXpXpXpXpXpXpXpXpXpXpXpXpXpXpXpXpXpXpXpXpXpXpXpXpXpXpXpXpXpXpXpXpXpXpXpXpXpXpXpXpXpXpXpXpXpXpXpXpXpXpXpXpXpXpXpXpXpXpXpXpXpXpX` ` ` ] `                 n n n n n 3 6 6 3 0 0 0 0 8 0 0 8 X X X X X . . . .                                                                                                                                                                                                                                                         pXpXpXpXpXpXpXpXpXpXpXpXpXpXpXpXpXpXpXpXpXpXpXpXpXpXpXpXpXpXpXpXpXpXpXpXpXpXpXpXpXpXpXpXpXpXpXpXpXpXpXpXpXpXpXpXpXpXpXpXpXpXpXpXpXpXpXpXpXpXpXpXpXpXpXpXpXpXpXpXpXpXpXpXpXpXpXpXpXpXpXpXpXpXpXpXpXpXpXpXpXpXpXpXpXpXpXpXpXpXpXpXpXpXpXpXpXpXpXpXpXpXpXpXpXpXpX",
"pXpXpXpXpXpXpXpXpXpXpXpXpXpXpXpXpXpXpXpXpXpXpXpXpXpXpXpXpXpXpXpXpXpXpXpXpXpXpXpXpXpXpXpXpXpXpXpXpXpXpXpXpXpXpXpXpXpXpXpXpXpXpXpXpXpXpXpXpXpXpXpXpXpXpXpXpXpXpXpXpXpXpXpXpXpXpXpXpXpXpXpXpXpXpXpXpXpXpXpXpXpXpXpXpX` ` ` ] ]                 n n n n n 3 3 3 3 0 0 0 0 8 8 0 8 X X X X X . . . .                                                                                                                                                                                                                                                         pXpXpXpXpXpXpXpXpXpXpXpXpXpXpXpXpXpXpXpXpXpXpXpXpXpXpXpXpXpXpXpXpXpXpXpXpXpXpXpXpXpXpXpXpXpXpXpXpXpXpXpXpXpXpXpXpXpXpXpXpXpXpXpXpXpXpXpXpXpXpXpXpXpXpXpXpXpXpXpXpXpXpXpXpXpXpXpXpXpXpXpXpXpXpXpXpXpXpXpXpXpXpXpXpXpXpXpXpXpXpXpXpXpXpXpXpXpXpXpXpXpXpXpXpXpXpX",
"pXpXpXpXpXpXpXpXpXpXpXpXpXpXpXpXpXpXpXpXpXpXpXpXpXpXpXpXpXpXpXpXpXpXpXpXpXpXpXpXpXpXpXpXpXpXpXpXpXpXpXpXpXpXpXpXpXpXpXpXpXpXpXpXpXpXpXpXpXpXpXpXpXpXpXpXpXpXpXpXpXpXpXpXpXpXpXpXpXpXpXpXpXpXpXpXpXpXpXpXpXpXpXpXpX` ] ] ] ]                 n n N n n 3 6 6 3 0 0 q q 0 8 8 8 X X X X X . . . .                                                                                                                                                                                                                                                         pXpXpXpXpXpXpXpXpXpXpXpXpXpXpXpXpXpXpXpXpXpXpXpXpXpXpXpXpXpXpXpXpXpXpXpXpXpXpXpXpXpXpXpXpXpXpXpXpXpXpXpXpXpXpXpXpXpXpXpXpXpXpXpXpXpXpXpXpXpXpXpXpXpXpXpXpXpXpXpXpXpXpXpXpXpXpXpXpXpXpXpXpXpXpXpXpXpXpXpXpXpXpXpXpXpXpXpXpXpXpXpXpXpXpXpXpXpXpXpXpXpXpXpXpXpXpX",
"pXpXpXpXpXpXpXpXpXpXpXpXpXpXpXpXpXpXpXpXpXpXpXpXpXpXpXpXpXpXpXpXpXpXpXpXpXpXpXpXpXpXpXpXpXpXpXpXpXpXpXpXpXpXpXpXpXpXpXpXpXpXpXpXpXpXpXpXpXpXpXpXpXpXpXpXpXpXpXpXpXpXpXpXpXpXpXpXpXpXpXpXpXpXpXpXpXpXpXpXpXpXpXpXpX] ] ] ] ]                 n n N n N 3 3 3 3 0 0 q 0 8 8 8 8 X X X X X . . . .                                                                                                                                                                                                                                                         pXpXpXpXpXpXpXpXpXpXpXpXpXpXpXpXpXpXpXpXpXpXpXpXpXpXpXpXpXpXpXpXpXpXpXpXpXpXpXpXpXpXpXpXpXpXpXpXpXpXpXpXpXpXpXpXpXpXpXpXpXpXpXpXpXpXpXpXpXpXpXpXpXpXpXpXpXpXpXpXpXpXpXpXpXpXpXpXpXpXpXpXpXpXpXpXpXpXpXpXpXpXpXpXpXpXpXpXpXpXpXpXpXpXpXpXpXpXpXpXpXpXpXpXpXpXpX",
"pXpXpXpXpXpXpXpXpXpXpXpXpXpXpXpXpXpXpXpXpXpXpXpXpXpXpXpXpXpXpXpXpXpXpXpXpXpXpXpXpXpXpXpXpXpXpXpXpXpXpXpXpXpXpXpXpXpXpXpXpXpXpXpXpXpXpXpXpXpXpXpXpXpXpXpXpXpXpXpXpXpXpXpXpXpXpXpXpXpXpXpXpXpXpXpXpXpXpXpXpXpXpXpXpX] ] ] ] ]                 N n n n N 3 3 3 3 0 0 0 0 8 8 8 8 X X X X X . . . .                                                                                                                                                                                                                                                         pXpXpXpXpXpXpXpXpXpXpXpXpXpXpXpXpXpXpXpXpXpXpXpXpXpXpXpXpXpXpXpXpXpXpXpXpXpXpXpXpXpXpXpXpXpXpXpXpXpXpXpXpXpXpXpXpXpXpXpXpXpXpXpXpXpXpXpXpXpXpXpXpXpXpXpXpXpXpXpXpXpXpXpXpXpXpXpXpXpXpXpXpXpXpXpXpXpXpXpXpXpXpXpXpXpXpXpXpXpXpXpXpXpXpXpXpXpXpXpXpXpXpXpXpXpXpX",
"pXpXpXpXpXpXpXpXpXpXpXpXpXpXpXpXpXpXpXpXpXpXpXpXpXpXpXpXpXpXpXpXpXpXpXpXpXpXpXpXpXpXpXpXpXpXpXpXpXpXpXpXpXpXpXpXpXpXpXpXpXpXpXpXpXpXpXpXpXpXpXpXpXpXpXpXpXpXpXpXpXpXpXpXpXpXpXpXpXpXpXpXpXpXpXpXpXpXpXpXpXpXpXpXpX;.;.;.;.;.                3 3 3 3 3 ~ ~ ~ ~ a a a a $ $ $ $ . . X X X { { { { # # # +                                                                                                                                                                                                                                                 pXpXpXpXpXpXpXpXpXpXpXpXpXpXpXpXpXpXpXpXpXpXpXpXpXpXpXpXpXpXpXpXpXpXpXpXpXpXpXpXpXpXpXpXpXpXpXpXpXpXpXpXpXpXpXpXpXpXpXpXpXpXpXpXpXpXpXpXpXpXpXpXpXpXpXpXpXpXpXpXpXpXpXpXpXpXpXpXpXpXpXpXpXpXpXpXpXpXpXpXpXpXpXpXpXpXpXpXpXpXpXpXpXpXpXpXpXpXpXpXpXpXpXpXpXpXpX",
"pXpXpXpXpXpXpXpXpXpXpXpXpXpXpXpXpXpXpXpXpXpXpXpXpXpXpXpXpXpXpXpXpXpXpXpXpXpXpXpXpXpXpXpXpXpXpXpXpXpXpXpXpXpXpXpXpXpXpXpXpXpXpXpXpXpXpXpXpXpXpXpXpXpXpXpXpXpXpXpXpXpXpXpXpXpXpXpXpXpXpXpXpXpXpXpXpXpXpXpXpXpXpXpXpX;.;.;.;.;.                3 3 > 3 3 ~ ~ ~ ~ a a a a $ $ $ $ . . . . . { { { { + + # +                                                                                                                                                                                                                                                 pXpXpXpXpXpXpXpXpXpXpXpXpXpXpXpXpXpXpXpXpXpXpXpXpXpXpXpXpXpXpXpXpXpXpXpXpXpXpXpXpXpXpXpXpXpXpXpXpXpXpXpXpXpXpXpXpXpXpXpXpXpXpXpXpXpXpXpXpXpXpXpXpXpXpXpXpXpXpXpXpXpXpXpXpXpXpXpXpXpXpXpXpXpXpXpXpXpXpXpXpXpXpXpXpXpXpXpXpXpXpXpXpXpXpXpXpXpXpXpXpXpXpXpXpXpXpX",
"pXpXpXpXpXpXpXpXpXpXpXpXpXpXpXpXpXpXpXpXpXpXpXpXpXpXpXpXpXpXpXpXpXpXpXpXpXpXpXpXpXpXpXpXpXpXpXpXpXpXpXpXpXpXpXpXpXpXpXpXpXpXpXpXpXpXpXpXpXpXpXpXpXpXpXpXpXpXpXpXpXpXpXpXpXpXpXpXpXpXpXpXpXpXpXpXpXpXpXpXpXpXpXpXpX;.;.;.;.;.                3 3 > > 3 ~ ~ ~ ~ a a a a $ $ $ $ . . . . . { { { { # + + +                                                                                                                                                                                                                                                 pXpXpXpXpXpXpXpXpXpXpXpXpXpXpXpXpXpXpXpXpXpXpXpXpXpXpXpXpXpXpXpXpXpXpXpXpXpXpXpXpXpXpXpXpXpXpXpXpXpXpXpXpXpXpXpXpXpXpXpXpXpXpXpXpXpXpXpXpXpXpXpXpXpXpXpXpXpXpXpXpXpXpXpXpXpXpXpXpXpXpXpXpXpXpXpXpXpXpXpXpXpXpXpXpXpXpXpXpXpXpXpXpXpXpXpXpXpXpXpXpXpXpXpXpXpXpX",
"pXpXpXpXpXpXpXpXpXpXpXpXpXpXpXpXpXpXpXpXpXpXpXpXpXpXpXpXpXpXpXpXpXpXpXpXpXpXpXpXpXpXpXpXpXpXpXpXpXpXpXpXpXpXpXpXpXpXpXpXpXpXpXpXpXpXpXpXpXpXpXpXpXpXpXpXpXpXpXpXpXpXpXpXpXpXpXpXpXpXpXpXpXpXpXpXpXpXpXpXpXpXpXpXpX;.;.;.;.;.                3 3 > > 3 ~ ~ ~ ~ a a a a $ $ $ $ . . . . . { { { { + + # #                                                                                                                                                                                                                                                 pXpXpXpXpXpXpXpXpXpXpXpXpXpXpXpXpXpXpXpXpXpXpXpXpXpXpXpXpXpXpXpXpXpXpXpXpXpXpXpXpXpXpXpXpXpXpXpXpXpXpXpXpXpXpXpXpXpXpXpXpXpXpXpXpXpXpXpXpXpXpXpXpXpXpXpXpXpXpXpXpXpXpXpXpXpXpXpXpXpXpXpXpXpXpXpXpXpXpXpXpXpXpXpXpXpXpXpXpXpXpXpXpXpXpXpXpXpXpXpXpXpXpXpXpXpXpX",
"pXpXpXpXpXpXpXpXpXpXpXpXpXpXpXpXpXpXpXpXpXpXpXpXpXpXpXpXpXpXpXpXpXpXpXpXpXpXpXpXpXpXpXpXpXpXpXpXpXpXpXpXpXpXpXpXpXpXpXpXpXpXpXpXpXpXpXpXpXpXpXpXpXpXpXpXpXpXpXpXpXpXpXpXpXpXpXpXpXpXpXpXpXpXpXpXpXpXpXpXpXpXpXpXpX6X=X=X=X=X                H.H.b.b.H.f.f.f.f.i i i i         9 9 9 9 9 [ [ [ [ @ @ # #                                                                                                                                                                                                                                         F F F F pXpXpXpXpXpXpXpXpXpXpXpXpXpXpXpXpXpXpXpXpXpXpXpXpXpXpXpXpXpXpXpXpXpXpXpXpXpXpXpXpXpXpXpXpXpXpXpXpXpXpXpXpXpXpXpXpXpXpXpXpXpXpXpXpXpXpXpXpXpXpXpXpXpXpXpXpXpXpXpXpXpXpXpXpXpXpXpXpXpXpXpXpXpXpXpXpXpXpXpXpXpXpXpXpXpXpXpXpXpXpXpXpXpXpXpXpXpXpXpXpXpXpXpXpXpXpX",
"pXpXpXpXpXpXpXpXpXpXpXpXpXpXpXpXpXpXpXpXpXpXpXpXpXpXpXpXpXpXpXpXpXpXpXpXpXpXpXpXpXpXpXpXpXpXpXpXpXpXpXpXpXpXpXpXpXpXpXpXpXpXpXpXpXpXpXpXpXpXpXpXpXpXpXpXpXpXpXpXpXpXpXpXpXpXpXpXpXpXpXpXpXpXpXpXpXpXpXpXpXpXpXpXpX=X=X=X=X=X                H.H.H.H.H.f.f.f.f.i i i i         9 9 9 9 9 [ [ [ [ @ # # #                                                                                                                                                                                                                                         F F F F pXpXpXpXpXpXpXpXpXpXpXpXpXpXpXpXpXpXpXpXpXpXpXpXpXpXpXpXpXpXpXpXpXpXpXpXpXpXpXpXpXpXpXpXpXpXpXpXpXpXpXpXpXpXpXpXpXpXpXpXpXpXpXpXpXpXpXpXpXpXpXpXpXpXpXpXpXpXpXpXpXpXpXpXpXpXpXpXpXpXpXpXpXpXpXpXpXpXpXpXpXpXpXpXpXpXpXpXpXpXpXpXpXpXpXpXpXpXpXpXpXpXpXpXpXpXpX",
"pXpXpXpXpXpXpXpXpXpXpXpXpXpXpXpXpXpXpXpXpXpXpXpXpXpXpXpXpXpXpXpXpXpXpXpXpXpXpXpXpXpXpXpXpXpXpXpXpXpXpXpXpXpXpXpXpXpXpXpXpXpXpXpXpXpXpXpXpXpXpXpXpXpXpXpXpXpXpXpXpXpXpXpXpXpXpXpXpXpXpXpXpXpXpXpXpXpXpXpXpXpXpXpXpX=X=X=X=X=X                H.H.H.H.H.f.f.f.f.i i i i         9 9 9 9 9 [ [ [ [ # # # #                                                                                                                                                                                                                                         F F F F pXpXpXpXpXpXpXpXpXpXpXpXpXpXpXpXpXpXpXpXpXpXpXpXpXpXpXpXpXpXpXpXpXpXpXpXpXpXpXpXpXpXpXpXpXpXpXpXpXpXpXpXpXpXpXpXpXpXpXpXpXpXpXpXpXpXpXpXpXpXpXpXpXpXpXpXpXpXpXpXpXpXpXpXpXpXpXpXpXpXpXpXpXpXpXpXpXpXpXpXpXpXpXpXpXpXpXpXpXpXpXpXpXpXpXpXpXpXpXpXpXpXpXpXpXpXpX",
"pXpXpXpXpXpXpXpXpXpXpXpXpXpXpXpXpXpXpXpXpXpXpXpXpXpXpXpXpXpXpXpXpXpXpXpXpXpXpXpXpXpXpXpXpXpXpXpXpXpXpXpXpXpXpXpXpXpXpXpXpXpXpXpXpXpXpXpXpXpXpXpXpXpXpXpXpXpXpXpXpXpXpXpXpXpXpXpXpXpXpXpXpXpXpXpXpXpXpXpXpXpXpXpXpX6X=X=X=X=X                H.H.H.H.H.f.f.f.f.i i i i         9 9 9 9 9 [ [ [ [ # # # #                                                                                                                                                                                                                                         F F F F pXpXpXpXpXpXpXpXpXpXpXpXpXpXpXpXpXpXpXpXpXpXpXpXpXpXpXpXpXpXpXpXpXpXpXpXpXpXpXpXpXpXpXpXpXpXpXpXpXpXpXpXpXpXpXpXpXpXpXpXpXpXpXpXpXpXpXpXpXpXpXpXpXpXpXpXpXpXpXpXpXpXpXpXpXpXpXpXpXpXpXpXpXpXpXpXpXpXpXpXpXpXpXpXpXpXpXpXpXpXpXpXpXpXpXpXpXpXpXpXpXpXpXpXpXpXpX",
"pXpXpXpXpXpXpXpXpXpXpXpXpXpXpXpXpXpXpXpXpXpXpXpXpXpXpXpXpXpXpXpXpXpXpXpXpXpXpXpXpXpXpXpXpXpXpXpXpXpXpXpXpXpXpXpXpXpXpXpXpXpXpXpXpXpXpXpXpXpXpXpXpXpXpXpXpXpXpXpXpXpXpXpXpXpXpXpXpXpXpXpXpXpXpXpXpXpXpXpXpXpXpXpXpXpXpXpXpXpXpXpXpXpXF.F.F.F.f.f.f.f.f.j j j j r r r r         9 9 9 9 9 ~ ~ ~ ~                                                                                                                                                                                                                                                 6X6X6X6XpXpXpXpXpXpXpXpXpXpXpXpXpXpXpXpXpXpXpXpXpXpXpXpXpXpXpXpXpXpXpXpXpXpXpXpXpXpXpXpXpXpXpXpXpXpXpXpXpXpXpXpXpXpXpXpXpXpXpXpXpXpXpXpXpXpXpXpXpXpXpXpXpXpXpXpXpXpXpXpXpXpXpXpXpXpXpXpXpXpXpXpXpXpXpXpXpXpXpXpXpXpXpXpXpXpXpXpXpXpXpXpXpXpXpXpXpXpXpXpXpXpXpXpXpXpXpX",
"pXpXpXpXpXpXpXpXpXpXpXpXpXpXpXpXpXpXpXpXpXpXpXpXpXpXpXpXpXpXpXpXpXpXpXpXpXpXpXpXpXpXpXpXpXpXpXpXpXpXpXpXpXpXpXpXpXpXpXpXpXpXpXpXpXpXpXpXpXpXpXpXpXpXpXpXpXpXpXpXpXpXpXpXpXpXpXpXpXpXpXpXpXpXpXpXpXpXpXpXpXpXpXpXpXpXpXpXpXpXpXpXpXpXF.F.F.F.f.f.f.f.f.j j j j r r r r         9 9 9 w w ~ ~ ~ ~                                                                                                                                                                                                                                                 6X6X6X6XpXpXpXpXpXpXpXpXpXpXpXpXpXpXpXpXpXpXpXpXpXpXpXpXpXpXpXpXpXpXpXpXpXpXpXpXpXpXpXpXpXpXpXpXpXpXpXpXpXpXpXpXpXpXpXpXpXpXpXpXpXpXpXpXpXpXpXpXpXpXpXpXpXpXpXpXpXpXpXpXpXpXpXpXpXpXpXpXpXpXpXpXpXpXpXpXpXpXpXpXpXpXpXpXpXpXpXpXpXpXpXpXpXpXpXpXpXpXpXpXpXpXpXpXpXpXpX",
"pXpXpXpXpXpXpXpXpXpXpXpXpXpXpXpXpXpXpXpXpXpXpXpXpXpXpXpXpXpXpXpXpXpXpXpXpXpXpXpXpXpXpXpXpXpXpXpXpXpXpXpXpXpXpXpXpXpXpXpXpXpXpXpXpXpXpXpXpXpXpXpXpXpXpXpXpXpXpXpXpXpXpXpXpXpXpXpXpXpXpXpXpXpXpXpXpXpXpXpXpXpXpXpXpXpXpXpXpXpXpXpXpXpXF.F.F.F.f.f.f.f.f.j j j j r r r r         9 9 9 w w ~ ~ ~ ~                                                                                                                                                                                                                                                 6X6X6X6XpXpXpXpXpXpXpXpXpXpXpXpXpXpXpXpXpXpXpXpXpXpXpXpXpXpXpXpXpXpXpXpXpXpXpXpXpXpXpXpXpXpXpXpXpXpXpXpXpXpXpXpXpXpXpXpXpXpXpXpXpXpXpXpXpXpXpXpXpXpXpXpXpXpXpXpXpXpXpXpXpXpXpXpXpXpXpXpXpXpXpXpXpXpXpXpXpXpXpXpXpXpXpXpXpXpXpXpXpXpXpXpXpXpXpXpXpXpXpXpXpXpXpXpXpXpXpX",
"pXpXpXpXpXpXpXpXpXpXpXpXpXpXpXpXpXpXpXpXpXpXpXpXpXpXpXpXpXpXpXpXpXpXpXpXpXpXpXpXpXpXpXpXpXpXpXpXpXpXpXpXpXpXpXpXpXpXpXpXpXpXpXpXpXpXpXpXpXpXpXpXpXpXpXpXpXpXpXpXpXpXpXpXpXpXpXpXpXpXpXpXpXpXpXpXpXpXpXpXpXpXpXpXpXpXpXpXpXpXpXpXpXpXF.F.F.F.f.f.f.f.f.j j j j r r r r         9 9 9 9 w ~ ~ ~ ~                                                                                                                                                                                                                                                 6X6X6X6XpXpXpXpXpXpXpXpXpXpXpXpXpXpXpXpXpXpXpXpXpXpXpXpXpXpXpXpXpXpXpXpXpXpXpXpXpXpXpXpXpXpXpXpXpXpXpXpXpXpXpXpXpXpXpXpXpXpXpXpXpXpXpXpXpXpXpXpXpXpXpXpXpXpXpXpXpXpXpXpXpXpXpXpXpXpXpXpXpXpXpXpXpXpXpXpXpXpXpXpXpXpXpXpXpXpXpXpXpXpXpXpXpXpXpXpXpXpXpXpXpXpXpXpXpXpXpX",
"pXpXpXpXpXpXpXpXpXpXpXpXpXpXpXpXpXpXpXpXpXpXpXpXpXpXpXpXpXpXpXpXpXpXpXpXpXpXpXpXpXpXpXpXpXpXpXpXpXpXpXpXpXpXpXpXpXpXpXpXpXpXpXpXpXpXpXpXpXpXpXpXpXpXpXpXpXpXpXpXpXpXpXpXpXpXpXpXpXpXpXpXpXpXpXpXpXpXpXpXpXpXpXpXpXpXpXpXpXpXZXZXZXZXf.f.f.f.d d d d d r r r r = = = =         W W W W W 8 9 9 9                                                                                                                                                                                                                                         X X X X X X X X pXpXpXpXpXpXpXpXpXpXpXpXpXpXpXpXpXpXpXpXpXpXpXpXpXpXpXpXpXpXpXpXpXpXpXpXpXpXpXpXpXpXpXpXpXpXpXpXpXpXpXpXpXpXpXpXpXpXpXpXpXpXpXpXpXpXpXpXpXpXpXpXpXpXpXpXpXpXpXpXpXpXpXpXpXpXpXpXpXpXpXpXpXpXpXpXpXpXpXpXpXpXpXpXpXpXpXpXpXpXpXpXpXpXpXpXpXpXpXpXpXpXpXpXpXpXpX",
"pXpXpXpXpXpXpXpXpXpXpXpXpXpXpXpXpXpXpXpXpXpXpXpXpXpXpXpXpXpXpXpXpXpXpXpXpXpXpXpXpXpXpXpXpXpXpXpXpXpXpXpXpXpXpXpXpXpXpXpXpXpXpXpXpXpXpXpXpXpXpXpXpXpXpXpXpXpXpXpXpXpXpXpXpXpXpXpXpXpXpXpXpXpXpXpXpXpXpXpXpXpXpXpXpXpXpXpXpXpXZXZXZXZXf.f.f.f.d d d d d r r r r = = = =         W W W W W 8 8 8 8                                                                                                                                                                                                                                         X X X X X X X X pXpXpXpXpXpXpXpXpXpXpXpXpXpXpXpXpXpXpXpXpXpXpXpXpXpXpXpXpXpXpXpXpXpXpXpXpXpXpXpXpXpXpXpXpXpXpXpXpXpXpXpXpXpXpXpXpXpXpXpXpXpXpXpXpXpXpXpXpXpXpXpXpXpXpXpXpXpXpXpXpXpXpXpXpXpXpXpXpXpXpXpXpXpXpXpXpXpXpXpXpXpXpXpXpXpXpXpXpXpXpXpXpXpXpXpXpXpXpXpXpXpXpXpXpXpXpX",
"pXpXpXpXpXpXpXpXpXpXpXpXpXpXpXpXpXpXpXpXpXpXpXpXpXpXpXpXpXpXpXpXpXpXpXpXpXpXpXpXpXpXpXpXpXpXpXpXpXpXpXpXpXpXpXpXpXpXpXpXpXpXpXpXpXpXpXpXpXpXpXpXpXpXpXpXpXpXpXpXpXpXpXpXpXpXpXpXpXpXpXpXpXpXpXpXpXpXpXpXpXpXpXpXpXpXpXpXpXpXZXZXZXZXf.f.f.f.d d d d d r r r r = = = =         W R W W W 8 8 8 8                                                                                                                                                                                                                                         X X X X X X X X pXpXpXpXpXpXpXpXpXpXpXpXpXpXpXpXpXpXpXpXpXpXpXpXpXpXpXpXpXpXpXpXpXpXpXpXpXpXpXpXpXpXpXpXpXpXpXpXpXpXpXpXpXpXpXpXpXpXpXpXpXpXpXpXpXpXpXpXpXpXpXpXpXpXpXpXpXpXpXpXpXpXpXpXpXpXpXpXpXpXpXpXpXpXpXpXpXpXpXpXpXpXpXpXpXpXpXpXpXpXpXpXpXpXpXpXpXpXpXpXpXpXpXpXpXpXpX",
"pXpXpXpXpXpXpXpXpXpXpXpXpXpXpXpXpXpXpXpXpXpXpXpXpXpXpXpXpXpXpXpXpXpXpXpXpXpXpXpXpXpXpXpXpXpXpXpXpXpXpXpXpXpXpXpXpXpXpXpXpXpXpXpXpXpXpXpXpXpXpXpXpXpXpXpXpXpXpXpXpXpXpXpXpXpXpXpXpXpXpXpXpXpXpXpXpXpXpXpXpXpXpXpXpXpXpXpXpXpXZXZXZXZXf.f.f.f.d d d d d r r r r = = = =         W W W W W 6 6 8 8                                                                                                                                                                                                                                         X X X X X X X X pXpXpXpXpXpXpXpXpXpXpXpXpXpXpXpXpXpXpXpXpXpXpXpXpXpXpXpXpXpXpXpXpXpXpXpXpXpXpXpXpXpXpXpXpXpXpXpXpXpXpXpXpXpXpXpXpXpXpXpXpXpXpXpXpXpXpXpXpXpXpXpXpXpXpXpXpXpXpXpXpXpXpXpXpXpXpXpXpXpXpXpXpXpXpXpXpXpXpXpXpXpXpXpXpXpXpXpXpXpXpXpXpXpXpXpXpXpXpXpXpXpXpXpXpXpXpX",
"pXpXpXpXpXpXpXpXpXpXpXpXpXpXpXpXpXpXpXpXpXpXpXpXpXpXpXpXpXpXpXpXpXpXpXpXpXpXpXpXpXpXpXpXpXpXpXpXpXpXpXpXpXpXpXpXpXpXpXpXpXpXpXpXpXpXpXpXpXpXpXpXpXpXpXpXpXpXpXpXpXpXpXpXpXpXpXpXpXpXpXpXpXpXpXpXpXpXpXpXpXpXpXpXpXpXpXpXpXpXZXZXZXZXf.f.f.f.d d d d d r r r r = = = =         W W W W W 6 9 9 8                                                                                                                                                                                                                                         X X X X X X X X pXpXpXpXpXpXpXpXpXpXpXpXpXpXpXpXpXpXpXpXpXpXpXpXpXpXpXpXpXpXpXpXpXpXpXpXpXpXpXpXpXpXpXpXpXpXpXpXpXpXpXpXpXpXpXpXpXpXpXpXpXpXpXpXpXpXpXpXpXpXpXpXpXpXpXpXpXpXpXpXpXpXpXpXpXpXpXpXpXpXpXpXpXpXpXpXpXpXpXpXpXpXpXpXpXpXpXpXpXpXpXpXpXpXpXpXpXpXpXpXpXpXpXpXpXpXpX",
"pXpXpXpXpXpXpXpXpXpXpXpXpXpXpXpXpXpXpXpXpXpXpXpXpXpXpXpXpXpXpXpXpXpXpXpXpXpXpXpXpXpXpXpXpXpXpXpXpXpXpXpXpXpXpXpXpXpXpXpXpXpXpXpXpXpXpXpXpXpXpXpXpXpXpXpXpXpXpXpXpXpXpXpXpXpXpXpXpXpXpXpXpXpXpXpXpXpXpXpXpXpXpXpXpXpXpXpXpXpXyXyXyXyXd d l l s s s s s r r r r = = = = * @ @ @ ~ ~ ~ ~ ~ 3 3 3 3                                                                                                                                                                                                                                         X X X X X X X X # # # X pXpXpXpXpXpXpXpXpXpXpXpXpXpXpXpXpXpXpXpXpXpXpXpXpXpXpXpXpXpXpXpXpXpXpXpXpXpXpXpXpXpXpXpXpXpXpXpXpXpXpXpXpXpXpXpXpXpXpXpXpXpXpXpXpXpXpXpXpXpXpXpXpXpXpXpXpXpXpXpXpXpXpXpXpXpXpXpXpXpXpXpXpXpXpXpXpXpXpXpXpXpXpXpXpXpXpXpXpXpXpXpXpXpXpXpXpXpXpXpXpXpXpX",
"pXpXpXpXpXpXpXpXpXpXpXpXpXpXpXpXpXpXpXpXpXpXpXpXpXpXpXpXpXpXpXpXpXpXpXpXpXpXpXpXpXpXpXpXpXpXpXpXpXpXpXpXpXpXpXpXpXpXpXpXpXpXpXpXpXpXpXpXpXpXpXpXpXpXpXpXpXpXpXpXpXpXpXpXpXpXpXpXpXpXpXpXpXpXpXpXpXpXpXpXpXpXpXpXpXpXpXpXpXpXyXyXyXyXd d l l s s s s s r r r r = = = = * @ @ @ ~ ~ ~ ~ ~ 3 3 3 3                                                                                                                                                                                                                                         X X X X X X X X # # X X pXpXpXpXpXpXpXpXpXpXpXpXpXpXpXpXpXpXpXpXpXpXpXpXpXpXpXpXpXpXpXpXpXpXpXpXpXpXpXpXpXpXpXpXpXpXpXpXpXpXpXpXpXpXpXpXpXpXpXpXpXpXpXpXpXpXpXpXpXpXpXpXpXpXpXpXpXpXpXpXpXpXpXpXpXpXpXpXpXpXpXpXpXpXpXpXpXpXpXpXpXpXpXpXpXpXpXpXpXpXpXpXpXpXpXpXpXpXpXpXpXpXpX",
"pXpXpXpXpXpXpXpXpXpXpXpXpXpXpXpXpXpXpXpXpXpXpXpXpXpXpXpXpXpXpXpXpXpXpXpXpXpXpXpXpXpXpXpXpXpXpXpXpXpXpXpXpXpXpXpXpXpXpXpXpXpXpXpXpXpXpXpXpXpXpXpXpXpXpXpXpXpXpXpXpXpXpXpXpXpXpXpXpXpXpXpXpXpXpXpXpXpXpXpXpXpXpXpXpXpXpXpXpXpXyXyXyXyXd d l d s s s s s r r r r = = = = * @ @ @ ~ ~ ~ ~ ~ 6 6 3 6                                                                                                                                                                                                                                         X X X X X X X X # # # # pXpXpXpXpXpXpXpXpXpXpXpXpXpXpXpXpXpXpXpXpXpXpXpXpXpXpXpXpXpXpXpXpXpXpXpXpXpXpXpXpXpXpXpXpXpXpXpXpXpXpXpXpXpXpXpXpXpXpXpXpXpXpXpXpXpXpXpXpXpXpXpXpXpXpXpXpXpXpXpXpXpXpXpXpXpXpXpXpXpXpXpXpXpXpXpXpXpXpXpXpXpXpXpXpXpXpXpXpXpXpXpXpXpXpXpXpXpXpXpXpXpXpX",
"pXpXpXpXpXpXpXpXpXpXpXpXpXpXpXpXpXpXpXpXpXpXpXpXpXpXpXpXpXpXpXpXpXpXpXpXpXpXpXpXpXpXpXpXpXpXpXpXpXpXpXpXpXpXpXpXpXpXpXpXpXpXpXpXpXpXpXpXpXpXpXpXpXpXpXpXpXpXpXpXpXpXpXpXpXpXpXpXpXpXpXpXpXpXpXpXpXpXpXpXpXpXpXpXpXpXpXpXpXpXyXyXyXyXd d l l s s s s s r r r r = = = = * * @ @ ~ ~ ~ ~ ~ 6 6 6 6                                                                                                                                                                                                                                         X X X X X X X X # # # # pXpXpXpXpXpXpXpXpXpXpXpXpXpXpXpXpXpXpXpXpXpXpXpXpXpXpXpXpXpXpXpXpXpXpXpXpXpXpXpXpXpXpXpXpXpXpXpXpXpXpXpXpXpXpXpXpXpXpXpXpXpXpXpXpXpXpXpXpXpXpXpXpXpXpXpXpXpXpXpXpXpXpXpXpXpXpXpXpXpXpXpXpXpXpXpXpXpXpXpXpXpXpXpXpXpXpXpXpXpXpXpXpXpXpXpXpXpXpXpXpXpXpX",
"pXpXpXpXpXpXpXpXpXpXpXpXpXpXpXpXpXpXpXpXpXpXpXpXpXpXpXpXpXpXpXpXpXpXpXpXpXpXpXpXpXpXpXpXpXpXpXpXpXpXpXpXpXpXpXpXpXpXpXpXpXpXpXpXpXpXpXpXpXpXpXpXpXpXpXpXpXpXpXpXpXpXpXpXpXpXpXpXpXpXpXpXpXpXpXpXpXpXpXpXpXpXpXpXpXpXpXpXpXpXpXpXwXwXf.f.f.f.d d d d d i i i i u u u u p p p p A A A A A A A A A , , , , . . . . .         X X X X $ # # # 0 0 0 0 0                                                                                                                                                                                     # # # # X X X X                   pXpXpXpXpXpXpXpXpXpXpXpXpXpXpXpXpXpXpXpXpXpXpXpXpXpXpXpXpXpXpXpXpXpXpXpXpXpXpXpXpXpXpXpXpXpXpXpXpXpXpXpXpXpXpXpXpXpXpXpXpXpXpXpXpXpXpXpXpXpXpXpXpXpXpXpXpXpXpXpXpXpXpXpXpXpXpXpXpXpXpXpXpXpXpXpXpXpXpXpXpXpXpXpXpXpXpXpXpXpXpXpXpXpXpXpXpXpX",
"pXpXpXpXpXpXpXpXpXpXpXpXpXpXpXpXpXpXpXpXpXpXpXpXpXpXpXpXpXpXpXpXpXpXpXpXpXpXpXpXpXpXpXpXpXpXpXpXpXpXpXpXpXpXpXpXpXpXpXpXpXpXpXpXpXpXpXpXpXpXpXpXpXpXpXpXpXpXpXpXpXpXpXpXpXpXpXpXpXpXpXpXpXpXpXpXpXpXpXpXpXpXpXpXpXpXpXpXpXpXpXpXwXwXf.f.f.f.d d d d d i i i i u u u u p p p p A A A A A A A b A , , , , . . . . .         X X X X $ # # # 0 0 0 0 0                                                                                                                                                                                     # # # # X X X X                   pXpXpXpXpXpXpXpXpXpXpXpXpXpXpXpXpXpXpXpXpXpXpXpXpXpXpXpXpXpXpXpXpXpXpXpXpXpXpXpXpXpXpXpXpXpXpXpXpXpXpXpXpXpXpXpXpXpXpXpXpXpXpXpXpXpXpXpXpXpXpXpXpXpXpXpXpXpXpXpXpXpXpXpXpXpXpXpXpXpXpXpXpXpXpXpXpXpXpXpXpXpXpXpXpXpXpXpXpXpXpXpXpXpXpXpXpXpX",
"pXpXpXpXpXpXpXpXpXpXpXpXpXpXpXpXpXpXpXpXpXpXpXpXpXpXpXpXpXpXpXpXpXpXpXpXpXpXpXpXpXpXpXpXpXpXpXpXpXpXpXpXpXpXpXpXpXpXpXpXpXpXpXpXpXpXpXpXpXpXpXpXpXpXpXpXpXpXpXpXpXpXpXpXpXpXpXpXpXpXpXpXpXpXpXpXpXpXpXpXpXpXpXpXpXpXpXpXpXpXpXpXwXwXf.f.f.f.d d d d d i i i i u u u u p p p p A A A A A b b b b , , , , . . . . .         X X X X $ $ $ # 0 0 0 0 0     . X                                                                                                                                                                             # # # # X X X X                   pXpXpXpXpXpXpXpXpXpXpXpXpXpXpXpXpXpXpXpXpXpXpXpXpXpXpXpXpXpXpXpXpXpXpXpXpXpXpXpXpXpXpXpXpXpXpXpXpXpXpXpXpXpXpXpXpXpXpXpXpXpXpXpXpXpXpXpXpXpXpXpXpXpXpXpXpXpXpXpXpXpXpXpXpXpXpXpXpXpXpXpXpXpXpXpXpXpXpXpXpXpXpXpXpXpXpXpXpXpXpXpXpXpXpXpXpXpX",
"pXpXpXpXpXpXpXpXpXpXpXpXpXpXpXpXpXpXpXpXpXpXpXpXpXpXpXpXpXpXpXpXpXpXpXpXpXpXpXpXpXpXpXpXpXpXpXpXpXpXpXpXpXpXpXpXpXpXpXpXpXpXpXpXpXpXpXpXpXpXpXpXpXpXpXpXpXpXpXpXpXpXpXpXpXpXpXpXpXpXpXpXpXpXpXpXpXpXpXpXpXpXpXpXpXpXpXpXpXpXpXpXwXwXf.f.f.f.d d d d d i i i i u u u u p p p p A A A A A b b b b , , , , . . . . .         X X X X $ $ $ # 0 0 0 0 0     X X                                                                                                                                                                             # # # # X X X X                   pXpXpXpXpXpXpXpXpXpXpXpXpXpXpXpXpXpXpXpXpXpXpXpXpXpXpXpXpXpXpXpXpXpXpXpXpXpXpXpXpXpXpXpXpXpXpXpXpXpXpXpXpXpXpXpXpXpXpXpXpXpXpXpXpXpXpXpXpXpXpXpXpXpXpXpXpXpXpXpXpXpXpXpXpXpXpXpXpXpXpXpXpXpXpXpXpXpXpXpXpXpXpXpXpXpXpXpXpXpXpXpXpXpXpXpXpXpX",
"pXpXpXpXpXpXpXpXpXpXpXpXpXpXpXpXpXpXpXpXpXpXpXpXpXpXpXpXpXpXpXpXpXpXpXpXpXpXpXpXpXpXpXpXpXpXpXpXpXpXpXpXpXpXpXpXpXpXpXpXpXpXpXpXpXpXpXpXpXpXpXpXpXpXpXpXpXpXpXpXpXpXpXpXpXpXpXpXpXpXpXpXpXpXpXpXpXpXpXpXpXpXpXpXpXpXpXpXpXpXpXpXpXpXpXpXpXpXH.H.H.H.H.H.H.H.H.{.{.{.{.H.H.H.H.H.H.H.H.H.H.H.H.H.F.F.F.F.f.f.f.f.f.S S S S u , , , $ $ # $ 7 7 7 5 5 0 0 0 0 5 5 5 5 5 5 5 5                                                                                                                                                   + # # # # # # # # # # # #         X X X X X X X X X pXpXpXpXpXpXpXpXpXpXpXpXpXpXpXpXpXpXpXpXpXpXpXpXpXpXpXpXpXpXpXpXpXpXpXpXpXpXpXpXpXpXpXpXpXpXpXpXpXpXpXpXpXpXpXpXpXpXpXpXpXpXpXpXpXpXpXpXpXpXpXpXpXpXpXpXpXpXpXpXpXpXpXpXpXpXpXpXpXpXpXpXpXpXpXpXpXpXpXpXpXpXpXpXpXpXpXpXpXpXpXpXpXpX",
"pXpXpXpXpXpXpXpXpXpXpXpXpXpXpXpXpXpXpXpXpXpXpXpXpXpXpXpXpXpXpXpXpXpXpXpXpXpXpXpXpXpXpXpXpXpXpXpXpXpXpXpXpXpXpXpXpXpXpXpXpXpXpXpXpXpXpXpXpXpXpXpXpXpXpXpXpXpXpXpXpXpXpXpXpXpXpXpXpXpXpXpXpXpXpXpXpXpXpXpXpXpXpXpXpXpXpXpXpXpXpXpXpXpXpXpXpXpXH.H.H.H.H.H.H.H.H.{.{.{.{.H.H.H.H.H.H.H.H.H.H.H.H.H.F.F.F.F.f.f.f.f.f.S S S S u , , , $ $ # $ 7 7 7 5 5 0 q q q 5 5 5 5 5 5 5 5                                                                                                                                                   + # # # # # # # # # # # #         X X X X X X X X X pXpXpXpXpXpXpXpXpXpXpXpXpXpXpXpXpXpXpXpXpXpXpXpXpXpXpXpXpXpXpXpXpXpXpXpXpXpXpXpXpXpXpXpXpXpXpXpXpXpXpXpXpXpXpXpXpXpXpXpXpXpXpXpXpXpXpXpXpXpXpXpXpXpXpXpXpXpXpXpXpXpXpXpXpXpXpXpXpXpXpXpXpXpXpXpXpXpXpXpXpXpXpXpXpXpXpXpXpXpXpXpXpXpX",
"pXpXpXpXpXpXpXpXpXpXpXpXpXpXpXpXpXpXpXpXpXpXpXpXpXpXpXpXpXpXpXpXpXpXpXpXpXpXpXpXpXpXpXpXpXpXpXpXpXpXpXpXpXpXpXpXpXpXpXpXpXpXpXpXpXpXpXpXpXpXpXpXpXpXpXpXpXpXpXpXpXpXpXpXpXpXpXpXpXpXpXpXpXpXpXpXpXpXpXpXpXpXpXpXpXpXpXpXpXpXpXpXpXpXpXpXpXpXH.H.H.H.H.H.H.H.H.{.{.{.{.H.H.H.H.H.H.H.H.H.H.H.H.H.F.F.F.F.z.f.f.f.f.S S S S u u , , $ $ # $ 7 5 7 5 5 q q q q 5 5 5 5 5 5 5 5                                                                                                                                                   # # # # # # # # # # # # #         X X X X X X X X X pXpXpXpXpXpXpXpXpXpXpXpXpXpXpXpXpXpXpXpXpXpXpXpXpXpXpXpXpXpXpXpXpXpXpXpXpXpXpXpXpXpXpXpXpXpXpXpXpXpXpXpXpXpXpXpXpXpXpXpXpXpXpXpXpXpXpXpXpXpXpXpXpXpXpXpXpXpXpXpXpXpXpXpXpXpXpXpXpXpXpXpXpXpXpXpXpXpXpXpXpXpXpXpXpXpXpXpXpXpXpXpXpXpX",
"pXpXpXpXpXpXpXpXpXpXpXpXpXpXpXpXpXpXpXpXpXpXpXpXpXpXpXpXpXpXpXpXpXpXpXpXpXpXpXpXpXpXpXpXpXpXpXpXpXpXpXpXpXpXpXpXpXpXpXpXpXpXpXpXpXpXpXpXpXpXpXpXpXpXpXpXpXpXpXpXpXpXpXpXpXpXpXpXpXpXpXpXpXpXpXpXpXpXpXpXpXpXpXpXpXpXpXpXpXpXpXpXpXpXpXpXpXpXH.H.H.H.H.H.H.H.H.{.{.{.{.H.H.H.H.H.H.H.H.H.H.H.H.H.F.F.F.F.z.f.f.f.f.S S S S u u u , $ $ $ $ 7 5 5 5 5 q q q q 5 5 5 5 5 5 5 5                                                                                                                                                   # # # # # # # # # # # # #         . X X X X X X X X pXpXpXpXpXpXpXpXpXpXpXpXpXpXpXpXpXpXpXpXpXpXpXpXpXpXpXpXpXpXpXpXpXpXpXpXpXpXpXpXpXpXpXpXpXpXpXpXpXpXpXpXpXpXpXpXpXpXpXpXpXpXpXpXpXpXpXpXpXpXpXpXpXpXpXpXpXpXpXpXpXpXpXpXpXpXpXpXpXpXpXpXpXpXpXpXpXpXpXpXpXpXpXpXpXpXpXpXpXpXpXpXpXpX",
"pXpXpXpXpXpXpXpXpXpXpXpXpXpXpXpXpXpXpXpXpXpXpXpXpXpXpXpXpXpXpXpXpXpXpXpXpXpXpXpXpXpXpXpXpXpXpXpXpXpXpXpXpXpXpXpXpXpXpXpXpXpXpXpXpXpXpXpXpXpXpXpXpXpXpXpXpXpXpXpXpXpXpXpXpXpXpXpXpXpXpXpXpXpXpXpXpXpXpXpXpXpXpXpXpXpXpXpXpXpXpXpXpXpXpXpXpXpXH.H.H.H.H.H.H.H.H.{.{.{.{.H.H.H.H.H.H.H.H.H.H.H.H.H.F.F.F.F.z.z.z.z.f.S S S S , , , , $ $ $ # 5 5 5 5 5 q q q q 5 5 5 5 5 5 5 5                                                                                                                                                   # X X X X # # # # # # # #             X X X X X X X pXpXpXpXpXpXpXpXpXpXpXpXpXpXpXpXpXpXpXpXpXpXpXpXpXpXpXpXpXpXpXpXpXpXpXpXpXpXpXpXpXpXpXpXpXpXpXpXpXpXpXpXpXpXpXpXpXpXpXpXpXpXpXpXpXpXpXpXpXpXpXpXpXpXpXpXpXpXpXpXpXpXpXpXpXpXpXpXpXpXpXpXpXpXpXpXpXpXpXpXpXpXpXpXpXpXpXpXpXpXpXpXpXpX",
"pXpXpXpXpXpXpXpXpXpXpXpXpXpXpXpXpXpXpXpXpXpXpXpXpXpXpXpXpXpXpXpXpXpXpXpXpXpXpXpXpXpXpXpXpXpXpXpXpXpXpXpXpXpXpXpXpXpXpXpXpXpXpXpXpXpXpXpXpXpXpXpXpXpXpXpXpXpXpXpXpXpXpXpXpXpXpXpXpXpXpXpXpXpXpXpXpXpXpXpXpXpXpXpXpXpXpXpXpXpXpXpXpXpX{.{.{.{.I.I.I.I.I.I.I.I.I.I.I.I.I.I.I.I.I.I.I.I.I.I.I.I.I.I.G.G.G.G.F.F.F.F.F.D.D.D.A.D D D D W W W W 0 0 0 0 0 e e e e q q q q 2 2 2 2 1 1 1 1 1 $ $ $ $ 2 1 1 1 1 1 1 1 1         X X X X                                                                     # # # # #         # X X X 1 1 1 1 1 X X X X $ $ $ $ X X X X X X X X X # # # # pXpXpXpXpXpXpXpXpXpXpXpXpXpXpXpXpXpXpXpXpXpXpXpXpXpXpXpXpXpXpXpXpXpXpXpXpXpXpXpXpXpXpXpXpXpXpXpXpXpXpXpXpXpXpXpXpXpXpXpXpXpXpXpXpXpXpXpXpXpXpXpXpXpXpXpXpXpXpXpXpXpXpXpXpXpXpXpXpXpXpXpXpXpXpXpXpXpXpXpXpXpXpXpXpXpXpXpXpXpXpXpXpXpX",
"pXpXpXpXpXpXpXpXpXpXpXpXpXpXpXpXpXpXpXpXpXpXpXpXpXpXpXpXpXpXpXpXpXpXpXpXpXpXpXpXpXpXpXpXpXpXpXpXpXpXpXpXpXpXpXpXpXpXpXpXpXpXpXpXpXpXpXpXpXpXpXpXpXpXpXpXpXpXpXpXpXpXpXpXpXpXpXpXpXpXpXpXpXpXpXpXpXpXpXpXpXpXpXpXpXpXpXpXpXpXpXpXpXpX{.{.{.{.I.I.I.I.I.I.I.I.I.I.I.I.I.I.I.I.I.I.I.I.I.I.I.I.I.I.G.G.G.G.F.F.F.F.F.D.A.A.A.D D D D W W W W q q q q q e e e e q q q q 2 2 2 2 1 1 1 1 1 $ $ $ $ 2 1 1 1 1 1 1 1 1         X X X X                                                                     # # # # #         X X X # 1 1 1 1 1 X X X X $ $ $ $ X X X X X X X X X # # # # pXpXpXpXpXpXpXpXpXpXpXpXpXpXpXpXpXpXpXpXpXpXpXpXpXpXpXpXpXpXpXpXpXpXpXpXpXpXpXpXpXpXpXpXpXpXpXpXpXpXpXpXpXpXpXpXpXpXpXpXpXpXpXpXpXpXpXpXpXpXpXpXpXpXpXpXpXpXpXpXpXpXpXpXpXpXpXpXpXpXpXpXpXpXpXpXpXpXpXpXpXpXpXpXpXpXpXpXpXpXpXpXpXpX",
"pXpXpXpXpXpXpXpXpXpXpXpXpXpXpXpXpXpXpXpXpXpXpXpXpXpXpXpXpXpXpXpXpXpXpXpXpXpXpXpXpXpXpXpXpXpXpXpXpXpXpXpXpXpXpXpXpXpXpXpXpXpXpXpXpXpXpXpXpXpXpXpXpXpXpXpXpXpXpXpXpXpXpXpXpXpXpXpXpXpXpXpXpXpXpXpXpXpXpXpXpXpXpXpXpXpXpXpXpXpXpXpXpXpX{.{.{.{.I.I.I.I.I.I.I.I.I.I.I.I.I.I.I.I.I.I.I.I.I.I.I.I.I.I.G.G.G.G.F.F.F.F.F.A.A.A.A.D D D D W W W W 0 q q q q e e e e q q q q 2 2 2 2 1 1 1 1 1 $ $ $ $ 1 1 1 1 1 1 1 1 1         X X X X                                                                     # # # # #         X X X # 1 1 1 1 1 X X X X $ $ $ $ X X X X X X X X X # # # # pXpXpXpXpXpXpXpXpXpXpXpXpXpXpXpXpXpXpXpXpXpXpXpXpXpXpXpXpXpXpXpXpXpXpXpXpXpXpXpXpXpXpXpXpXpXpXpXpXpXpXpXpXpXpXpXpXpXpXpXpXpXpXpXpXpXpXpXpXpXpXpXpXpXpXpXpXpXpXpXpXpXpXpXpXpXpXpXpXpXpXpXpXpXpXpXpXpXpXpXpXpXpXpXpXpXpXpXpXpXpXpXpXpX",
"pXpXpXpXpXpXpXpXpXpXpXpXpXpXpXpXpXpXpXpXpXpXpXpXpXpXpXpXpXpXpXpXpXpXpXpXpXpXpXpXpXpXpXpXpXpXpXpXpXpXpXpXpXpXpXpXpXpXpXpXpXpXpXpXpXpXpXpXpXpXpXpXpXpXpXpXpXpXpXpXpXpXpXpXpXpXpXpXpXpXpXpXpXpXpXpXpXpXpXpXpXpXpXpXpXpXpXpXpXpXpXpXpXpX{.{.{.{.I.I.I.I.I.I.I.I.I.I.I.I.I.I.I.I.I.I.I.I.I.I.I.I.I.I.G.G.G.G.F.F.F.F.F.D.D.D.D.D D D D W W W Z 0 0 0 q 0 e e e e q q q q 2 2 2 2 1 1 1 1 1 $ $ $ $ 1 2 2 2 1 1 1 1 1             . .                                                                     # # # # #         X # # # 1 1 1 1 1 X X X X % % % % X X X X X X X X X # # # # pXpXpXpXpXpXpXpXpXpXpXpXpXpXpXpXpXpXpXpXpXpXpXpXpXpXpXpXpXpXpXpXpXpXpXpXpXpXpXpXpXpXpXpXpXpXpXpXpXpXpXpXpXpXpXpXpXpXpXpXpXpXpXpXpXpXpXpXpXpXpXpXpXpXpXpXpXpXpXpXpXpXpXpXpXpXpXpXpXpXpXpXpXpXpXpXpXpXpXpXpXpXpXpXpXpXpXpXpXpXpXpXpXpX",
"pXpXpXpXpXpXpXpXpXpXpXpXpXpXpXpXpXpXpXpXpXpXpXpXpXpXpXpXpXpXpXpXpXpXpXpXpXpXpXpXpXpXpXpXpXpXpXpXpXpXpXpXpXpXpXpXpXpXpXpXpXpXpXpXpXpXpXpXpXpXpXpXpXpXpXpXpXpXpXpXpXpXpXpXpXpXpXpXpXpXpXpXpXpXpXpXpXpXpXpXpXpXpXpXpXpXpXpXpXpX{.{.{.{.{.{.{.{.H.H.H.H.H.H.H.H.H.H.H.H.H.H.H.H.H.H.H.H.H.H.G.G.G.G.G.G.G.G.F.F.F.F.F.D.D.D.D.f.f.f.f.6 6 6 6 ^ ^ ^ ^ ^ E E E E e e e e e e e e 1 1 1 1 1 1 1 1 1 $ $ $ $ 2 2 2 2 2 % % % % 1 1 1 1 5 5 5 5 5 7 5 5 7 $ $ $ $ 2 2 2 2 # # # # # % % % % # # # # % % $ $ % % % ; % X X X X         X X X X X X X X X         # # X X X X + # # # # # # # # # # pXpXpXpXpXpXpXpXpXpXpXpXpXpXpXpXpXpXpXpXpXpXpXpXpXpXpXpXpXpXpXpXpXpXpXpXpXpXpXpXpXpXpXpXpXpXpXpXpXpXpXpXpXpXpXpXpXpXpXpXpXpXpXpXpXpXpXpXpXpXpXpXpXpXpXpXpXpXpXpXpXpXpXpXpXpXpXpXpXpXpXpXpXpXpXpXpXpXpXpXpXpXpXpXpXpXpXpXpXpX",
"pXpXpXpXpXpXpXpXpXpXpXpXpXpXpXpXpXpXpXpXpXpXpXpXpXpXpXpXpXpXpXpXpXpXpXpXpXpXpXpXpXpXpXpXpXpXpXpXpXpXpXpXpXpXpXpXpXpXpXpXpXpXpXpXpXpXpXpXpXpXpXpXpXpXpXpXpXpXpXpXpXpXpXpXpXpXpXpXpXpXpXpXpXpXpXpXpXpXpXpXpXpXpXpXpXpXpXpXpXpX{.{.{.{.{.{.{.{.H.H.H.H.H.H.H.H.H.H.H.H.H.H.H.H.H.H.H.H.H.H.G.G.G.G.G.G.G.G.F.F.F.F.F.A.D.D.D.f.f.f.f.6 6 6 6 ^ ^ ^ ^ ^ E E E E e e e e e e e e 1 1 1 1 1 1 2 1 1 $ $ $ $ 2 2 2 2 2 % % % % 1 1 1 1 5 5 5 5 5 5 5 5 7 $ $ $ $ 2 2 2 2 # # # # # % % % % # # # # % % % % % % 1 ; 1 X X X X         X X X X X X X X X         # # # X X X # # # # # # # # # # # pXpXpXpXpXpXpXpXpXpXpXpXpXpXpXpXpXpXpXpXpXpXpXpXpXpXpXpXpXpXpXpXpXpXpXpXpXpXpXpXpXpXpXpXpXpXpXpXpXpXpXpXpXpXpXpXpXpXpXpXpXpXpXpXpXpXpXpXpXpXpXpXpXpXpXpXpXpXpXpXpXpXpXpXpXpXpXpXpXpXpXpXpXpXpXpXpXpXpXpXpXpXpXpXpXpXpXpXpXpX",
"pXpXpXpXpXpXpXpXpXpXpXpXpXpXpXpXpXpXpXpXpXpXpXpXpXpXpXpXpXpXpXpXpXpXpXpXpXpXpXpXpXpXpXpXpXpXpXpXpXpXpXpXpXpXpXpXpXpXpXpXpXpXpXpXpXpXpXpXpXpXpXpXpXpXpXpXpXpXpXpXpXpXpXpXpXpXpXpXpXpXpXpXpXpXpXpXpXpXpXpXpXpXpXpXpXpXpXpXpXpX{.{.{.{.{.{.{.{.H.H.H.H.H.H.H.H.H.H.H.H.H.H.H.H.H.H.H.H.H.H.G.G.G.G.G.G.G.G.F.F.F.F.F.D.D.D.D.f.f.f.f.6 6 6 6 ^ ^ ^ ^ ^ E E E E e e e e e e e e 1 1 1 1 1 1 2 2 2 $ $ $ $ 2 2 2 2 2 1 % % % 1 1 1 1 5 5 5 5 5 5 5 5 5 $ $ $ $ 2 2 2 2 # # # # # % % % % # # # # % % % % % % 1 1 1 X X X X         X X X X X X X X X         # # + X X X # # # # # # # # # # # pXpXpXpXpXpXpXpXpXpXpXpXpXpXpXpXpXpXpXpXpXpXpXpXpXpXpXpXpXpXpXpXpXpXpXpXpXpXpXpXpXpXpXpXpXpXpXpXpXpXpXpXpXpXpXpXpXpXpXpXpXpXpXpXpXpXpXpXpXpXpXpXpXpXpXpXpXpXpXpXpXpXpXpXpXpXpXpXpXpXpXpXpXpXpXpXpXpXpXpXpXpXpXpXpXpXpXpXpXpX",
"pXpXpXpXpXpXpXpXpXpXpXpXpXpXpXpXpXpXpXpXpXpXpXpXpXpXpXpXpXpXpXpXpXpXpXpXpXpXpXpXpXpXpXpXpXpXpXpXpXpXpXpXpXpXpXpXpXpXpXpXpXpXpXpXpXpXpXpXpXpXpXpXpXpXpXpXpXpXpXpXpXpXpXpXpXpXpXpXpXpXpXpXpXpXpXpXpXpXpXpXpXpXpXpXpXpXpXpXpXpX{.{.{.{.{.{.{.{.H.H.H.H.H.H.H.H.H.H.H.H.H.H.H.H.H.H.H.H.H.H.G.G.G.G.G.G.G.G.F.F.F.F.F.A.D.D.D.f.f.f.f.6 6 6 6 ^ ^ ^ ^ ^ E E E E e e e e e e e e 1 1 1 1 1 2 2 2 2 $ $ $ $ 2 2 2 2 2 1 1 1 1 1 1 1 1 5 5 5 5 7 7 0 0 7 $ $ $ $ 2 2 2 2 # # # # # % % % % # # # # % % % % % % % % 1 X X X X         X X X X X X X X X         + + + + X # # # # # # # # # # # # pXpXpXpXpXpXpXpXpXpXpXpXpXpXpXpXpXpXpXpXpXpXpXpXpXpXpXpXpXpXpXpXpXpXpXpXpXpXpXpXpXpXpXpXpXpXpXpXpXpXpXpXpXpXpXpXpXpXpXpXpXpXpXpXpXpXpXpXpXpXpXpXpXpXpXpXpXpXpXpXpXpXpXpXpXpXpXpXpXpXpXpXpXpXpXpXpXpXpXpXpXpXpXpXpXpXpXpXpXpX",
"pXpXpXpXpXpXpXpXpXpXpXpXpXpXpXpXpXpXpXpXpXpXpXpXpXpXpXpXpXpXpXpXpXpXpXpXpXpXpXpXpXpXpXpXpXpXpXpXpXpXpXpXpXpXpXpXpXpXpXpXpXpXpXpXpXpXpXpXpXpXpXpXpXpXpXpXpXpXpXpXpXpXpXpXpXpXpXpXpXpXpXpXpXpXpXpXpXpXpXpXpXpXpXpXpXpXpXpXpXpXG.G.G.G.H.H.H.H.G.G.G.G.G.G.G.G.G.G.G.G.G.G.G.G.G.G.G.G.G.G.G.G.G.G.F.F.F.F.f.f.f.f.f.g.g.g.g.D D D D # # # # / ( ( ( ( v v e e 0 0 0 0 5 5 5 5 7 7 5 7 7 5 5 5 5 5 5 5 5 % $ $ $ $ 2 2 2 2 1 1 1 1 5 5 5 5 5 5 5 5 5 2 2 2 2 7 7 0 5 $ % % % % $ $ $ $ 0 0 0 0 0 0 0 0 % % % % % % % % % X X X X           X X X X 5 5 5 5 # # # # $ $ $ $ $ # # # # # # # # pXpXpXpXpXpXpXpXpXpXpXpXpXpXpXpXpXpXpXpXpXpXpXpXpXpXpXpXpXpXpXpXpXpXpXpXpXpXpXpXpXpXpXpXpXpXpXpXpXpXpXpXpXpXpXpXpXpXpXpXpXpXpXpXpXpXpXpXpXpXpXpXpXpXpXpXpXpXpXpXpXpXpXpXpXpXpXpXpXpXpXpXpXpXpXpXpXpXpXpXpXpXpXpXpXpXpXpXpXpX",
"pXpXpXpXpXpXpXpXpXpXpXpXpXpXpXpXpXpXpXpXpXpXpXpXpXpXpXpXpXpXpXpXpXpXpXpXpXpXpXpXpXpXpXpXpXpXpXpXpXpXpXpXpXpXpXpXpXpXpXpXpXpXpXpXpXpXpXpXpXpXpXpXpXpXpXpXpXpXpXpXpXpXpXpXpXpXpXpXpXpXpXpXpXpXpXpXpXpXpXpXpXpXpXpXpXpXpXpXpXpXG.G.G.G.H.H.H.H.G.G.G.G.G.G.G.G.G.G.G.G.G.G.G.G.G.G.G.G.G.G.G.G.G.G.F.F.F.F.f.f.f.f.f.g.g.g.g.D D D D # # # # / ( ( ( ( e e e e 0 0 0 0 5 5 5 5 5 7 5 7 5 5 5 5 5 5 5 5 5 % $ % $ $ 1 2 2 2 1 1 1 1 5 5 5 5 5 5 5 5 5 2 2 2 2 7 0 0 5 $ $ % % % $ $ $ $ 0 0 0 0 0 0 0 0 % % % % % % % % %   X X X           X X X X 5 5 5 5 # # # # $ $ $ $ $ # # # # # # # # pXpXpXpXpXpXpXpXpXpXpXpXpXpXpXpXpXpXpXpXpXpXpXpXpXpXpXpXpXpXpXpXpXpXpXpXpXpXpXpXpXpXpXpXpXpXpXpXpXpXpXpXpXpXpXpXpXpXpXpXpXpXpXpXpXpXpXpXpXpXpXpXpXpXpXpXpXpXpXpXpXpXpXpXpXpXpXpXpXpXpXpXpXpXpXpXpXpXpXpXpXpXpXpXpXpXpXpXpXpX",
"pXpXpXpXpXpXpXpXpXpXpXpXpXpXpXpXpXpXpXpXpXpXpXpXpXpXpXpXpXpXpXpXpXpXpXpXpXpXpXpXpXpXpXpXpXpXpXpXpXpXpXpXpXpXpXpXpXpXpXpXpXpXpXpXpXpXpXpXpXpXpXpXpXpXpXpXpXpXpXpXpXpXpXpXpXpXpXpXpXpXpXpXpXpXpXpXpXpXpXpXpXpXpXpXpXpXpXpXpXpXG.G.G.G.H.H.H.H.G.G.G.G.G.G.G.G.G.G.G.G.G.G.G.G.G.G.G.G.G.G.G.G.G.G.F.F.F.F.f.f.f.f.f.g.g.g.g.D D D D # # # # / ( ( ( ( e e e e 0 0 0 0 5 5 5 5 5 7 7 7 5 5 5 5 5 5 5 5 5 % % % $ $ 1 2 2 2 1 1 1 1 5 5 5 5 5 5 5 5 5 2 2 2 2 5 0 0 5 $ % % % % $ $ $ $ 0 0 0 0 0 0 0 0 % % % % % % % % % X X X X           X X X X 5 5 5 5 # # # # $ $ $ $ $ # # # # # # # # pXpXpXpXpXpXpXpXpXpXpXpXpXpXpXpXpXpXpXpXpXpXpXpXpXpXpXpXpXpXpXpXpXpXpXpXpXpXpXpXpXpXpXpXpXpXpXpXpXpXpXpXpXpXpXpXpXpXpXpXpXpXpXpXpXpXpXpXpXpXpXpXpXpXpXpXpXpXpXpXpXpXpXpXpXpXpXpXpXpXpXpXpXpXpXpXpXpXpXpXpXpXpXpXpXpXpXpXpXpX",
"pXpXpXpXpXpXpXpXpXpXpXpXpXpXpXpXpXpXpXpXpXpXpXpXpXpXpXpXpXpXpXpXpXpXpXpXpXpXpXpXpXpXpXpXpXpXpXpXpXpXpXpXpXpXpXpXpXpXpXpXpXpXpXpXpXpXpXpXpXpXpXpXpXpXpXpXpXpXpXpXpXpXpXpXpXpXpXpXpXpXpXpXpXpXpXpXpXpXpXpXpXpXpXpXpXpXpXpXpXpXG.G.G.G.H.H.H.H.G.G.G.G.G.G.G.G.G.G.G.G.G.G.G.G.G.G.G.G.G.G.G.G.G.G.F.F.F.F.f.f.f.f.f.g.g.g.g.D D D D # # # # ( ( ( ( / e e e v 0 0 0 0 5 5 5 5 5 5 5 5 5 5 5 5 5 5 5 5 5 % % $ % % 2 2 1 1 1 1 1 1 5 5 5 5 5 5 5 5 5 2 2 2 2 7 0 0 0 % % % % % $ $ $ $ 0 0 0 0 0 0 0 0 % % % % % % % % % X X X X           X X X X 5 5 5 5 # # # # $ $ $ $ $ # # # # # # # # pXpXpXpXpXpXpXpXpXpXpXpXpXpXpXpXpXpXpXpXpXpXpXpXpXpXpXpXpXpXpXpXpXpXpXpXpXpXpXpXpXpXpXpXpXpXpXpXpXpXpXpXpXpXpXpXpXpXpXpXpXpXpXpXpXpXpXpXpXpXpXpXpXpXpXpXpXpXpXpXpXpXpXpXpXpXpXpXpXpXpXpXpXpXpXpXpXpXpXpXpXpXpXpXpXpXpXpXpXpX",
"pXpXpXpXpXpXpXpXpXpXpXpXpXpXpXpXpXpXpXpXpXpXpXpXpXpXpXpXpXpXpXpXpXpXpXpXpXpXpXpXpXpXpXpXpXpXpXpXpXpXpXpXpXpXpXpXpXpXpXpXpXpXpXpXpXpXpXpXpXpXpXpXpXpXpXpXpXpXpXpXpXpXpXpXpXpXpXpXpXpXpXpXpXpXpXpXpXpXpXpXpXpXpXpXpXpXpXpXpXpXF.F.F.F.D.D.D.D.F.F.F.F.F.F.F.F.F.F.F.F.F.F.F.F.F.G.G.G.G.G.A.A.A.D.A.D.D.D.g.g.g.g.g.g.g.g.g.$ $ $ $ e e e e e e e v v Y Y Y Y e e e e 0 0 0 0 0 0 0 0 0 e e e e q 0 0 0 T Y Y T T e e e e 5 5 5 5 2 2 2 2 5 5 5 5 5 2 2 2 2 5 5 5 5 5 5 5 5 5 # # # # 1 1 1 1 q q q q 5 5 5 5 5 % % % % # # # #                   1 1 1 1 # # # # # # # # # # # $ $ $ $ $ $ pXpXpXpXpXpXpXpXpXpXpXpXpXpXpXpXpXpXpXpXpXpXpXpXpXpXpXpXpXpXpXpXpXpXpXpXpXpXpXpXpXpXpXpXpXpXpXpXpXpXpXpXpXpXpXpXpXpXpXpXpXpXpXpXpXpXpXpXpXpXpXpXpXpXpXpXpXpXpXpXpXpXpXpXpXpXpXpXpXpXpXpXpXpXpXpXpXpXpXpXpXpXpXpXpXpXpXpXpXpX",
"pXpXpXpXpXpXpXpXpXpXpXpXpXpXpXpXpXpXpXpXpXpXpXpXpXpXpXpXpXpXpXpXpXpXpXpXpXpXpXpXpXpXpXpXpXpXpXpXpXpXpXpXpXpXpXpXpXpXpXpXpXpXpXpXpXpXpXpXpXpXpXpXpXpXpXpXpXpXpXpXpXpXpXpXpXpXpXpXpXpXpXpXpXpXpXpXpXpXpXpXpXpXpXpXpXpXpXpXpXpXF.F.F.F.D.D.D.D.F.F.F.F.F.F.F.F.F.F.F.F.F.F.F.F.F.G.G.G.G.G.A.A.D.D.A.A.D.D.g.g.g.g.g.g.g.g.g.$ $ $ $ e e e e v e v e v Y Y Y Y e e e e 0 0 0 0 0 0 0 0 0 e e e e q 0 0 q T T T T R e e e e 5 5 5 5 2 2 2 2 5 5 5 5 5 2 2 2 2 5 5 5 5 5 5 5 5 5 $ $ # # 1 1 1 1 q q q q 5 5 5 5 5 % % % % # # # #                   1 1 1 1 # # # # # # # # # # # $ $ $ $ $ $ pXpXpXpXpXpXpXpXpXpXpXpXpXpXpXpXpXpXpXpXpXpXpXpXpXpXpXpXpXpXpXpXpXpXpXpXpXpXpXpXpXpXpXpXpXpXpXpXpXpXpXpXpXpXpXpXpXpXpXpXpXpXpXpXpXpXpXpXpXpXpXpXpXpXpXpXpXpXpXpXpXpXpXpXpXpXpXpXpXpXpXpXpXpXpXpXpXpXpXpXpXpXpXpXpXpXpXpXpXpX",
"pXpXpXpXpXpXpXpXpXpXpXpXpXpXpXpXpXpXpXpXpXpXpXpXpXpXpXpXpXpXpXpXpXpXpXpXpXpXpXpXpXpXpXpXpXpXpXpXpXpXpXpXpXpXpXpXpXpXpXpXpXpXpXpXpXpXpXpXpXpXpXpXpXpXpXpXpXpXpXpXpXpXpXpXpXpXpXpXpXpXpXpXpXpXpXpXpXpXpXpXpXpXpXpXpXpXpXpXpXpXF.F.F.F.D.D.D.D.F.F.F.F.F.F.F.F.F.F.F.F.F.F.F.F.F.G.G.G.G.G.A.A.D.D.A.A.D.D.g.g.g.g.g.g.g.g.g.$ $ $ $ e e e e v v v e e Y Y Y Y e e e e 0 0 0 0 0 0 0 0 0 e e e e q 0 0 q T T T R R e e e e 5 5 5 5 2 2 2 2 5 5 5 5 5 2 2 2 2 5 5 5 5 5 5 5 5 5 $ $ # # 1 1 1 1 q q q q 5 5 5 5 5 % % % % # # # #   .               1 1 1 1 # # # # # # # # # # $ $ $ $ $ $ $ pXpXpXpXpXpXpXpXpXpXpXpXpXpXpXpXpXpXpXpXpXpXpXpXpXpXpXpXpXpXpXpXpXpXpXpXpXpXpXpXpXpXpXpXpXpXpXpXpXpXpXpXpXpXpXpXpXpXpXpXpXpXpXpXpXpXpXpXpXpXpXpXpXpXpXpXpXpXpXpXpXpXpXpXpXpXpXpXpXpXpXpXpXpXpXpXpXpXpXpXpXpXpXpXpXpXpXpXpXpX",
"pXpXpXpXpXpXpXpXpXpXpXpXpXpXpXpXpXpXpXpXpXpXpXpXpXpXpXpXpXpXpXpXpXpXpXpXpXpXpXpXpXpXpXpXpXpXpXpXpXpXpXpXpXpXpXpXpXpXpXpXpXpXpXpXpXpXpXpXpXpXpXpXpXpXpXpXpXpXpXpXpXpXpXpXpXpXpXpXpXpXpXpXpXpXpXpXpXpXpXpXpXpXpXpXpXpXpXpXpXpXF.F.F.F.D.D.D.D.F.F.F.F.F.F.F.F.F.F.F.F.F.F.F.F.F.G.G.G.G.G.D.D.D.D.A.A.D.D.g.g.g.g.g.g.g.g.g.$ $ $ # e e e e e v v e e Y Y Y Y e e e e 0 0 0 0 0 0 0 0 0 e e e e q q q q T T T Y Y e e e e 5 5 5 5 2 2 2 2 5 5 5 5 5 2 2 2 2 5 5 5 5 5 5 5 5 5 $ $ # # 1 1 1 1 q q q q 5 5 5 5 5 % % % % # # # #   X X             1 1 1 1 # # # # # # # # # $ $ $ $ $ $ $ $ pXpXpXpXpXpXpXpXpXpXpXpXpXpXpXpXpXpXpXpXpXpXpXpXpXpXpXpXpXpXpXpXpXpXpXpXpXpXpXpXpXpXpXpXpXpXpXpXpXpXpXpXpXpXpXpXpXpXpXpXpXpXpXpXpXpXpXpXpXpXpXpXpXpXpXpXpXpXpXpXpXpXpXpXpXpXpXpXpXpXpXpXpXpXpXpXpXpXpXpXpXpXpXpXpXpXpXpXpXpX",
"pXpXpXpXpXpXpXpXpXpXpXpXpXpXpXpXpXpXpXpXpXpXpXpXpXpXpXpXpXpXpXpXpXpXpXpXpXpXpXpXpXpXpXpXpXpXpXpXpXpXpXpXpXpXpXpXpXpXpXpXpXpXpXpXpXpXpXpXpXpXpXpXpXpXpXpXpXpXpXpXpXpXpXpXpXpXpXpXpXpXpXpXpXpXpXpXpXpXpXpXpXpXpXpXpXpXpXpXpXpXF.F.F.F.D.D.D.D.F.F.F.F.F.F.F.F.F.F.F.F.F.F.F.F.F.G.G.G.G.G.A.A.D.D.A.A.D.D.g.g.g.g.g.g.g.g.g.$ $ $ # e e e e v v v e e Y Y Y Y e e e e 0 0 0 0 0 0 0 0 0 e e e e q q q q T T Y Y Y e e e e 5 5 5 5 2 2 2 2 5 5 5 5 5 2 2 2 2 5 5 5 5 5 5 5 5 5 $ $ # # 1 1 1 1 q q q q 5 5 5 5 5 % % % % # # # #     .             1 1 1 1 # # # # # # # # # $ $ $ $ $ $ $ $ pXpXpXpXpXpXpXpXpXpXpXpXpXpXpXpXpXpXpXpXpXpXpXpXpXpXpXpXpXpXpXpXpXpXpXpXpXpXpXpXpXpXpXpXpXpXpXpXpXpXpXpXpXpXpXpXpXpXpXpXpXpXpXpXpXpXpXpXpXpXpXpXpXpXpXpXpXpXpXpXpXpXpXpXpXpXpXpXpXpXpXpXpXpXpXpXpXpXpXpXpXpXpXpXpXpXpXpXpXpX",
"pXpXpXpXpXpXpXpXpXpXpXpXpXpXpXpXpXpXpXpXpXpXpXpXpXpXpXpXpXpXpXpXpXpXpXpXpXpXpXpXpXpXpXpXpXpXpXpXpXpXpXpXpXpXpXpXpXpXpXpXpXpXpXpXpXpXpXpXpXpXpXpXpXpXpXpXpXpXpXpXpXpXpXpXpXpXpXpXpXpXpXpXpXpXpXpXpXpXpXpXpXpXpXpXpXpXpXpXpXpXg.g.g.g.f.f.f.f.f.f.f.f.f.f.f.f.f.g.g.g.g.g.g.g.g.g.g.g.g.g.g.g.g.g.g.g.g.g.D D D D D D D D D $ $ $ $ 2 2 2 2 5 5 5 5 5 %.%.%.%.q q q q 0 0 0 0 0 0 q q q 5 5 5 5 5 5 5 5 e e e e e 0 0 0 0 0 0 0 0 q q q q ^ ^ ^ ^ ^ Y Y Y Y e e e e 5 5 5 5 5 # # $ $ ; ; % % 2 5 2 2 % % ; ; 1 5 5 5 5 $ $ $ $ X X X X X X X X X         $ $ $ $ # # # # # # # # # $ $ $ $ # # # # pXpXpXpXpXpXpXpXpXpXpXpXpXpXpXpXpXpXpXpXpXpXpXpXpXpXpXpXpXpXpXpXpXpXpXpXpXpXpXpXpXpXpXpXpXpXpXpXpXpXpXpXpXpXpXpXpXpXpXpXpXpXpXpXpXpXpXpXpXpXpXpXpXpXpXpXpXpXpXpXpXpXpXpXpXpXpXpXpXpXpXpXpXpXpXpXpXpXpXpXpXpXpXpXpXpX",
"pXpXpXpXpXpXpXpXpXpXpXpXpXpXpXpXpXpXpXpXpXpXpXpXpXpXpXpXpXpXpXpXpXpXpXpXpXpXpXpXpXpXpXpXpXpXpXpXpXpXpXpXpXpXpXpXpXpXpXpXpXpXpXpXpXpXpXpXpXpXpXpXpXpXpXpXpXpXpXpXpXpXpXpXpXpXpXpXpXpXpXpXpXpXpXpXpXpXpXpXpXpXpXpXpXpXpXpXpXpXg.g.g.g.f.f.f.f.f.f.f.f.f.f.f.f.f.g.g.g.g.g.g.g.g.g.g.g.g.g.g.g.g.g.g.g.g.g.D D D D D D D D D $ $ $ $ 2 2 2 2 5 5 5 5 5 %.%.%.%.q q q q 0 0 0 0 0 0 0 q q 5 5 5 5 5 5 5 5 e e e e e 0 0 0 0 0 0 0 0 q q q q ^ ^ ^ ^ ^ Y Y Y Y e e e e 5 5 5 5 5 # $ $ $ 1 ; % % 2 5 2 2 % % ; 1 1 5 5 5 5 $ $ $ $ X X X X X X X X X         $ $ $ $ # # # # # # # # # $ $ $ $ # # # # pXpXpXpXpXpXpXpXpXpXpXpXpXpXpXpXpXpXpXpXpXpXpXpXpXpXpXpXpXpXpXpXpXpXpXpXpXpXpXpXpXpXpXpXpXpXpXpXpXpXpXpXpXpXpXpXpXpXpXpXpXpXpXpXpXpXpXpXpXpXpXpXpXpXpXpXpXpXpXpXpXpXpXpXpXpXpXpXpXpXpXpXpXpXpXpXpXpXpXpXpXpXpXpXpXpX",
"pXpXpXpXpXpXpXpXpXpXpXpXpXpXpXpXpXpXpXpXpXpXpXpXpXpXpXpXpXpXpXpXpXpXpXpXpXpXpXpXpXpXpXpXpXpXpXpXpXpXpXpXpXpXpXpXpXpXpXpXpXpXpXpXpXpXpXpXpXpXpXpXpXpXpXpXpXpXpXpXpXpXpXpXpXpXpXpXpXpXpXpXpXpXpXpXpXpXpXpXpXpXpXpXpXpXpXpXpXpXg.g.g.g.f.f.f.f.f.f.f.f.f.f.f.f.f.g.g.g.g.g.g.g.g.g.g.g.g.g.g.g.g.g.g.g.g.g.D D D D D D D D D $ $ $ $ 2 2 2 2 5 5 5 5 5 %.%.%.%.q q q q 0 0 0 7 0 0 0 0 0 5 5 5 5 5 5 5 5 e e e e e 0 0 0 0 0 0 0 0 q q q q ^ ^ ^ ^ ^ Y Y Y Y e e e e 5 5 5 5 5 # # # # % % % % 5 5 2 2 % % % % % 5 5 5 5 $ $ $ $ X X X X X X X X X         $ $ $ $ # # # # # # # # # $ $ $ $ # # # # pXpXpXpXpXpXpXpXpXpXpXpXpXpXpXpXpXpXpXpXpXpXpXpXpXpXpXpXpXpXpXpXpXpXpXpXpXpXpXpXpXpXpXpXpXpXpXpXpXpXpXpXpXpXpXpXpXpXpXpXpXpXpXpXpXpXpXpXpXpXpXpXpXpXpXpXpXpXpXpXpXpXpXpXpXpXpXpXpXpXpXpXpXpXpXpXpXpXpXpXpXpXpXpXpXpX",
"pXpXpXpXpXpXpXpXpXpXpXpXpXpXpXpXpXpXpXpXpXpXpXpXpXpXpXpXpXpXpXpXpXpXpXpXpXpXpXpXpXpXpXpXpXpXpXpXpXpXpXpXpXpXpXpXpXpXpXpXpXpXpXpXpXpXpXpXpXpXpXpXpXpXpXpXpXpXpXpXpXpXpXpXpXpXpXpXpXpXpXpXpXpXpXpXpXpXpXpXpXpXpXpXpXpXpXpXpXpXg.g.g.g.f.f.f.f.f.f.f.f.f.f.f.f.f.g.g.g.g.g.g.g.g.g.g.g.g.g.g.g.g.g.g.g.g.g.D D D D D D D D D $ $ $ $ 2 2 2 2 5 5 5 5 5 %.%.%.%.q q q q 0 0 0 7 0 0 q 0 0 5 5 5 5 5 5 5 5 e e e e e 0 0 0 0 0 0 0 0 q q q q ^ ^ ^ ^ ^ Y Y Y Y e e e e 5 5 5 5 5 # # # # % % ; ; 5 5 5 5 % % % % ; 5 5 5 5 $ $ $ $ X X X X X X X X X         $ $ $ $ # # # # # # # # # $ $ $ $ # # # # pXpXpXpXpXpXpXpXpXpXpXpXpXpXpXpXpXpXpXpXpXpXpXpXpXpXpXpXpXpXpXpXpXpXpXpXpXpXpXpXpXpXpXpXpXpXpXpXpXpXpXpXpXpXpXpXpXpXpXpXpXpXpXpXpXpXpXpXpXpXpXpXpXpXpXpXpXpXpXpXpXpXpXpXpXpXpXpXpXpXpXpXpXpXpXpXpXpXpXpXpXpXpXpXpXpX",
"pXpXpXpXpXpXpXpXpXpXpXpXpXpXpXpXpXpXpXpXpXpXpXpXpXpXpXpXpXpXpXpXpXpXpXpXpXpXpXpXpXpXpXpXpXpXpXpXpXpXpXpXpXpXpXpXpXpXpXpXpXpXpXpXpXpXpXpXpXpXpXpXpXpXpXpXpXpXpXpXpXpXpXpXpXpXpXpXpXpXpXpXpXpXpXpXpXpXpXpXpXpXpXpXpXpXpXpXpXpXg.g.g.g.g.g.g.g.f.f.f.f.f.D D D D S S S S S S S S S S S S S f.f.f.f.S S S S l l l l l : : : ; 1 1 2 2 5 5 5 5 5 2 2 2 2 *.*.*.*.^ ^ ^ ^ ^ ^ ^ ^ 5 5 5 5 5 5 5 5 5 5 5 5 5 5 5 5 5 5 5 5 5 5 5 5 5 5 5 5 5 5 Y Y Y Y Y Y Y Y Y e e q e 5 5 5 5 5 # # # # 1 1 1 1 q q q q 2 2 5 5 2 $ $ $ $ 2 2 2 2 # # # # #                 X X X X % % % % % e e e e # # # # 1 2 2 2 $ $ $ $ $ pXpXpXpXpXpXpXpXpXpXpXpXpXpXpXpXpXpXpXpXpXpXpXpXpXpXpXpXpXpXpXpXpXpXpXpXpXpXpXpXpXpXpXpXpXpXpXpXpXpXpXpXpXpXpXpXpXpXpXpXpXpXpXpXpXpXpXpXpXpXpXpXpXpXpXpXpXpXpXpXpXpXpXpXpXpXpXpXpXpXpXpXpXpXpXpXpXpXpXpXpX",
"pXpXpXpXpXpXpXpXpXpXpXpXpXpXpXpXpXpXpXpXpXpXpXpXpXpXpXpXpXpXpXpXpXpXpXpXpXpXpXpXpXpXpXpXpXpXpXpXpXpXpXpXpXpXpXpXpXpXpXpXpXpXpXpXpXpXpXpXpXpXpXpXpXpXpXpXpXpXpXpXpXpXpXpXpXpXpXpXpXpXpXpXpXpXpXpXpXpXpXpXpXpXpXpXpXpXpXpXpXpXg.g.g.g.g.g.g.g.f.f.f.f.f.D D D D S S S S S S S S S S S S S f.f.f.f.S S S S l l l l l : : : ; 2 1 1 2 5 5 5 5 2 2 2 2 2 *.*.*.*.^ ^ ^ ^ ^ ^ ^ ^ 5 5 5 5 5 5 5 5 5 5 5 5 5 5 5 5 5 5 5 5 5 5 5 5 5 5 5 5 5 5 Y Y Y Y Y Y Y Y Y e e e e 5 5 5 5 5 # # # # 1 1 1 1 q q q q 2 2 2 5 5 $ $ $ $ 2 2 2 2 # # # # #                 X X X X % % % % % e e e e # # # # 1 2 2 2 $ $ $ $ $ pXpXpXpXpXpXpXpXpXpXpXpXpXpXpXpXpXpXpXpXpXpXpXpXpXpXpXpXpXpXpXpXpXpXpXpXpXpXpXpXpXpXpXpXpXpXpXpXpXpXpXpXpXpXpXpXpXpXpXpXpXpXpXpXpXpXpXpXpXpXpXpXpXpXpXpXpXpXpXpXpXpXpXpXpXpXpXpXpXpXpXpXpXpXpXpXpXpXpXpXpX",
"pXpXpXpXpXpXpXpXpXpXpXpXpXpXpXpXpXpXpXpXpXpXpXpXpXpXpXpXpXpXpXpXpXpXpXpXpXpXpXpXpXpXpXpXpXpXpXpXpXpXpXpXpXpXpXpXpXpXpXpXpXpXpXpXpXpXpXpXpXpXpXpXpXpXpXpXpXpXpXpXpXpXpXpXpXpXpXpXpXpXpXpXpXpXpXpXpXpXpXpXpXpXpXpXpXpXpXpXpXpXg.g.g.g.g.g.g.g.f.f.f.f.f.D D D D S S S S S S S S S S S S S f.f.f.f.S S S S l l l l l : : : : 2 2 2 2 5 5 5 5 2 2 2 2 2 *.*.*.*.^ ^ ^ ^ ^ ^ ^ ^ 5 5 5 5 5 5 5 5 5 5 5 5 5 5 5 5 5 5 5 5 5 5 5 5 5 5 5 5 5 5 Y Y Y Y Y Y Y Y Y e e e e 5 5 5 5 5 # # # # 1 1 1 1 0 0 0 0 2 2 2 2 2 $ $ $ $ 2 2 2 2 # # # # #                 . . . . % % % % % e e e e # # # # 2 2 2 2 $ $ $ $ $ pXpXpXpXpXpXpXpXpXpXpXpXpXpXpXpXpXpXpXpXpXpXpXpXpXpXpXpXpXpXpXpXpXpXpXpXpXpXpXpXpXpXpXpXpXpXpXpXpXpXpXpXpXpXpXpXpXpXpXpXpXpXpXpXpXpXpXpXpXpXpXpXpXpXpXpXpXpXpXpXpXpXpXpXpXpXpXpXpXpXpXpXpXpXpXpXpXpXpXpXpX",
"pXpXpXpXpXpXpXpXpXpXpXpXpXpXpXpXpXpXpXpXpXpXpXpXpXpXpXpXpXpXpXpXpXpXpXpXpXpXpXpXpXpXpXpXpXpXpXpXpXpXpXpXpXpXpXpXpXpXpXpXpXpXpXpXpXpXpXpXpXpXpXpXpXpXpXpXpXpXpXpXpXpXpXpXpXpXpXpXpXpXpXpXpXpXpXpXpXpXpXpXpXpXpXpXpXpXpXpXpXpXg.g.g.g.g.g.g.g.f.f.f.f.f.D D D D S S S S S S S S S S S S S f.f.f.f.S S S S l l l l l : : : : 2 2 2 2 5 5 5 5 2 2 2 2 2 *.*.*.*.^ ^ ^ ^ ^ ^ ^ ^ 5 5 5 5 5 5 5 5 5 5 5 5 5 5 5 5 5 5 5 5 5 5 5 5 5 5 5 5 5 5 Y Y Y Y Y Y Y Y Y e e e e 5 5 5 5 5 # # # # 1 1 1 1 0 0 0 0 2 2 2 2 2 $ $ $ $ 2 2 2 2 # # # # #                 . . . . % % % % % e e e e # # # # 2 2 2 2 $ $ $ $ $ pXpXpXpXpXpXpXpXpXpXpXpXpXpXpXpXpXpXpXpXpXpXpXpXpXpXpXpXpXpXpXpXpXpXpXpXpXpXpXpXpXpXpXpXpXpXpXpXpXpXpXpXpXpXpXpXpXpXpXpXpXpXpXpXpXpXpXpXpXpXpXpXpXpXpXpXpXpXpXpXpXpXpXpXpXpXpXpXpXpXpXpXpXpXpXpXpXpXpXpXpX",
"pXpXpXpXpXpXpXpXpXpXpXpXpXpXpXpXpXpXpXpXpXpXpXpXpXpXpXpXpXpXpXpXpXpXpXpXpXpXpXpXpXpXpXpXpXpXpXpXpXpXpXpXpXpXpXpXpXpXpXpXpXpXpXpXpXpXpXpXpXpXpXpXpXpXpXpXpXpXpXpXpXpXpXpXpXpXpXpXpXpXpXpXpXpXpXpXpXpXpXpXpXpXpXpXpXpXpXpXpXpXD.D.D.D.S S S S j j j j j j j j j S S S S j j j j j d d d j j j j j d d d d s s s s s % % % % $ $ $ $ 1 1 1 1 % % % % % E E ^ Q e e q q Y Y Y Y ^ ^ ^ ^ ^ 5 5 5 5 0 0 0 0 :.:.:.:.:.5 5 5 5 2 2 2 2 2 2 2 2 Y Y Y Y Y Y Y Y Y e e v Y e e e e e $ $ $ $ % % % % q q q q 1 1 1 1 1 $ $ $ $ 5 5 5 5 # # # # # # # # # X X X X X X X X X X X X X # # # # X X X X % % % % $ $ $ # # pXpXpXpXpXpXpXpXpXpXpXpXpXpXpXpXpXpXpXpXpXpXpXpXpXpXpXpXpXpXpXpXpXpXpXpXpXpXpXpXpXpXpXpXpXpXpXpXpXpXpXpXpXpXpXpXpXpXpXpXpXpXpXpXpXpXpXpXpXpXpXpXpXpXpXpXpXpXpXpXpXpXpXpXpXpXpXpXpXpXpXpXpXpXpXpXpXpXpXpXpX",
"pXpXpXpXpXpXpXpXpXpXpXpXpXpXpXpXpXpXpXpXpXpXpXpXpXpXpXpXpXpXpXpXpXpXpXpXpXpXpXpXpXpXpXpXpXpXpXpXpXpXpXpXpXpXpXpXpXpXpXpXpXpXpXpXpXpXpXpXpXpXpXpXpXpXpXpXpXpXpXpXpXpXpXpXpXpXpXpXpXpXpXpXpXpXpXpXpXpXpXpXpXpXpXpXpXpXpXpXpXpXD.D.D.D.S S S S j j j j j j j j j S S S S j j j j j d d d j j j j j d d d d s s s s s % % % % $ $ $ $ 1 1 1 1 % % % % % E E ^ Q e e q q Y Y Y Y ^ ^ ^ ^ ^ 5 5 5 5 0 0 0 0 :.:.:.:.:.5 5 5 5 2 2 2 2 2 2 2 2 Y Y Y Y Y Y Y Y Y e v v Y e e e e e $ $ $ $ % % % % q q q q 1 1 1 1 1 $ $ $ $ 5 5 5 5 # # # # # # # # # X X X X X X X X X X X X X # # # # X X X X % % % % # $ $ # # pXpXpXpXpXpXpXpXpXpXpXpXpXpXpXpXpXpXpXpXpXpXpXpXpXpXpXpXpXpXpXpXpXpXpXpXpXpXpXpXpXpXpXpXpXpXpXpXpXpXpXpXpXpXpXpXpXpXpXpXpXpXpXpXpXpXpXpXpXpXpXpXpXpXpXpXpXpXpXpXpXpXpXpXpXpXpXpXpXpXpXpXpXpXpXpXpXpXpXpXpX",
"pXpXpXpXpXpXpXpXpXpXpXpXpXpXpXpXpXpXpXpXpXpXpXpXpXpXpXpXpXpXpXpXpXpXpXpXpXpXpXpXpXpXpXpXpXpXpXpXpXpXpXpXpXpXpXpXpXpXpXpXpXpXpXpXpXpXpXpXpXpXpXpXpXpXpXpXpXpXpXpXpXpXpXpXpXpXpXpXpXpXpXpXpXpXpXpXpXpXpXpXpXpXpXpXpXpXpXpXpXpXD.D.D.D.S S S S j j j j j j j j j S S S S j j j j j j j j j j j j j d d d d p p s s s % % % % $ $ $ $ 1 1 1 1 % % % ; ; Q E Q Q e e q q Y Y Y Y ^ ^ ^ ^ ^ 5 5 5 5 0 0 0 0 :.:.:.:.:.5 5 5 5 2 2 2 2 2 2 2 2 Y Y Y Y Y Y Y Y Y v v v Y e e e e e $ $ $ $ % % % % q q q q 1 1 1 1 1 $ $ $ $ 5 5 5 5 # # # # # # # # # X X X X X X X X X X X X X # # # # X X X X % % % % $ $ # # # pXpXpXpXpXpXpXpXpXpXpXpXpXpXpXpXpXpXpXpXpXpXpXpXpXpXpXpXpXpXpXpXpXpXpXpXpXpXpXpXpXpXpXpXpXpXpXpXpXpXpXpXpXpXpXpXpXpXpXpXpXpXpXpXpXpXpXpXpXpXpXpXpXpXpXpXpXpXpXpXpXpXpXpXpXpXpXpXpXpXpXpXpXpXpXpXpXpXpXpXpX",
"pXpXpXpXpXpXpXpXpXpXpXpXpXpXpXpXpXpXpXpXpXpXpXpXpXpXpXpXpXpXpXpXpXpXpXpXpXpXpXpXpXpXpXpXpXpXpXpXpXpXpXpXpXpXpXpXpXpXpXpXpXpXpXpXpXpXpXpXpXpXpXpXpXpXpXpXpXpXpXpXpXpXpXpXpXpXpXpXpXpXpXpXpXpXpXpXpXpXpXpXpXpXpXpXpXpXpXpXpXpXD.D.D.D.S S S S j j j j j j j j j S S S S j j j j j j j j j j j j j d d d d s s s s s % % % % $ $ $ $ 1 1 2 1 % % % ; ; Q E Q Q e e q q Y Y Y Y ^ ^ ^ ^ ^ 5 5 5 5 0 0 0 0 :.:.:.:.:.5 5 5 5 2 2 2 2 2 2 2 2 Y Y Y Y Y Y Y Y Y v v v v e e e e e $ $ $ $ % % % % q q q q 1 1 1 1 1 $ $ $ $ 5 5 5 5 # # # # # # # # # X X X X X X X X X X X X X # # # # X X X X % % % % $ $ $ # # pXpXpXpXpXpXpXpXpXpXpXpXpXpXpXpXpXpXpXpXpXpXpXpXpXpXpXpXpXpXpXpXpXpXpXpXpXpXpXpXpXpXpXpXpXpXpXpXpXpXpXpXpXpXpXpXpXpXpXpXpXpXpXpXpXpXpXpXpXpXpXpXpXpXpXpXpXpXpXpXpXpXpXpXpXpXpXpXpXpXpXpXpXpXpXpXpXpXpXpXpX",
"pXpXpXpXpXpXpXpXpXpXpXpXpXpXpXpXpXpXpXpXpXpXpXpXpXpXpXpXpXpXpXpXpXpXpXpXpXpXpXpXpXpXpXpXpXpXpXpXpXpXpXpXpXpXpXpXpXpXpXpXpXpXpXpXpXpXpXpXpXpXpXpXpXpXpXpXpXpXpXpXpXpXpXpXpXpXpXpXpXpXpXpXpXpXpXpXpXpXpXpXpXpXpXpXpXpXpXpXpXpX*X*X*X*XS S S S j j j j j j j j j j j j j d d d d i i i i i d d d d s s s s           ; ; ; ; $ $ $ $ % % % % 2 2 2 2 2 ( ( _ _ e e e e e q e e q q q q q E E E E Y Y Y Y 5 5 5 5 5 5 5 5 5 1 2 2 2 1 1 1 1 0 0 0 0 0 T T T Y Y Y Y Y e e e e e % % % % % % % % 5 5 5 5 2 2 2 2 2 ; ; ; ; 1 1 1 1 2 2 2 2 2 # # # #                 # # # # # # # # # 1 1 1 1 # # # # 1 1 1 1 1 # # # # pXpXpXpXpXpXpXpXpXpXpXpXpXpXpXpXpXpXpXpXpXpXpXpXpXpXpXpXpXpXpXpXpXpXpXpXpXpXpXpXpXpXpXpXpXpXpXpXpXpXpXpXpXpXpXpXpXpXpXpXpXpXpXpXpXpXpXpXpXpXpXpXpXpXpXpXpXpXpXpXpXpXpXpXpXpXpXpXpXpXpXpXpXpXpXpXpX",
"pXpXpXpXpXpXpXpXpXpXpXpXpXpXpXpXpXpXpXpXpXpXpXpXpXpXpXpXpXpXpXpXpXpXpXpXpXpXpXpXpXpXpXpXpXpXpXpXpXpXpXpXpXpXpXpXpXpXpXpXpXpXpXpXpXpXpXpXpXpXpXpXpXpXpXpXpXpXpXpXpXpXpXpXpXpXpXpXpXpXpXpXpXpXpXpXpXpXpXpXpXpXpXpXpXpXpXpXpXpX*X*X*X*XS S S S j j j j j j j j j j j j j d d d d i i i i i d d d d s s s s           ; ; ; ; $ $ $ $ % % % % 2 2 2 2 2 ( _ _ _ e e e e q q e e e q q q q E E E E Y Y Y Y 5 5 5 5 5 5 5 5 5 2 2 2 2 1 1 1 1 0 0 0 0 0 T T T Y Y Y Y Y e e e e e % % % % % % % % 5 5 5 5 2 2 2 2 2 ; ; 1 1 1 1 1 1 2 2 2 2 2 # # # #                 # # # # # # # # # 1 1 1 1 # # # # 1 1 1 1 1 # # # # pXpXpXpXpXpXpXpXpXpXpXpXpXpXpXpXpXpXpXpXpXpXpXpXpXpXpXpXpXpXpXpXpXpXpXpXpXpXpXpXpXpXpXpXpXpXpXpXpXpXpXpXpXpXpXpXpXpXpXpXpXpXpXpXpXpXpXpXpXpXpXpXpXpXpXpXpXpXpXpXpXpXpXpXpXpXpXpXpXpXpXpXpXpXpXpXpX",
"pXpXpXpXpXpXpXpXpXpXpXpXpXpXpXpXpXpXpXpXpXpXpXpXpXpXpXpXpXpXpXpXpXpXpXpXpXpXpXpXpXpXpXpXpXpXpXpXpXpXpXpXpXpXpXpXpXpXpXpXpXpXpXpXpXpXpXpXpXpXpXpXpXpXpXpXpXpXpXpXpXpXpXpXpXpXpXpXpXpXpXpXpXpXpXpXpXpXpXpXpXpXpXpXpXpXeXeXpXpX*X*X*X*XS S S S j j j j j j j j j j j j j d d d d i i i i i d d d d s s s s . . . .   ; 1 1 ; $ $ $ $ % % % % 2 2 2 2 2 _ _ ( ( e e e e e e e e q q e q e E E E E Y Y Y Y 5 5 5 5 5 5 5 7 7 2 2 2 2 1 1 1 1 0 0 0 0 0 Y Y Y Y Y Y Y Y e q q q q % % % % % % % % 5 5 5 5 2 2 2 2 2 1 ; ; ; 1 1 1 2 2 2 2 2 2 # # # # . . .           # # # # # # # # # 1 1 1 1 # # # # 1 1 1 1 1 # # # # pXpXpXpXpXpXpXpXpXpXpXpXpXpXpXpXpXpXpXpXpXpXpXpXpXpXpXpXpXpXpXpXpXpXpXpXpXpXpXpXpXpXpXpXpXpXpXpXpXpXpXpXpXpXpXpXpXpXpXpXpXpXpXpXpXpXpXpXpXpXpXpXpXpXpXpXpXpXpXpXpXpXpXpXpXpXpXpXpXpXpXpXpXpXpXpXpX",
"pXpXpXpXpXpXpXpXpXpXpXpXpXpXpXpXpXpXpXpXpXpXpXpXpXpXpXpXpXpXpXpXpXpXpXpXpXpXpXpXpXpXpXpXpXpXpXpXpXpXpXpXpXpXpXpXpXpXpXpXpXpXpXpXpXpXpXpXpXpXpXpXpXpXpXpXpXpXpXpXpXpXpXpXpXpXpXpXpXpXpXpXpXpXpXpXpXpXpXpXpXpXpXpXpXpXpXeXpXpX*X*X*X*XS S S S j j j j j j j j j j j j j d d d d i i i i i d d d d s s s s   . . .   1 1 ; ; $ $ $ $ % % % % 2 2 2 2 2 _ _ ( ( e e e e e e q e q q e e e E E E E Y Y Y Y 5 5 5 5 5 7 5 7 7 2 2 2 2 1 1 1 1 0 0 0 0 0 Y Y Y Y Y Y Y Y e q q q q % % % % % % % % 5 5 5 5 2 2 2 2 2 1 ; ; ; 1 1 1 2 2 2 2 2 2 # # # # X X             # # # # # # # # # 1 1 1 1 # # # # 1 1 1 1 1 # # # # pXpXpXpXpXpXpXpXpXpXpXpXpXpXpXpXpXpXpXpXpXpXpXpXpXpXpXpXpXpXpXpXpXpXpXpXpXpXpXpXpXpXpXpXpXpXpXpXpXpXpXpXpXpXpXpXpXpXpXpXpXpXpXpXpXpXpXpXpXpXpXpXpXpXpXpXpXpXpXpXpXpXpXpXpXpXpXpXpXpXpXpXpXpXpXpXpX",
"pXpXpXpXpXpXpXpXpXpXpXpXpXpXpXpXpXpXpXpXpXpXpXpXpXpXpXpXpXpXpXpXpXpXpXpXpXpXpXpXpXpXpXpXpXpXpXpXpXpXpXpXpXpXpXpXpXpXpXpXpXpXpXpXpXpXpXpXpXpXpXpXpXpXpXpXpXpXpXpXpXpXpXpXpXpXpXpXpXpXpXpXpXpXpXpXpXpXpXpXpXpXpXpXpXpXpXeXpXpX*X*X*X*XS S S S j j j j j j j j j j j j j d d d d i i i i i d d d d s s s s     . .   ; ; ; ; $ $ $ $ % % % % 2 2 2 2 2 _ ( ( ( e e e e e e q q q q e e e E E E E Y Y Y Y 5 5 5 5 5 7 0 0 0 2 2 2 2 1 1 1 1 0 0 0 0 0 T Y Y Y Y Y Y Y q q q q q % % % % % % % $ 5 5 5 5 2 2 2 2 2 1 ; ; ; 1 1 2 2 2 2 2 2 2 # # # # X X X X         # # # # # # # # # 1 1 1 1 # # # # 1 1 1 1 1 # # # # pXpXpXpXpXpXpXpXpXpXpXpXpXpXpXpXpXpXpXpXpXpXpXpXpXpXpXpXpXpXpXpXpXpXpXpXpXpXpXpXpXpXpXpXpXpXpXpXpXpXpXpXpXpXpXpXpXpXpXpXpXpXpXpXpXpXpXpXpXpXpXpXpXpXpXpXpXpXpXpXpXpXpXpXpXpXpXpXpXpXpXpXpXpXpXpXpX",
"pXpXpXpXpXpXpXpXpXpXpXpXpXpXpXpXpXpXpXpXpXpXpXpXpXpXpXpXpXpXpXpXpXpXpXpXpXpXpXpXpXpXpXpXpXpXpXpXpXpXpXpXpXpXpXpXpXpXpXpXpXpXpXpXpXpXpXpXpXpXpXpXpXpXpXpXpXpXpXpXpXpXpXpXpXpXpXpXpXpXpXpXpXpXpXpXpXpXpXpXpXpXpXpXpXpXpXpXpXpXpXpXpXpXA A A A a a a a a i i i i a a a a i i i i i i i i i i i i i a a a a $ $ $ $ $ $ $ $ $ $ $ $ $ $ $ $ $ 5 5 5 5 5 e e e e 2 2 2 2 5 5 5 5 % % % % % 5 5 5 5 q e e e e e e e e R R E E 5 5 5 5 % % % % q q q q q e e e e 0 0 0 q e q q q q 1 1 1 1 2 2 2 2 q q q q %.%.%.%.&.1 1 1 1 $ $ $ $ 5 2 5 5 5 # # # # $ $ $ $                   X X X   # # # # # # # # 5 5 5 5 5 # # # # pXpXpXpXpXpXpXpXpXpXpXpXpXpXpXpXpXpXpXpXpXpXpXpXpXpXpXpXpXpXpXpXpXpXpXpXpXpXpXpXpXpXpXpXpXpXpXpXpXpXpXpXpXpXpXpXpXpXpXpXpXpXpXpXpXpXpXpXpXpXpXpXpXpXpXpXpXpXpXpXpXpXpXpXpXpXpXpXpXpXpXpXpXpXpXpXpX",
"pXpXpXpXpXpXpXpXpXpXpXpXpXpXpXpXpXpXpXpXpXpXpXpXpXpXpXpXpXpXpXpXpXpXpXpXpXpXpXpXpXpXpXpXpXpXpXpXpXpXpXpXpXpXpXpXpXpXpXpXpXpXpXpXpXpXpXpXpXpXpXpXpXpXpXpXpXpXpXpXpXpXpXpXpXpXpXpXpXpXpXpXpXpXpXpXpXpXpXpXpXpXpXpXpXpXpXpXpXpXpXpXpXpXA A A A a a a a a i i i i a a a a i i i i i i i i i i i i i a a a a $ $ $ $ $ $ $ $ $ $ $ $ $ $ $ $ $ 5 5 5 5 5 e e e e 2 2 2 2 5 5 5 5 % % % % 1 5 5 5 5 q q q q e e e e e Y Y Y Y 5 5 5 5 % % % % q q q q q e e e e q q 0 0 q q e e e 1 1 1 1 2 2 2 2 q q q q *.&.&.%.&.1 1 1 1 $ $ $ $ 5 2 2 2 2 # # # # $ $ $ $                   X X . . # # # $ # # # # 5 5 5 5 5 # # # # pXpXpXpXpXpXpXpXpXpXpXpXpXpXpXpXpXpXpXpXpXpXpXpXpXpXpXpXpXpXpXpXpXpXpXpXpXpXpXpXpXpXpXpXpXpXpXpXpXpXpXpXpXpXpXpXpXpXpXpXpXpXpXpXpXpXpXpXpXpXpXpXpXpXpXpXpXpXpXpXpXpXpXpXpXpXpXpXpXpXpXpXpXpXpXpXpX",
"pXpXpXpXpXpXpXpXpXpXpXpXpXpXpXpXpXpXpXpXpXpXpXpXpXpXpXpXpXpXpXpXpXpXpXpXpXpXpXpXpXpXpXpXpXpXpXpXpXpXpXpXpXpXpXpXpXpXpXpXpXpXpXpXpXpXpXpXpXpXpXpXpXpXpXpXpXpXpXpXpXpXpXpXpXpXpXpXpXpXpXpXpXpXpXpXpXpXpXpXpXpXpXpXpXpXpXpXpXpXpXpXpXpXA A A A a a a a a i i i i a a a a i i i i i i i i i i i i i a a a a $ $ $ $ $ $ $ $ $ $ $ $ $ $ $ $ $ 5 5 5 5 5 e e e e 2 2 2 2 5 5 5 5 % % % % ; 5 5 5 5 e q q q e e e e e Y Y Y Y 5 5 5 5 % % % % q q q q q e e e e q q q 0 q q e e e 1 1 1 1 2 2 2 2 q q q q *.&.&.&.&.1 1 1 1 $ $ $ $ 2 2 2 2 2 # # # # $ $ $ $                   X . . . # # # # # # # # 5 5 5 5 5 # # # # pXpXpXpXpXpXpXpXpXpXpXpXpXpXpXpXpXpXpXpXpXpXpXpXpXpXpXpXpXpXpXpXpXpXpXpXpXpXpXpXpXpXpXpXpXpXpXpXpXpXpXpXpXpXpXpXpXpXpXpXpXpXpXpXpXpXpXpXpXpXpXpXpXpXpXpXpXpXpXpXpXpXpXpXpXpXpXpXpXpXpXpXpXpXpXpXpX",
"pXpXpXpXpXpXpXpXpXpXpXpXpXpXpXpXpXpXpXpXpXpXpXpXpXpXpXpXpXpXpXpXpXpXpXpXpXpXpXpXpXpXpXpXpXpXpXpXpXpXpXpXpXpXpXpXpXpXpXpXpXpXpXpXpXpXpXpXpXpXpXpXpXpXpXpXpXpXpXpXpXpXpXpXpXpXpXpXpXpXpXpXpXpXpXpXpXpXpXpXpXpXpXpXpXpXpXpXpXpXpXpXpXpXA A A A a a a a a i i i i a a a a i i i i i i i i i i i i i a a a a $ $ $ $ $ $ $ $ $ $ $ $ $ $ $ $ # 5 5 5 5 5 e e e e 2 2 2 2 5 5 5 5 % % % % % 5 5 5 5 q q q q e e e e e T T Y Y 5 5 5 5 % % % % 0 0 q 0 q e e e e q 0 q q e e e e e 1 1 1 1 2 2 1 1 q q q q *.*.&.%.%.1 1 1 1 $ $ $ $ 2 2 2 2 2 # # # # $ $ $ $                   X X X X $ # # # # # # # 5 5 5 5 5 $ $ $ $ pXpXpXpXpXpXpXpXpXpXpXpXpXpXpXpXpXpXpXpXpXpXpXpXpXpXpXpXpXpXpXpXpXpXpXpXpXpXpXpXpXpXpXpXpXpXpXpXpXpXpXpXpXpXpXpXpXpXpXpXpXpXpXpXpXpXpXpXpXpXpXpXpXpXpXpXpXpXpXpXpXpXpXpXpXpXpXpXpXpXpXpXpXpXpXpXpX",
"pXpXpXpXpXpXpXpXpXpXpXpXpXpXpXpXpXpXpXpXpXpXpXpXpXpXpXpXpXpXpXpXpXpXpXpXpXpXpXpXpXpXpXpXpXpXpXpXpXpXpXpXpXpXpXpXpXpXpXpXpXpXpXpXpXpXpXpXpXpXpXpXpXpXpXpXpXpXpXpXpXpXpXpXpXpXpXpXpXpXpXpXpXpXpXpXpXpXpXpXpXpXpXpXpXpXpXpXpXpXpXpXpXpXD D D D j j j j j u u u u = = = = r r r r r r r r r p p p p $ $ $ $ # # # # $ # # # # $ $ $ $ # # # # $ $ $ $ $ 5 5 5 5 2 2 2 2 2 2 2 2 5 5 5 5 5 0 0 0 0 5 5 5 5 5 5 5 5 5 Y Y Y Y %.%.%.%.0 0 0 0 5 5 5 5 5 5 5 5 5 q q q q e e e e e 7 7 5 5 5 5 5 2 Y Y Y Y Y Y Y Y Y 1 2 2 2 % % % % ; 1 ; ; ; # # # # # # # # X X X             X X X X # # # # %.%.%.%.% % % % % 1 1 2 2 X X X X pXpXpXpXpXpXpXpXpXpXpXpXpXpXpXpXpXpXpXpXpXpXpXpXpXpXpXpXpXpXpXpXpXpXpXpXpXpXpXpXpXpXpXpXpXpXpXpXpXpXpXpXpXpXpXpXpXpXpXpXpXpXpXpXpXpXpXpXpXpXpXpXpXpXpXpXpXpXpXpXpXpXpXpXpXpXpXpXpXpXpXpXpX",
"pXpXpXpXpXpXpXpXpXpXpXpXpXpXpXpXpXpXpXpXpXpXpXpXpXpXpXpXpXpXpXpXpXpXpXpXpXpXpXpXpXpXpXpXpXpXpXpXpXpXpXpXpXpXpXpXpXpXpXpXpXpXpXpXpXpXpXpXpXpXpXpXpXpXpXpXpXpXpXpXpXpXpXpXpXpXpXpXpXpXpXpXpXpXpXpXpXpXpXpXpXpXpXpXpXpXpXpXpXpXpXpXpXpXD D D D j j j j j u u u u = = = = r r r r r r r r r p p p p $ $ $ $ $ $ $ $ $ # # # # # $ # $ # # # # $ $ $ $ $ 5 5 5 5 2 2 2 2 2 2 2 2 5 5 5 5 5 0 0 0 0 5 5 5 5 5 5 5 5 5 Y Y Y Y %.%.%.%.0 0 0 0 5 5 5 5 5 5 5 5 5 q q q q e e e e e 7 5 5 7 5 5 5 5 Y Y Y Y Y Y Y Y Y 2 2 2 1 % % % % ; 1 1 ; % # # # # # # # # X X X .           X X X X # # # # %.%.%.%.% % % % % 2 2 2 1 X X X X pXpXpXpXpXpXpXpXpXpXpXpXpXpXpXpXpXpXpXpXpXpXpXpXpXpXpXpXpXpXpXpXpXpXpXpXpXpXpXpXpXpXpXpXpXpXpXpXpXpXpXpXpXpXpXpXpXpXpXpXpXpXpXpXpXpXpXpXpXpXpXpXpXpXpXpXpXpXpXpXpXpXpXpXpXpXpXpXpXpXpXpXpX",
"pXpXpXpXpXpXpXpXpXpXpXpXpXpXpXpXpXpXpXpXpXpXpXpXpXpXpXpXpXpXpXpXpXpXpXpXpXpXpXpXpXpXpXpXpXpXpXpXpXpXpXpXpXpXpXpXpXpXpXpXpXpXpXpXpXpXpXpXpXpXpXpXpXpXpXpXpXpXpXpXpXpXpXpXpXpXpXpXpXpXpXpXpXpXpXpXpXpXpXpXpXpXpXpXpXpXpXpXpXpXpXpXpXpXD D D D j j j j j u u u u = = = = r r r r r r r r r p p p p $ $ $ $ $ $ $ $ $ # # # # $ $ $ $ # # # # $ $ $ $ $ 5 5 5 5 2 2 2 2 2 2 2 2 5 5 5 5 5 0 0 0 0 5 5 5 5 5 5 5 5 5 Y Y Y Y %.%.%.%.0 0 0 0 5 5 5 5 5 5 5 5 5 q q q q e e e e e 5 5 5 7 5 5 5 5 Y Y Y Y Y Y Y Y Y 2 1 2 1 % % % % ; 1 1 ; ; # # # # # # # # X X X X           X X X X # # # # %.%.%.%.% % % % % 2 2 1 1 X X X X pXpXpXpXpXpXpXpXpXpXpXpXpXpXpXpXpXpXpXpXpXpXpXpXpXpXpXpXpXpXpXpXpXpXpXpXpXpXpXpXpXpXpXpXpXpXpXpXpXpXpXpXpXpXpXpXpXpXpXpXpXpXpXpXpXpXpXpXpXpXpXpXpXpXpXpXpXpXpXpXpXpXpXpXpXpXpXpXpXpXpXpXpX",
"pXpXpXpXpXpXpXpXpXpXpXpXpXpXpXpXpXpXpXpXpXpXpXpXpXpXpXpXpXpXpXpXpXpXpXpXpXpXpXpXpXpXpXpXpXpXpXpXpXpXpXpXpXpXpXpXpXpXpXpXpXpXpXpXpXpXpXpXpXpXpXpXpXpXpXpXpXpXpXpXpXpXpXpXpXpXpXpXpXpXpXpXpXpXpXpXpXpXpXpXpXpXpXpXpXpXpXpXpXpXpXpXpXpXD D D D j j j j j u u u u = = = = r r r r r r r r r p p p p $ $ $ $ $ $ $ $ $ # # # # $ $ $ $ # # # # $ $ $ $ $ 5 5 5 5 2 2 2 2 2 2 2 2 5 5 5 5 5 0 0 0 0 5 5 5 5 5 5 5 5 5 Y Y Y Y %.%.%.%.0 0 0 0 5 5 5 5 5 5 5 5 5 q q q q e e e e e 5 5 5 5 5 5 5 5 Y Y Y Y Y Y Y Y Y 1 1 1 1 % % % % % 1 ; ; ; # # # # # # # # X X X X           X X X X # # # # %.%.%.%.% % % % % 2 2 1 1 X X X X pXpXpXpXpXpXpXpXpXpXpXpXpXpXpXpXpXpXpXpXpXpXpXpXpXpXpXpXpXpXpXpXpXpXpXpXpXpXpXpXpXpXpXpXpXpXpXpXpXpXpXpXpXpXpXpXpXpXpXpXpXpXpXpXpXpXpXpXpXpXpXpXpXpXpXpXpXpXpXpXpXpXpXpXpXpXpXpXpXpXpXpXpX",
"pXpXpXpXpXpXpXpXpXpXpXpXpXpXpXpXpXpXpXpXpXpXpXpXpXpXpXpXpXpXpXpXpXpXpXpXpXpXpXpXpXpXpXpXpXpXpXpXpXpXpXpXpXpXpXpXpXpXpXpXpXpXpXpXpXpXpXpXpXpXpXpXpXpXpXpXpXpXpXpXpXpXpXpXpXpXpXpXpXpXpXpXpXpXpXpXpXpXpXpXpXpXpXpXpXpXpXpXpXpXpXpXpXpX` ' ' ' p p p p p u u u u = = = = & & & & o o o o o         $ $ $ $ # # # # # $ $ $ $ $ $ $ $ # # # # # # # # # $ $ $ $ 5 5 5 5 1 1 1 1 2 2 2 2 2 % % % % 1 1 1 1 5 5 5 5 5 1 1 1 1 2 2 2 2 7 5 5 5 5 5 5 5 7 Y Y Y Y 2 2 2 2 5 5 5 5 5 0 0 0 0 q q q q e e v v e e e e e q q q q :.:.:.:.1 1 1 1 1 5 5 5 7 # # # # # # # # X X X X X                 X X X   1 1 1 2 1 # # # # 1 1 1 1 # # # # # pXpXpXpXpXpXpXpXpXpXpXpXpXpXpXpXpXpXpXpXpXpXpXpXpXpXpXpXpXpXpXpXpXpXpXpXpXpXpXpXpXpXpXpXpXpXpXpXpXpXpXpXpXpXpXpXpXpXpXpXpXpXpXpXpXpXpXpXpXpXpXpXpXpXpXpXpXpXpXpXpXpXpXpXpXpXpXpX",
"pXpXpXpXpXpXpXpXpXpXpXpXpXpXpXpXpXpXpXpXpXpXpXpXpXpXpXpXpXpXpXpXpXpXpXpXpXpXpXpXpXpXpXpXpXpXpXpXpXpXpXpXpXpXpXpXpXpXpXpXpXpXpXpXpXpXpXpXpXpXpXpXpXpXpXpXpXpXpXpXpXpXpXpXpXpXpXpXpXpXpXpXpXpXpXpXpXpXpXpXpXpXpXpXpXpXpXpXpXpXpXpXpXpX` ` ` ` p p p p g u u u u = = = = & & & & o o o o o . . . . $ $ $ $ # # # # # $ $ $ $ $ $ $ $ # # # # # # # # # $ $ $ $ 7 7 5 5 1 1 1 1 2 2 2 2 2 % ; 1 ; 1 1 1 1 5 5 5 5 5 1 1 1 1 2 2 2 2 5 5 5 5 5 5 7 7 7 Y Y Y Y 2 2 2 2 5 5 5 5 5 0 0 0 0 q q q q e v v v e e e e e q q q q :.:.:.:.1 1 1 1 1 7 7 7 7 # # # # # # # #   X X X X                         1 1 1 1 1 # # # # 1 1 1 1 # # # # # pXpXpXpXpXpXpXpXpXpXpXpXpXpXpXpXpXpXpXpXpXpXpXpXpXpXpXpXpXpXpXpXpXpXpXpXpXpXpXpXpXpXpXpXpXpXpXpXpXpXpXpXpXpXpXpXpXpXpXpXpXpXpXpXpXpXpXpXpXpXpXpXpXpXpXpXpXpXpXpXpXpXpXpXpXpXpXpX",
"pXpXpXpXpXpXpXpXpXpXpXpXpXpXpXpXpXpXpXpXpXpXpXpXpXpXpXpXpXpXpXpXpXpXpXpXpXpXpXpXpXpXpXpXpXpXpXpXpXpXpXpXpXpXpXpXpXpXpXpXpXpXpXpXpXpXpXpXpXpXpXpXpXpXpXpXpXpXpXpXpXpXpXpXpXpXpXpXpXpXpXpXpXpXpXpXpXpXpXpXpXpXpXpXpXpXpXpXpXpXpXpXpXpX` ` ' ' p p p p g u u u u = = = = & & & & o o o o o . . . . $ $ $ $ # # # # # $ $ $ $ $ $ $ $ # # # # # # # # # $ $ $ $ 7 7 5 5 1 1 1 1 2 2 2 2 2 % ; ; ; 1 1 1 1 5 5 5 5 5 1 1 1 1 2 2 2 2 5 5 5 5 5 5 7 7 0 Y Y Y Y 2 2 2 2 5 5 5 5 5 0 0 0 0 q q q q e v v v e e e e e q q q 0 :.:.:.:.1 1 1 1 1 7 7 7 7 # # # # # # # #   X X X X                   .     1 1 1 2 1 # # # # 1 1 1 1 # # # # # pXpXpXpXpXpXpXpXpXpXpXpXpXpXpXpXpXpXpXpXpXpXpXpXpXpXpXpXpXpXpXpXpXpXpXpXpXpXpXpXpXpXpXpXpXpXpXpXpXpXpXpXpXpXpXpXpXpXpXpXpXpXpXpXpXpXpXpXpXpXpXpXpXpXpXpXpXpXpXpXpXpXpXpXpXpXpXpX",
"pXpXpXpXpXpXpXpXpXpXpXpXpXpXpXpXpXpXpXpXpXpXpXpXpXpXpXpXpXpXpXpXpXpXpXpXpXpXpXpXpXpXpXpXpXpXpXpXpXpXpXpXpXpXpXpXpXpXpXpXpXpXpXpXpXpXpXpXpXpXpXpXpXpXpXpXpXpXpXpXpXpXpXpXpXpXpXpXpXpXpXpXpXpXpXpXpXpXpXpXpXpXpXpXpXpXpXpXpXpXpXpXpXpX` ` ` ` p p p p p u u u u = = = = & & & & o o o o o . . . . $ $ $ $ # # # # # $ $ $ $ $ $ $ $ # # # # # # # # # $ $ $ $ 7 7 5 7 1 1 1 1 2 2 2 2 2 % ; ; % 1 1 1 1 5 5 5 5 5 1 1 1 1 2 2 2 2 7 7 5 5 5 5 5 7 0 Y Y Y Y 2 2 2 2 5 5 5 5 5 0 0 0 0 q q q q e e v v e e e e e q q q q :.:.:.:.1 1 1 1 1 7 7 7 7 # # # # # # # # X X X X X                 X       1 1 1 2 2 # # # # 1 1 1 1 # # # # # pXpXpXpXpXpXpXpXpXpXpXpXpXpXpXpXpXpXpXpXpXpXpXpXpXpXpXpXpXpXpXpXpXpXpXpXpXpXpXpXpXpXpXpXpXpXpXpXpXpXpXpXpXpXpXpXpXpXpXpXpXpXpXpXpXpXpXpXpXpXpXpXpXpXpXpXpXpXpXpXpXpXpXpXpXpXpXpX",
"pXpXpXpXpXpXpXpXpXpXpXpXpXpXpXpXpXpXpXpXpXpXpXpXpXpXpXpXpXpXpXpXpXpXpXpXpXpXpXpXpXpXpXpXpXpXpXpXpXpXpXpXpXpXpXpXpXpXpXpXpXpXpXpXpXpXpXpXpXpXpXpXpXpXpXpXpXpXpXpXpXpXpXpXpXpXpXpXpXpXpXpXpXpXpXpXpXpXpXpXpXpXpXpXpXpXpXpXpXpXpXpXpXpX` ` ` ` p p p p p u u u u = = = = & & & & o o o o o . . . . $ $ $ $ # # # # # $ $ $ $ $ $ $ $ # # # # # # # # # $ $ $ $ 7 7 5 7 1 1 1 1 2 2 2 2 2 % ; ; % 1 1 1 1 5 5 5 5 5 1 1 1 1 2 2 2 2 7 7 7 7 5 5 5 7 0 Y Y Y Y 2 2 2 2 5 5 5 5 5 0 0 0 0 q q q q e e v v e e e e e q q q q :.:.:.:.1 1 1 1 1 7 7 7 7 # # # # $ $ # #   . X X X                 X X X   1 1 1 1 1 # # # # 1 1 1 1 # # # # # pXpXpXpXpXpXpXpXpXpXpXpXpXpXpXpXpXpXpXpXpXpXpXpXpXpXpXpXpXpXpXpXpXpXpXpXpXpXpXpXpXpXpXpXpXpXpXpXpXpXpXpXpXpXpXpXpXpXpXpXpXpXpXpXpXpXpXpXpXpXpXpXpXpXpXpXpXpXpXpXpXpXpXpXpXpXpXpX",
"pXpXpXpXpXpXpXpXpXpXpXpXpXpXpXpXpXpXpXpXpXpXpXpXpXpXpXpXpXpXpXpXpXpXpXpXpXpXpXpXpXpXpXpXpXpXpXpXpXpXpXpXpXpXpXpXpXpXpXpXpXpXpXpXpXpXpXpXpXpXpXpXpXpXpXpXpXpXpXpXpXpXpXpXpXpXpXpXpXpXpXpXpXpXpXpXpXpXpXpXpXpXpXpXpXpXpXpXpXpXpXpXpXqXm m m m j j A A A i i i i = = = = & & & & o o o o o         $ $ $ $ # # # # # % % $ $ $ $ $ $ $ $ $ $ $ $ $ $ $ $ $ $ $ 5 5 5 5 ; ; ; ; ; ; % % ; ; 1 1 % % ; ; 1 1 % % % % 1 1 1 ; % % 1 1 1 1 % % % % ; ; ; v e e v Y Y Y Y q q q q q 2 2 2 2 5 5 5 5 Y Y Y Y *.*.*.*.*.e e e e 0 0 0 0 5 5 5 5 5 q q q q % % % % # # # # # # # # # X X X X X X X X X X X X Y Y Y Y Y X X X X % % % % # # # # # X X X X pXpXpXpXpXpXpXpXpXpXpXpXpXpXpXpXpXpXpXpXpXpXpXpXpXpXpXpXpXpXpXpXpXpXpXpXpXpXpXpXpXpXpXpXpXpXpXpXpXpXpXpXpXpXpXpXpXpXpXpXpXpXpXpXpXpXpXpXpXpXpXpXpXpXpXpXpXpXpXpXpXpXpXpX",
"pXpXpXpXpXpXpXpXpXpXpXpXpXpXpXpXpXpXpXpXpXpXpXpXpXpXpXpXpXpXpXpXpXpXpXpXpXpXpXpXpXpXpXpXpXpXpXpXpXpXpXpXpXpXpXpXpXpXpXpXpXpXpXpXpXpXpXpXpXpXpXpXpXpXpXpXpXpXpXpXpXpXpXpXpXpXpXpXpXpXpXpXpXpXpXpXpXpXpXpXpXpXpXpXpXpXpXpXpXpXpXpXqXqXm m m m j j A A A i i i i = = = = & & & & o o o o o         $ $ $ $ # # # # # $ $ $ $ $ $ $ $ $ $ $ $ $ $ $ $ $ $ $ $ $ 5 5 5 5 ; ; ; ; ; ; % % ; % 1 1 % % % ; 1 1 % % % % 1 1 1 1 % ; ; 1 ; 1 % % ; % ; 1 ; e e e v Y Y Y Y q q q q q 2 2 2 2 5 5 5 5 Y Y Y Y *.*.*.*.*.e e e e 0 0 0 0 5 5 5 5 5 q q q q % % % % # # # # # # # # #   X X X X X X X X X X X Y Y Y Y Y X X X X % % % % # # # # # X X X X pXpXpXpXpXpXpXpXpXpXpXpXpXpXpXpXpXpXpXpXpXpXpXpXpXpXpXpXpXpXpXpXpXpXpXpXpXpXpXpXpXpXpXpXpXpXpXpXpXpXpXpXpXpXpXpXpXpXpXpXpXpXpXpXpXpXpXpXpXpXpXpXpXpXpXpXpXpXpXpXpXpXpXpX",
"pXpXpXpXpXpXpXpXpXpXpXpXpXpXpXpXpXpXpXpXpXpXpXpXpXpXpXpXpXpXpXpXpXpXpXpXpXpXpXpXpXpXpXpXpXpXpXpXpXpXpXpXpXpXpXpXpXpXpXpXpXpXpXpXpXpXpXpXpXpXpXpXpXpXpXpXpXpXpXpXpXpXpXpXpXpXpXpXpXpXpXpXpXpXpXpXpXpXpXpXpXpXpXpXpXpXpXpXpXpXpXpXqXqXm m m m j j A j A i i i i = = = = & & & & o o o o o         $ $ $ $ # # # # # $ $ $ $ $ $ $ $ $ $ $ $ $ $ $ $ $ $ $ $ $ 5 5 5 5 % ; ; ; ; ; % % % % ; ; ; % % % 1 1 % % % % ; 1 % % % % 1 1 ; ; ; % ; ; ; 1 ; v e e v Y Y Y Y q q q q q 2 2 2 2 5 5 5 5 Y Y Y Y *.*.*.*.*.e e e e 0 0 0 0 5 5 5 5 5 q q q q $ $ % % # # # # # # # # #           X X X X X X X Y Y Y Y Y X X X X % % % % # # # # # X X X X pXpXpXpXpXpXpXpXpXpXpXpXpXpXpXpXpXpXpXpXpXpXpXpXpXpXpXpXpXpXpXpXpXpXpXpXpXpXpXpXpXpXpXpXpXpXpXpXpXpXpXpXpXpXpXpXpXpXpXpXpXpXpXpXpXpXpXpXpXpXpXpXpXpXpXpXpXpXpXpXpXpXpXpX",
"pXpXpXpXpXpXpXpXpXpXpXpXpXpXpXpXpXpXpXpXpXpXpXpXpXpXpXpXpXpXpXpXpXpXpXpXpXpXpXpXpXpXpXpXpXpXpXpXpXpXpXpXpXpXpXpXpXpXpXpXpXpXpXpXpXpXpXpXpXpXpXpXpXpXpXpXpXpXpXpXpXpXpXpXpXpXpXpXpXpXpXpXpXpXpXpXpXpXpXpXpXpXpXpXpXpXpXpXpXpXpXpXqXqXm m m m j j j j A i i i i = = = = & & & & o o o o o         $ $ $ $ # # # # # $ $ $ $ $ $ $ $ $ $ $ $ $ $ $ $ $ $ $ $ $ 5 5 5 5 % ; ; ; ; ; ; % ; % ; ; ; ; % % 1 1 ; % % % % % % % % % 1 1 ; ; ; % ; ; 1 1 1 Y e e e Y Y Y Y q q q q q 2 2 2 2 5 5 5 5 Y Y Y Y *.*.*.*.*.e e e e 0 0 0 0 5 5 5 5 5 q q q q $ $ $ % # # # # # # # # #           X X X X X X X Y Y Y Y Y X X X X % % % % # # # # # X X X X pXpXpXpXpXpXpXpXpXpXpXpXpXpXpXpXpXpXpXpXpXpXpXpXpXpXpXpXpXpXpXpXpXpXpXpXpXpXpXpXpXpXpXpXpXpXpXpXpXpXpXpXpXpXpXpXpXpXpXpXpXpXpXpXpXpXpXpXpXpXpXpXpXpXpXpXpXpXpXpXpXpXpXpX",
"pXpXpXpXpXpXpXpXpXpXpXpXpXpXpXpXpXpXpXpXpXpXpXpXpXpXpXpXpXpXpXpXpXpXpXpXpXpXpXpXpXpXpXpXpXpXpXpXpXpXpXpXpXpXpXpXpXpXpXpXpXpXpXpXpXpXpXpXpXpXpXpXpXpXpXpXpXpXpXpXpXpXpXpXpXpXpXpXpXpXpXpXpXpXpXpXpXpXpXpXpXpXpXpXpXpXpXpXpXpXpXpXpXpXpXpXpXpXD D D D D u u u u & & & & o o o o o o o o o         # # # # # # # # # # # # # $ $ $ $ $ $ $ $ $ $ $ $ $ % % % % q q q q $ $ $ $ ; ; % % ; ; ; % % % % % % 2 2 2 2 2 $ $ $ $ % % % % 1 1 1 1 ; ; ; ; 1 $ $ $ $ 7 7 7 5 e e e e e 5 5 5 5 0 0 q q E E E E Q Q E E E Y Y Y Y 0 7 7 7 1 1 1 1 1 % % % % 1 1 1 1 # # # # X X X X X # # # #                 X # # # + X X X X $ $ $ $ % % % % % X X X X X X X X pXpXpXpXpXpXpXpXpXpXpXpXpXpXpXpXpXpXpXpXpXpXpXpXpXpXpXpXpXpXpXpXpXpXpXpXpXpXpXpXpXpXpXpXpXpXpXpXpXpXpXpXpXpXpXpXpXpXpXpXpXpXpXpXpXpXpXpXpXpXpXpXpXpXpXpXpXpXpXpX",
"pXpXpXpXpXpXpXpXpXpXpXpXpXpXpXpXpXpXpXpXpXpXpXpXpXpXpXpXpXpXpXpXpXpXpXpXpXpXpXpXpXpXpXpXpXpXpXpXpXpXpXpXpXpXpXpXpXpXpXpXpXpXpXpXpXpXpXpXpXpXpXpXpXpXpXpXpXpXpXpXpXpXpXpXpXpXpXpXpXpXpXpXpXpXpXpXpXpXpXpXpXpXpXpXpXpXpXpXpXpXpXpXpXpXpXpXpXpXD D D D D u u u u & & & & o o o o o o o o o         # # # # # # # # # # # # # $ $ $ $ $ $ $ $ $ $ $ $ $ % $ % % q q q q $ $ $ $ ; ; % ; ; ; ; % % % % % % 2 2 2 2 2 $ $ $ $ % % % % 1 1 1 1 ; ; ; ; 1 $ $ $ $ 7 7 7 5 e e e e e 5 5 5 5 0 0 q q E E E E Q Q E E E Y Y Y Y 0 7 7 7 1 1 1 1 1 % % % % 1 1 1 1 # # # # X X X X X # # # #                 X # + + + X X X X $ $ $ $ % % % % % X X X X X X X X pXpXpXpXpXpXpXpXpXpXpXpXpXpXpXpXpXpXpXpXpXpXpXpXpXpXpXpXpXpXpXpXpXpXpXpXpXpXpXpXpXpXpXpXpXpXpXpXpXpXpXpXpXpXpXpXpXpXpXpXpXpXpXpXpXpXpXpXpXpXpXpXpXpXpXpXpXpXpXpX",
"pXpXpXpXpXpXpXpXpXpXpXpXpXpXpXpXpXpXpXpXpXpXpXpXpXpXpXpXpXpXpXpXpXpXpXpXpXpXpXpXpXpXpXpXpXpXpXpXpXpXpXpXpXpXpXpXpXpXpXpXpXpXpXpXpXpXpXpXpXpXpXpXpXpXpXpXpXpXpXpXpXpXpXpXpXpXpXpXpXpXpXpXpXpXpXpXpXpXpXpXpXpXpXpXpXpXpXpXpXpXpXpXpXpXpXpXpXpXD D D D D u u u u & & & & o o o o o o o o o         # # # # # # # # # # # # # $ $ $ $ $ $ $ $ $ $ $ $ $ $ $ $ $ q q q q $ $ $ $ ; ; % % 1 1 ; ; % % 1 1 ; 2 2 2 2 2 $ $ $ $ % % % % 1 1 1 1 ; ; ; ; ; $ $ $ $ 7 7 7 5 e e e e e 5 5 5 5 q 0 q q E E E E E E E E E Y Y Y Y 0 7 7 0 1 1 1 1 1 1 1 % ; 1 1 2 2 # # # # X X X X X # # # #                 + + + X X X X X X $ $ $ $ % % % % % X X X X X X X X pXpXpXpXpXpXpXpXpXpXpXpXpXpXpXpXpXpXpXpXpXpXpXpXpXpXpXpXpXpXpXpXpXpXpXpXpXpXpXpXpXpXpXpXpXpXpXpXpXpXpXpXpXpXpXpXpXpXpXpXpXpXpXpXpXpXpXpXpXpXpXpXpXpXpXpXpXpXpXpX",
"pXpXpXpXpXpXpXpXpXpXpXpXpXpXpXpXpXpXpXpXpXpXpXpXpXpXpXpXpXpXpXpXpXpXpXpXpXpXpXpXpXpXpXpXpXpXpXpXpXpXpXpXpXpXpXpXpXpXpXpXpXpXpXpXpXpXpXpXpXpXpXpXpXpXpXpXpXpXpXpXpXpXpXpXpXpXpXpXpXpXpXpXpXpXpXpXpXpXpXpXpXpXpXpXpXpXpXpXpXpXpXpXpXpXpXpXpXpXD D D D D u u u u & & & & o o o o o o o o o         # # # # # # # # # # # # # $ $ $ $ $ $ $ $ $ $ $ $ $ $ $ $ $ q q q q $ $ $ $ ; ; % % 1 1 1 ; % % ; 1 1 2 2 2 2 2 $ $ $ $ % % % % 1 1 1 1 ; ; ; ; ; $ $ $ $ 7 7 7 5 e e e e e 5 5 5 5 q q q q E E E E Q E E E E Y Y Y Y 0 7 0 0 1 1 1 1 1 1 1 1 ; 2 2 2 2 # # # # X X X X X # # # #                 X + + X X X X X X $ $ $ $ % % % % % X X X X X X X X pXpXpXpXpXpXpXpXpXpXpXpXpXpXpXpXpXpXpXpXpXpXpXpXpXpXpXpXpXpXpXpXpXpXpXpXpXpXpXpXpXpXpXpXpXpXpXpXpXpXpXpXpXpXpXpXpXpXpXpXpXpXpXpXpXpXpXpXpXpXpXpXpXpXpXpXpXpXpXpX",
"pXpXpXpXpXpXpXpXpXpXpXpXpXpXpXpXpXpXpXpXpXpXpXpXpXpXpXpXpXpXpXpXpXpXpXpXpXpXpXpXpXpXpXpXpXpXpXpXpXpXpXpXpXpXpXpXpXpXpXpXpXpXpXpXpXpXpXpXpXpXpXpXpXpXpXpXpXpXpXpXpXpXpXpXpXpXpXpXpXpXpXpXpXpXpXpXpXpXpXpXpXpXpXpXpXpXpXpXpXpXpXpXpXpXaXaXaXaXD D D D D u u u u = = = = = = = = * * * * * o o o o # # # # *.*.*.*.*.e e e e # # # # $ $ $ $ $ $ $ # # 1 1 1 1 1 1 1 1 $ $ $ $ # # # # $ 2 2 2 2 $ $ $ $ % % % % % 1 1 1 1 % % ; 1 % % % % $ $ $ $ $ 1 1 1 1 5 5 5 5 1 1 ; % % 1 1 1 1 e e e e 5 5 5 5 5 5 5 5 5 q e e q 7 7 7 0 Y Y Y Y Y 5 5 5 5 Y Y Y Y 1 1 1 1 # # # # # + + + # X X X X         # # # # # # # # # X X X X X X X X X # X X X                 pXpXpXpXpXpXpXpXpXpXpXpXpXpXpXpXpXpXpXpXpXpXpXpXpXpXpXpXpXpXpXpXpXpXpXpXpXpXpXpXpXpXpXpXpXpXpXpXpXpXpXpXpXpXpXpXpXpXpXpXpXpXpXpXpXpXpXpXpXpXpXpXpXpXpXpX",
"pXpXpXpXpXpXpXpXpXpXpXpXpXpXpXpXpXpXpXpXpXpXpXpXpXpXpXpXpXpXpXpXpXpXpXpXpXpXpXpXpXpXpXpXpXpXpXpXpXpXpXpXpXpXpXpXpXpXpXpXpXpXpXpXpXpXpXpXpXpXpXpXpXpXpXpXpXpXpXpXpXpXpXpXpXpXpXpXpXpXpXpXpXpXpXpXpXpXpXpXpXpXpXpXpXpXpXpXpXpXpXpXpXpXaXaXaXaXD D D D D u u u u = = = = = = = = * * * * * o o o o # # # # *.*.*.*.*.e e e e # # # # $ $ $ $ $ $ $ # # 1 1 1 1 1 1 1 1 $ $ $ $ # # # # $ 2 2 2 2 $ $ $ $ % % % % % 1 1 1 1 % % % % % % % % $ $ $ $ $ 1 1 1 1 5 5 5 5 1 1 1 % % 1 1 1 1 e e e e 5 5 5 5 5 5 5 5 5 q e e q 0 7 7 0 Y Y Y Y Y 5 5 5 5 Y v Y Y 1 1 1 1 # # # # # X # # # X X X X         # # # # # # # # # X X X X X X X X X # X X X                 pXpXpXpXpXpXpXpXpXpXpXpXpXpXpXpXpXpXpXpXpXpXpXpXpXpXpXpXpXpXpXpXpXpXpXpXpXpXpXpXpXpXpXpXpXpXpXpXpXpXpXpXpXpXpXpXpXpXpXpXpXpXpXpXpXpXpXpXpXpXpXpXpXpXpXpX",
"pXpXpXpXpXpXpXpXpXpXpXpXpXpXpXpXpXpXpXpXpXpXpXpXpXpXpXpXpXpXpXpXpXpXpXpXpXpXpXpXpXpXpXpXpXpXpXpXpXpXpXpXpXpXpXpXpXpXpXpXpXpXpXpXpXpXpXpXpXpXpXpXpXpXpXpXpXpXpXpXpXpXpXpXpXpXpXpXpXpXpXpXpXpXpXpXpXpXpXpXpXpXpXpXpXpXpXpXpXpXpXpXpXpXaXaXaXaXD D D D D u u u u = = = = = = = = * * * * * o o o o # # # # *.*.*.*.*.e e e e # # # # $ $ $ # $ # # # # 1 1 1 1 1 1 1 1 $ $ $ $ $ $ $ $ $ 2 2 2 2 % $ $ $ % % % % % 1 1 1 1 % % % % % % % % $ $ $ $ $ 1 1 1 1 5 5 5 5 1 % % % % 1 1 1 1 e e e e 5 5 5 5 5 5 5 5 5 q e e e 0 7 7 7 Y Y Y Y Y 5 5 5 5 e v e e 1 ; 1 1 # # # # # # # # # X X X X         # # # # # # # # # X X X X X X X X X # # # X                 pXpXpXpXpXpXpXpXpXpXpXpXpXpXpXpXpXpXpXpXpXpXpXpXpXpXpXpXpXpXpXpXpXpXpXpXpXpXpXpXpXpXpXpXpXpXpXpXpXpXpXpXpXpXpXpXpXpXpXpXpXpXpXpXpXpXpXpXpXpXpXpXpXpXpXpX",
"pXpXpXpXpXpXpXpXpXpXpXpXpXpXpXpXpXpXpXpXpXpXpXpXpXpXpXpXpXpXpXpXpXpXpXpXpXpXpXpXpXpXpXpXpXpXpXpXpXpXpXpXpXpXpXpXpXpXpXpXpXpXpXpXpXpXpXpXpXpXpXpXpXpXpXpXpXpXpXpXpXpXpXpXpXpXpXpXpXpXpXpXpXpXpXpXpXpXpXpXpXpXpXpXpXpXpXpXpXpXpXpXpXpXaXaXaXaXD D D D D u u u u = = = = = = = = * * * * * o o o o # # # # *.*.*.*.*.e e e e # # # # $ $ $ # # # # # # 1 1 1 1 1 1 1 1 $ $ $ $ $ $ $ $ $ 2 2 2 2 % $ $ $ % % % % % 1 1 1 1 % % % % % % % % $ $ $ $ $ 1 1 1 1 5 5 5 5 % % % % % 1 1 1 1 e e e e 5 5 5 5 5 5 5 5 5 q q e q 0 7 7 7 Y Y Y Y Y 5 5 5 5 e e e e % % 1 1 # # # # # # # # # X X X X         # # # # # # # # # X X X X X X X X X # # # X                 pXpXpXpXpXpXpXpXpXpXpXpXpXpXpXpXpXpXpXpXpXpXpXpXpXpXpXpXpXpXpXpXpXpXpXpXpXpXpXpXpXpXpXpXpXpXpXpXpXpXpXpXpXpXpXpXpXpXpXpXpXpXpXpXpXpXpXpXpXpXpXpXpXpXpXpX",
"pXpXpXpXpXpXpXpXpXpXpXpXpXpXpXpXpXpXpXpXpXpXpXpXpXpXpXpXpXpXpXpXpXpXpXpXpXpXpXpXpXpXpXpXpXpXpXpXpXpXpXpXpXpXpXpXpXpXpXpXpXpXpXpXpXpXpXpXpXpXpXpXpXpXpXpXpXpXpXpXpXpXpXpXpXpXpXpXpXpXpXpXpXpXpXpXpXpXpXpXpXpXpXpXpXpXpXpXpXpXpXpXpXpXpXpXpXpXD D D D D A A A A A A A A i i i i = = = = = o o o o         $ $ $ # # bXbXbXbX# # # # # # # # # # # $ $ $ $ $ $ $ $ $ $ $ $ $ $ $ $ $ $ $ $ $ $ % % % % % % ; ; ; ; $ $ $ $ ; ; ; ; % % % % 1 1 1 1 1 1 1 1 1 % % % % 2 2 2 2 2 2 2 2 2 5 5 5 5 0 0 0 0 0 0 0 0 0 5 5 5 5 E E E E e e e e e / / / / 0 0 0 0 1 1 1 1 1 1 1 1 1 # # # # # # # #         X X X X X                 X X X X X X X X X X X X X         pXpXpXpXpXpXpXpXpXpXpXpXpXpXpXpXpXpXpXpXpXpXpXpXpXpXpXpXpXpXpXpXpXpXpXpXpXpXpXpXpXpXpXpXpXpXpXpXpXpXpXpXpXpXpXpXpXpXpXpXpXpXpXpXpXpXpXpXpXpXpXpXpXpXpXpX",
"pXpXpXpXpXpXpXpXpXpXpXpXpXpXpXpXpXpXpXpXpXpXpXpXpXpXpXpXpXpXpXpXpXpXpXpXpXpXpXpXpXpXpXpXpXpXpXpXpXpXpXpXpXpXpXpXpXpXpXpXpXpXpXpXpXpXpXpXpXpXpXpXpXpXpXpXpXpXpXpXpXpXpXpXpXpXpXpXpXpXpXpXpXpXpXpXpXpXpXpXpXpXpXpXpXpXpXpXpXpXpXpXpXpXpXpXpXpXD D D D D A A A A A A A A i i i i = = = = = o o o o         $ $ $ # # bXbXbXbX# # # # # # # # # # # $ $ $ $ $ $ $ $ $ $ $ $ $ $ $ $ $ $ $ $ $ $ % % % % % ; ; ; ; % $ $ $ $ ; ; ; ; % % % % 1 1 1 1 1 1 1 1 1 % % % % 2 2 2 2 2 2 2 2 2 5 5 5 5 0 0 0 0 0 0 0 0 0 5 5 5 5 E E E E e e e e e / / / / 0 0 0 0 1 1 1 1 1 1 1 1 1 # # # # # # # #         X X X X X                 X X X X X X X X X X X X X         pXpXpXpXpXpXpXpXpXpXpXpXpXpXpXpXpXpXpXpXpXpXpXpXpXpXpXpXpXpXpXpXpXpXpXpXpXpXpXpXpXpXpXpXpXpXpXpXpXpXpXpXpXpXpXpXpXpXpXpXpXpXpXpXpXpXpXpXpXpXpXpXpXpXpXpX",
"pXpXpXpXpXpXpXpXpXpXpXpXpXpXpXpXpXpXpXpXpXpXpXpXpXpXpXpXpXpXpXpXpXpXpXpXpXpXpXpXpXpXpXpXpXpXpXpXpXpXpXpXpXpXpXpXpXpXpXpXpXpXpXpXpXpXpXpXpXpXpXpXpXpXpXpXpXpXpXpXpXpXpXpXpXpXpXpXpXpXpXpXpXpXpXpXpXpXpXpXpXpXpXpXpXpXpXpXpXpXpXpXpXpXpXpXpXpXD D D D D A A A A A A A A i i i i = = = = = o o o o         $ $ # # # bXbXbXbX# # # # # # # # $ # # $ $ $ $ $ $ $ $ $ % $ $ $ $ $ $ $ $ $ % $ $ $ % % % % ; ; ; ; ; $ $ $ $ ; % ; ; % % % % 1 1 1 1 1 1 1 1 1 % % % % 2 2 2 2 2 2 2 2 2 5 5 5 5 0 0 0 0 0 0 0 0 0 5 5 5 5 E E E E e e e e e ^ ^ ^ / 0 0 0 0 1 1 1 1 1 1 1 1 1 # # # # # # # #         X X X X X                 X X X X X X X X X X X X X         pXpXpXpXpXpXpXpXpXpXpXpXpXpXpXpXpXpXpXpXpXpXpXpXpXpXpXpXpXpXpXpXpXpXpXpXpXpXpXpXpXpXpXpXpXpXpXpXpXpXpXpXpXpXpXpXpXpXpXpXpXpXpXpXpXpXpXpXpXpXpXpXpXpXpXpX",
"pXpXpXpXpXpXpXpXpXpXpXpXpXpXpXpXpXpXpXpXpXpXpXpXpXpXpXpXpXpXpXpXpXpXpXpXpXpXpXpXpXpXpXpXpXpXpXpXpXpXpXpXpXpXpXpXpXpXpXpXpXpXpXpXpXpXpXpXpXpXpXpXpXpXpXpXpXpXpXpXpXpXpXpXpXpXpXpXpXpXpXpXpXpXpXpXpXpXpXpXpXpXpXpXpXpXpXpXpXpXpXpXpXpXpXpXpXpXD D D D D A A A A A A A A i i i i = = = = = o o o o         $ $ # # # bXbXbXbX# # # # # # # # # # # $ $ $ $ $ $ $ $ $ $ $ $ $ $ $ $ $ $ $ % $ $ $ % % % % ; ; ; % ; $ $ $ $ ; ; ; ; % % % % 1 1 1 1 1 1 1 1 1 % % % % 2 2 2 2 2 2 2 2 2 5 5 5 5 0 0 7 7 0 0 0 0 0 5 5 5 5 E E E E e e e e e ^ ^ ^ / 0 0 0 0 1 1 1 1 1 1 1 1 1 # # # # # # # #         X X X X X                 X X X X X X X X X X X X X         pXpXpXpXpXpXpXpXpXpXpXpXpXpXpXpXpXpXpXpXpXpXpXpXpXpXpXpXpXpXpXpXpXpXpXpXpXpXpXpXpXpXpXpXpXpXpXpXpXpXpXpXpXpXpXpXpXpXpXpXpXpXpXpXpXpXpXpXpXpXpXpXpXpXpXpX",
"pXpXpXpXpXpXpXpXpXpXpXpXpXpXpXpXpXpXpXpXpXpXpXpXpXpXpXpXpXpXpXpXpXpXpXpXpXpXpXpXpXpXpXpXpXpXpXpXpXpXpXpXpXpXpXpXpXpXpXpXpXpXpXpXpXpXpXpXpXpXpXpXpXpXpXpXpXpXpXpXpXpXpXpXpXpXpXpXpXpXpXpXpXpXpXpXpXpXpXpXpXpXpXpXpXpXpXpXpXpXpXpXpXpXpXpXpXpXD D D D D A A A A A A A A i i i i = = = = = o o o o         # # # # # bXbXbXbX# # # # # # # # $ $ $ $ $ $ $ $ $ $ $ $ $ $ $ $ $ $ $ $ $ $ $ $ $ $ % % % % ; ; ; ; ; $ $ $ $ ; ; ; ; % % % % 1 1 1 1 1 1 1 1 1 % % % % 2 2 2 2 2 2 2 2 2 5 5 5 5 0 0 7 0 0 0 0 0 0 5 5 5 5 E E E E e e e e e / / ^ / 0 0 0 0 1 1 1 1 1 1 1 1 1 # # # # # # # #         X X X X X                 X X X X X X X X X X X X X         pXpXpXpXpXpXpXpXpXpXpXpXpXpXpXpXpXpXpXpXpXpXpXpXpXpXpXpXpXpXpXpXpXpXpXpXpXpXpXpXpXpXpXpXpXpXpXpXpXpXpXpXpXpXpXpXpXpXpXpXpXpXpXpXpXpXpXpXpXpXpXpXpXpXpXpX",
"pXpXpXpXpXpXpXpXpXpXpXpXpXpXpXpXpXpXpXpXpXpXpXpXpXpXpXpXpXpXpXpXpXpXpXpXpXpXpXpXpXpXpXpXpXpXpXpXpXpXpXpXpXpXpXpXpXpXpXpXpXpXpXpXpXpXpXpXpXpXpXpXpXpXpXpXpXpXpXpXpXpXpXpXpXpXpXpXpXpXpXpXpXpXpXpXpXpXpXpXpXpXpXpXpXpXpXpXpXpXpXpXpXpXpXpXpXpXc.c.c.c.c.D.D.D.D.S.S.S.S.i i i i r r r r r o o o o         O O O O O bXbXbXbX5 5 5 5 # # # # # # # # # $ $ $ $ $ $ $ $ $ $ $ $ $ $ $ $ $ $ $ $ $ ; ; ; ; $ $ % $ $ $ $ $ $ % $ % % $ $ $ $ ; ; ; ; ; 5 5 5 5 $ $ $ $ 1 1 1 1 1 0 0 0 0 2 2 2 2 % % % % 1 1 1 1 1 q q q q q q q q _ ( ( ( ( E E E E hXhXhXhXq q q q 5 5 5 5 5 1 1 1 1 # # # # X X X X           X X X X X X X X $ $ $ $ $ X X X X # # # #         2 2 2 1 2 pXpXpXpXpXpXpXpXpXpXpXpXpXpXpXpXpXpXpXpXpXpXpXpXpXpXpXpXpXpXpXpXpXpXpXpXpXpXpXpXpXpXpXpXpXpXpXpXpXpXpXpXpXpXpXpXpXpXpXpXpXpXpXpXpXpXpXpXpXpXpX",
"pXpXpXpXpXpXpXpXpXpXpXpXpXpXpXpXpXpXpXpXpXpXpXpXpXpXpXpXpXpXpXpXpXpXpXpXpXpXpXpXpXpXpXpXpXpXpXpXpXpXpXpXpXpXpXpXpXpXpXpXpXpXpXpXpXpXpXpXpXpXpXpXpXpXpXpXpXpXpXpXpXpXpXpXpXpXpXpXpXpXpXpXpXpXpXpXpXpXpXpXpXpXpXpXpXpXpXpXpXpXpXpXpXpXpXpXpXpXc.c.c.c.c.D.D.D.D.S.S.S.S.i i i i r r r r r o o o o         O O O O O bXbXbXbX5 5 5 5 # # # # # # # # # $ $ $ $ $ $ $ $ $ $ $ $ $ $ $ $ $ $ $ $ $ ; ; ; ; $ % % % % $ $ $ $ $ $ $ $ $ $ $ $ ; ; ; ; ; 5 5 5 5 $ $ $ $ 1 1 1 1 1 0 0 0 0 2 2 2 2 % % % % 1 1 1 1 1 q q q q q q q q _ ( ( ( ( E E E E hXhXhXhXq q q q 5 5 5 5 5 1 1 1 1 # # # # # # X X           X X X X X X X X $ $ $ $ $ X X X X # # # #         2 2 2 2 2 pXpXpXpXpXpXpXpXpXpXpXpXpXpXpXpXpXpXpXpXpXpXpXpXpXpXpXpXpXpXpXpXpXpXpXpXpXpXpXpXpXpXpXpXpXpXpXpXpXpXpXpXpXpXpXpXpXpXpXpXpXpXpXpXpXpXpXpXpXpXpX",
"pXpXpXpXpXpXpXpXpXpXpXpXpXpXpXpXpXpXpXpXpXpXpXpXpXpXpXpXpXpXpXpXpXpXpXpXpXpXpXpXpXpXpXpXpXpXpXpXpXpXpXpXpXpXpXpXpXpXpXpXpXpXpXpXpXpXpXpXpXpXpXpXpXpXpXpXpXpXpXpXpXpXpXpXpXpXpXpXpXpXpXpXpXpXpXpXpXpXpXpXpXpXpXpXpXpXpXpXpXpXpXpXpXpXpXpXpXpXc.c.c.c.c.D.D.D.D.S.S.S.S.i i i i r r r r r o o o o         O O O O + bXbXbXbX5 5 5 5 # # # # # # # # # $ $ $ $ $ $ $ $ $ $ $ $ $ $ $ $ $ $ $ $ $ ; ; ; ; $ % % $ $ $ $ $ $ $ $ $ $ $ $ $ $ ; ; ; ; % 5 5 5 5 $ $ $ $ 1 1 1 1 1 0 0 0 0 2 2 2 2 % % % % 1 1 1 1 1 q q q q q q q q _ ( ( ( ( E E E E hXhXhXhXq q q q 5 5 5 5 5 1 1 1 1 # # # # # + + X           X X X X X X X X $ $ $ $ $ X X X X # # # #         2 2 2 2 2 pXpXpXpXpXpXpXpXpXpXpXpXpXpXpXpXpXpXpXpXpXpXpXpXpXpXpXpXpXpXpXpXpXpXpXpXpXpXpXpXpXpXpXpXpXpXpXpXpXpXpXpXpXpXpXpXpXpXpXpXpXpXpXpXpXpXpXpXpXpXpX",
"pXpXpXpXpXpXpXpXpXpXpXpXpXpXpXpXpXpXpXpXpXpXpXpXpXpXpXpXpXpXpXpXpXpXpXpXpXpXpXpXpXpXpXpXpXpXpXpXpXpXpXpXpXpXpXpXpXpXpXpXpXpXpXpXpXpXpXpXpXpXpXpXpXpXpXpXpXpXpXpXpXpXpXpXpXpXpXpXpXpXpXpXpXpXpXpXpXpXpXpXpXpXpXpXpXpXpXpXpXpXpXpXpXpXpXpXpXpXc.c.c.c.c.D.D.D.D.S.S.S.S.i i i i r r r r r o o o o         O O O O + bXbXbXbX5 5 5 5 # # # # # # # # # # # $ $ $ $ $ $ $ $ $ $ $ $ $ $ $ $ $ $ $ ; ; ; ; $ $ $ $ $ $ $ $ $ $ $ $ $ $ $ $ $ % % % % % 5 5 5 5 $ $ $ $ 1 1 2 2 2 0 0 0 0 2 2 2 2 % % % % 1 1 1 1 1 q q q q q q q q _ ( ( ( ( E E E E hXhXhXhXq q q q 5 5 5 5 5 1 1 1 1 # # # # # # # #           X X X X X X X X $ $ $ $ $ X X X X # # # #         2 2 2 2 2 pXpXpXpXpXpXpXpXpXpXpXpXpXpXpXpXpXpXpXpXpXpXpXpXpXpXpXpXpXpXpXpXpXpXpXpXpXpXpXpXpXpXpXpXpXpXpXpXpXpXpXpXpXpXpXpXpXpXpXpXpXpXpXpXpXpXpXpXpXpXpX",
"pXpXpXpXpXpXpXpXpXpXpXpXpXpXpXpXpXpXpXpXpXpXpXpXpXpXpXpXpXpXpXpXpXpXpXpXpXpXpXpXpXpXpXpXpXpXpXpXpXpXpXpXpXpXpXpXpXpXpXpXpXpXpXpXpXpXpXpXpXpXpXpXpXpXpXpXpXpXpXpXpXpXpXpXpXpXpXpXpXpXpXpXpXpXpXpXpXpXpXpXpXpXpXpXpXpXpXpXpXpXpXpXpXpXpXpXwXpXS.S.S.S.S.D.D.D.D.g.g.g.g.i i i i r r r r r & & & &                   kXkXkXhX*.*.*.*.# # # # # # # # # # # # # $ $ $ $ # # # # $ $ $ $ $ $ $ $ $ $ $ $ $ $ $ $ $ $ 1 1 1 1 $ $ $ $ $ $ $ $ $ $ $ $ $ $ $ $ $ % % % % % % % % % % % % % q e q q 1 1 1 1 2 2 2 2 2 2 2 2 2 q q q q 0 0 0 0 0 *.*.*.*.( ( ( ( 0 0 0 0 E E E E E 1 1 1 1 % % % % X X X X   .   X                   . X X   X         # # # # # # # $ 1 1 1 1 1 eXeXeXeXpXpXpXpXpXpXpXpXpXpXpXpXpXpXpXpXpXpXpXpXpXpXpXpXpXpXpXpXpXpXpXpXpXpXpXpXpXpXpXpXpXpXpXpXpXpXpXpXpXpXpXpXpXpXpXpXpXpXpXpXpXpXpXpXpXpXpX",
"pXpXpXpXpXpXpXpXpXpXpXpXpXpXpXpXpXpXpXpXpXpXpXpXpXpXpXpXpXpXpXpXpXpXpXpXpXpXpXpXpXpXpXpXpXpXpXpXpXpXpXpXpXpXpXpXpXpXpXpXpXpXpXpXpXpXpXpXpXpXpXpXpXpXpXpXpXpXpXpXpXpXpXpXpXpXpXpXpXpXpXpXpXpXpXpXpXpXpXpXpXpXpXpXpXpXpXpXpXpXpXpXpXpXwXwXwXwXS.S.S.S.S.D.D.D.D.g.g.g.g.i i i i r r r r r & & & &                   kXhXhXhX*.*.*.*.# # # # # # # # # # # # # $ $ $ $ # # # # $ $ % % $ $ $ $ $ $ $ $ $ $ $ $ $ $ 1 1 1 1 $ $ $ $ $ $ $ $ $ $ $ $ $ $ $ $ $ % % % % % % % % % ; % % % e e q q 1 1 1 1 2 2 2 2 2 2 2 2 2 q q q q 0 0 0 0 0 *.*.*.*.( ( ( ( 0 0 0 0 E E E E E 1 1 1 1 % % % % X X X X X                                           # # # # # # # $ 1 1 ; 1 1 eXeXeXeXpXpXpXpXpXpXpXpXpXpXpXpXpXpXpXpXpXpXpXpXpXpXpXpXpXpXpXpXpXpXpXpXpXpXpXpXpXpXpXpXpXpXpXpXpXpXpXpXpXpXpXpXpXpXpXpXpXpXpXpXpXpXpXpXpXpXpX",
"pXpXpXpXpXpXpXpXpXpXpXpXpXpXpXpXpXpXpXpXpXpXpXpXpXpXpXpXpXpXpXpXpXpXpXpXpXpXpXpXpXpXpXpXpXpXpXpXpXpXpXpXpXpXpXpXpXpXpXpXpXpXpXpXpXpXpXpXpXpXpXpXpXpXpXpXpXpXpXpXpXpXpXpXpXpXpXpXpXpXpXpXpXpXpXpXpXpXpXpXpXpXpXpXpXpXpXpXpXpXpXpXpXpXwXwXwXwXS.S.S.S.S.D.D.D.D.g.g.g.g.i i i i r r r r r & & & &                   hXhXhXhX*.*.*.*.# # # # # # # # # # # # # $ $ $ $ # # # # $ $ % % $ $ $ $ $ $ $ $ $ $ % $ $ $ 1 1 1 1 $ $ $ $ $ $ $ $ $ $ $ $ $ $ $ $ $ % % % % % % % % % ; % % % e e e q 1 1 1 1 2 2 2 2 2 2 2 2 2 q q q q 0 0 0 0 0 *.*.*.*.( ( ( ( 0 0 0 0 E E E E E 1 1 1 1 % % % % X X X X X                                           # # # # # # # $ 1 % % 1 1 eXeXeXeXpXpXpXpXpXpXpXpXpXpXpXpXpXpXpXpXpXpXpXpXpXpXpXpXpXpXpXpXpXpXpXpXpXpXpXpXpXpXpXpXpXpXpXpXpXpXpXpXpXpXpXpXpXpXpXpXpXpXpXpXpXpXpXpXpXpXpX",
"pXpXpXpXpXpXpXpXpXpXpXpXpXpXpXpXpXpXpXpXpXpXpXpXpXpXpXpXpXpXpXpXpXpXpXpXpXpXpXpXpXpXpXpXpXpXpXpXpXpXpXpXpXpXpXpXpXpXpXpXpXpXpXpXpXpXpXpXpXpXpXpXpXpXpXpXpXpXpXpXpXpXpXpXpXpXpXpXpXpXpXpXpXpXpXpXpXpXpXpXpXpXpXpXpXpXpXpXpXpXpXpXpXpXpXpXpXpXS.S.S.S.S.D.D.D.D.g.g.g.g.i i i i r r r r r & & & &                   hXhXhXhX*.*.*.*.# # # # # # # # # # # # # $ $ $ $ # # # # $ $ $ $ $ $ $ $ $ $ $ $ $ $ % % % % 1 1 1 1 $ $ % % % $ $ $ $ $ $ $ $ $ $ $ $ % % % % % % % % % ; % % % e e q q 1 1 1 1 2 2 2 2 2 2 2 2 2 q e e e 0 0 0 0 0 *.*.*.*.( ( ( ( 0 0 0 0 E E E E E 1 1 1 1 % % % % X X X X                           X X .             # # # # $ $ $ # 1 % % % % eXeXeXeXpXpXpXpXpXpXpXpXpXpXpXpXpXpXpXpXpXpXpXpXpXpXpXpXpXpXpXpXpXpXpXpXpXpXpXpXpXpXpXpXpXpXpXpXpXpXpXpXpXpXpXpXpXpXpXpXpXpXpXpXpXpXpXpXpXpXpX",
"pXpXpXpXpXpXpXpXpXpXpXpXpXpXpXpXpXpXpXpXpXpXpXpXpXpXpXpXpXpXpXpXpXpXpXpXpXpXpXpXpXpXpXpXpXpXpXpXpXpXpXpXpXpXpXpXpXpXpXpXpXpXpXpXpXpXpXpXpXpXpXpXpXpXpXpXpXpXpXpXpXpXpXpXpXpXpXpXpXpXpXpXpXpXpXpXpXpXpXpXpXpXpXpXpXpXpXpXpXpXpXpXpXpXpXpXpXpXpXpXqXpXpX) ) ) ) A A A A a a a a r r r r r & & & &                   sXsXsXsXsXsXsXsX# X + + # # # # # # # # # # # $ $ $ $ $ # $ $ $ $ $ $ $ $ $ $ $ $ $ $ % % $ $ ; ; % % $ $ $ $ % % $ $ 1 1 1 1 1 # # $ $ 1 1 1 1 5 5 5 5 5 % % % % 2 2 2 2 1 1 ; 1 5 5 5 5 2 2 2 1 2 0 q q q e e e e e ( ( ( ( E E E E q q q q 2 2 2 2 2 5 5 5 5 % % % % # # # # X X X X X                 X X X X X X X X X # # # # # # # # % $ $ % %         pXpXpXpXpXpXpXpXpXpXpXpXpXpXpXpXpXpXpXpXpXpXpXpXpXpXpXpXpXpXpXpXpXpXpXpXpXpXpXpXpXpXpXpXpXpXpXpXpXpXpXpXpXpXpXpXpXpXpXpXpXpXpXpXpXpXpX",
"pXpXpXpXpXpXpXpXpXpXpXpXpXpXpXpXpXpXpXpXpXpXpXpXpXpXpXpXpXpXpXpXpXpXpXpXpXpXpXpXpXpXpXpXpXpXpXpXpXpXpXpXpXpXpXpXpXpXpXpXpXpXpXpXpXpXpXpXpXpXpXpXpXpXpXpXpXpXpXpXpXpXpXpXpXpXpXpXpXpXpXpXpXpXpXpXpXpXpXpXpXpXpXpXpXpXpXpXpXpXpXpXpXpXpXpXpXpXpXpXqXqXpX) ) ) ) A A A A a a a a r r r r r & & & &                   sXsXsXsXsXsXsXsX# # + + # # # # # # # # X # # $ $ $ $ $ $ $ $ $ $ $ $ $ $ $ $ $ $ $ $ $ $ $ $ ; ; ; ; $ $ $ $ $ $ $ $ 1 1 1 1 1 $ $ $ $ 1 1 1 1 5 5 5 5 5 % % % % 2 2 2 2 1 1 ; ; 5 5 5 5 2 2 1 1 2 0 q q 0 e e e e e ( ( ( ( E E E E q q q q 2 2 2 2 2 5 5 5 5 % % % % # # # # X X X X X                 X X X X X # X X X # # # # # # # # % % % % %         pXpXpXpXpXpXpXpXpXpXpXpXpXpXpXpXpXpXpXpXpXpXpXpXpXpXpXpXpXpXpXpXpXpXpXpXpXpXpXpXpXpXpXpXpXpXpXpXpXpXpXpXpXpXpXpXpXpXpXpXpXpXpXpXpXpXpX",
"pXpXpXpXpXpXpXpXpXpXpXpXpXpXpXpXpXpXpXpXpXpXpXpXpXpXpXpXpXpXpXpXpXpXpXpXpXpXpXpXpXpXpXpXpXpXpXpXpXpXpXpXpXpXpXpXpXpXpXpXpXpXpXpXpXpXpXpXpXpXpXpXpXpXpXpXpXpXpXpXpXpXpXpXpXpXpXpXpXpXpXpXpXpXpXpXpXpXpXpXpXpXpXpXpXpXpXpXpXpXpXpXpXpXpXpXpXpXpXpXpXpXpX) ) ) ) A A A A a a a a r r r r r & & & &                   sXsXsXsXsXsXsXsX# # + + # # # # # # # + X # # $ $ $ $ $ $ $ $ $ $ $ $ $ $ $ $ $ $ $ $ $ $ $ $ ; ; ; ; $ $ $ $ $ $ $ $ 1 1 1 1 1 $ $ $ $ 1 1 1 1 5 5 5 5 5 % % % % 5 2 2 2 1 1 1 1 5 5 5 5 5 2 2 2 2 0 q q 0 e e e e e ( ( ( ( E E E E q q q q 2 2 2 2 2 5 5 5 5 % % % % # # # # X X X X X                 X X X X X + X X X # # # # # # # # % % % % %         pXpXpXpXpXpXpXpXpXpXpXpXpXpXpXpXpXpXpXpXpXpXpXpXpXpXpXpXpXpXpXpXpXpXpXpXpXpXpXpXpXpXpXpXpXpXpXpXpXpXpXpXpXpXpXpXpXpXpXpXpXpXpXpXpXpXpX",
"pXpXpXpXpXpXpXpXpXpXpXpXpXpXpXpXpXpXpXpXpXpXpXpXpXpXpXpXpXpXpXpXpXpXpXpXpXpXpXpXpXpXpXpXpXpXpXpXpXpXpXpXpXpXpXpXpXpXpXpXpXpXpXpXpXpXpXpXpXpXpXpXpXpXpXpXpXpXpXpXpXpXpXpXpXpXpXpXpXpXpXpXpXpXpXpXpXpXpXpXpXpXpXpXpXpXpXpXpXpXpXpXpXpXpXpXpXpXpXpXpXpXpX) ) ) ) A A A A a a a a r r r r r & & & &                   sXsXsXsXsXsXsXsX# # # # # # # # # # # # # # # $ $ $ $ # # $ $ $ $ $ $ $ $ $ $ $ $ $ $ $ $ $ $ ; ; ; ; $ $ $ $ $ $ $ $ 1 1 1 1 1 # $ $ # 1 1 1 1 5 5 5 5 5 % % % % 2 2 2 2 1 1 1 1 5 5 5 5 5 2 2 2 2 0 0 0 0 e e e e e ( ( ( ( E E E E q q q q 2 2 2 2 2 5 5 5 5 % % % % # # # # X X X X X                 X X X X X X X # # # # # # # # # # % % % % %         pXpXpXpXpXpXpXpXpXpXpXpXpXpXpXpXpXpXpXpXpXpXpXpXpXpXpXpXpXpXpXpXpXpXpXpXpXpXpXpXpXpXpXpXpXpXpXpXpXpXpXpXpXpXpXpXpXpXpXpXpXpXpXpXpXpXpX",
"pXpXpXpXpXpXpXpXpXpXpXpXpXpXpXpXpXpXpXpXpXpXpXpXpXpXpXpXpXpXpXpXpXpXpXpXpXpXpXpXpXpXpXpXpXpXpXpXpXpXpXpXpXpXpXpXpXpXpXpXpXpXpXpXpXpXpXpXpXpXpXpXpXpXpXpXpXpXpXpXpXpXpXpXpXpXpXpXpXpXpXpXpXpXpXpXpXpXpXpXpXpXpXpXpXpXpXpXpXpXpXpXpXpXpXpXpXpXpXpXpXpXpX) ) ) ) A A A A a a a a r r r r r & & & &                   sXsXsXsXsXsXsXsX# # # # # # # # # # # # X # # # $ $ $ # # $ $ $ $ $ $ $ $ $ $ $ $ $ $ $ $ $ $ ; ; ; ; $ $ $ $ $ $ $ $ 1 1 1 1 1 # $ $ # 1 1 1 1 5 5 5 5 5 % % % % 2 2 2 2 1 1 1 1 5 5 5 5 5 2 2 2 1 0 0 0 0 e e e e e ( ( ( ( E E E E q q q q 2 2 2 2 2 5 5 5 5 % % % % # # # # X X X X X                 X X X X X X X # # # # # # # # # # % % % % %         pXpXpXpXpXpXpXpXpXpXpXpXpXpXpXpXpXpXpXpXpXpXpXpXpXpXpXpXpXpXpXpXpXpXpXpXpXpXpXpXpXpXpXpXpXpXpXpXpXpXpXpXpXpXpXpXpXpXpXpXpXpXpXpXpXpXpX",
"pXpXpXpXpXpXpXpXpXpXpXpXpXpXpXpXpXpXpXpXpXpXpXpXpXpXpXpXpXpXpXpXpXpXpXpXpXpXpXpXpXpXpXpXpXpXpXpXpXpXpXpXpXpXpXpXpXpXpXpXpXpXpXpXpXpXpXpXpXpXpXpXpXpXpXpXpXpXpXpXpXpXpXpXpXpXpXpXpXpXpXpXpXpXpXpXpXpXpXpXpXpXpXpXpXpXpXpXpXpXpXpXpXpXpXpXpXpXpXpXpXpXpXpXpXpXpXpXpXpXpXA A A A u u u u u & & & &                   dXdXdXdXhXhXhXhX# # # # X # # X X # # # # # # # # # # # # 1 1 1 1 1 $ $ $ $ $ $ $ $ $ $ $ $ $ $ $ $ $ $ $ $ $ # # # # % % % % % 5 5 5 7 1 1 1 1 1 1 1 1 1 1 1 1 1 % % % % ; ; ; ; 2 2 2 2 2 0 0 0 7 5 5 5 5 %.%.%.%.%.e e e e q q q q 7 7 7 7 2 2 2 2 2 5 5 5 5 $ $ $ $ $ $ $ $ # # # # #                           X X X X X X X X X X X X                   qXqXqXqXpXpXpXpXpXpXpXpXpXpXpXpXpXpXpXpXpXpXpXpXpXpXpXpXpXpXpXpXpXpXpXpXpXpXpXpXpXpXpXpXpXpXpXpXpXpXpXpXpXpXpXpXpXpXpXpXpXpXpXpXpXpXpX",
"pXpXpXpXpXpXpXpXpXpXpXpXpXpXpXpXpXpXpXpXpXpXpXpXpXpXpXpXpXpXpXpXpXpXpXpXpXpXpXpXpXpXpXpXpXpXpXpXpXpXpXpXpXpXpXpXpXpXpXpXpXpXpXpXpXpXpXpXpXpXpXpXpXpXpXpXpXpXpXpXpXpXpXpXpXpXpXpXpXpXpXpXpXpXpXpXpXpXpXpXpXpXpXpXpXpXpXpXpXpXpXpXpXpXpXpXpXpXpXpXpXpXpXpXpXpXpXpXpXpXpXA A A A u u u u u & & & &                   dXdXdXdXhXhXhXhX# # # # X # # X X # # # # # # # # # # # # 1 1 1 1 1 $ $ $ $ $ $ $ $ $ $ $ $ $ $ $ $ $ $ $ $ $ # # # # % % % % % 5 5 5 7 1 1 1 1 1 1 1 1 1 1 1 1 1 % % % % % ; ; % 2 2 2 2 2 0 0 0 0 5 5 5 5 %.%.%.%.%.e e e e q q q q 7 7 7 7 2 2 2 2 2 5 5 5 5 $ $ $ $ $ $ $ $ # # # # #                           X X X X X X X X X X X X                   qXqXqXqXpXpXpXpXpXpXpXpXpXpXpXpXpXpXpXpXpXpXpXpXpXpXpXpXpXpXpXpXpXpXpXpXpXpXpXpXpXpXpXpXpXpXpXpXpXpXpXpXpXpXpXpXpXpXpXpXpXpXpXpXpXpXpX",
"pXpXpXpXpXpXpXpXpXpXpXpXpXpXpXpXpXpXpXpXpXpXpXpXpXpXpXpXpXpXpXpXpXpXpXpXpXpXpXpXpXpXpXpXpXpXpXpXpXpXpXpXpXpXpXpXpXpXpXpXpXpXpXpXpXpXpXpXpXpXpXpXpXpXpXpXpXpXpXpXpXpXpXpXpXpXpXpXpXpXpXpXpXpXpXpXpXpXpXpXpXpXpXpXpXpXpXpXpXpXpXpXpXpXpXpXpXpXpXpXpXpXpXpXpXpXpXpXpXpXpXA A A A u u u u u & & & &                   dXdXdXdXhXhXhXhX# # # # X + # X X + # # # # # # # # # # # 1 1 1 1 1 $ $ $ $ $ $ $ $ $ $ $ $ $ $ $ $ $ $ $ $ $ # # # # % % % % % 7 7 7 7 1 1 1 1 1 1 1 1 1 1 1 1 1 ; ; % % % % % % 2 2 2 2 2 0 0 0 0 5 5 5 5 %.%.%.%.%.e e e e q q q q 5 5 5 5 2 2 2 2 2 5 5 5 5 $ $ $ $ $ $ $ $ # # # # #                           X X X X X X X X X X X X   . .             qXqXqXqXpXpXpXpXpXpXpXpXpXpXpXpXpXpXpXpXpXpXpXpXpXpXpXpXpXpXpXpXpXpXpXpXpXpXpXpXpXpXpXpXpXpXpXpXpXpXpXpXpXpXpXpXpXpXpXpXpXpXpXpXpXpXpX",
"pXpXpXpXpXpXpXpXpXpXpXpXpXpXpXpXpXpXpXpXpXpXpXpXpXpXpXpXpXpXpXpXpXpXpXpXpXpXpXpXpXpXpXpXpXpXpXpXpXpXpXpXpXpXpXpXpXpXpXpXpXpXpXpXpXpXpXpXpXpXpXpXpXpXpXpXpXpXpXpXpXpXpXpXpXpXpXpXpXpXpXpXpXpXpXpXpXpXpXpXpXpXpXpXpXpXpXpXpXpXpXpXpXpXpXpXpXpXpXpXpXpXpXpXpXpXpXpXpXpXpXA A A A u u u u u & & & &                   dXdXdXdXhXhXhXhX# # # # X + # X X # # # # # # # # # # # # 1 1 1 1 1 $ $ $ $ $ $ $ $ $ $ $ $ $ $ $ $ $ $ $ $ $ # # # # % % % % % 7 7 7 7 1 1 1 1 1 1 1 1 1 1 1 1 1 % ; % % ; % % % 2 2 2 2 2 0 0 0 7 5 5 5 5 %.%.%.%.%.e e e e q q q q 5 5 5 5 2 2 2 2 2 5 5 5 5 $ $ $ $ $ $ $ $ # # # # #                 . X       X X X X X X X X X X X X   . .             qXqXqXqXpXpXpXpXpXpXpXpXpXpXpXpXpXpXpXpXpXpXpXpXpXpXpXpXpXpXpXpXpXpXpXpXpXpXpXpXpXpXpXpXpXpXpXpXpXpXpXpXpXpXpXpXpXpXpXpXpXpXpXpXpXpXpX",
"pXpXpXpXpXpXpXpXpXpXpXpXpXpXpXpXpXpXpXpXpXpXpXpXpXpXpXpXpXpXpXpXpXpXpXpXpXpXpXpXpXpXpXpXpXpXpXpXpXpXpXpXpXpXpXpXpXpXpXpXpXpXpXpXpXpXpXpXpXpXpXpXpXpXpXpXpXpXpXpXpXpXpXpXpXpXpXpXpXpXpXpXpXpXpXpXpXpXpXpXpXpXpXpXpXpXpXpXpXpXpXpXpXpXpXpXpXpXpXpXpXpXpXpXpXpXpXS.' ' S.d d d d u u u u u = = = = o o o o           hXhXhXhXdXdXdXdX; % % % X # # # # # # # # X X # # # # # # # # # # # $ $ $ $ $ $ $ $ $ $ $ $ $ # # # # # # # # $ $ $ $ $ $ $ $ $ % % % % $ $ $ $ % % % ; % $ $ $ $ 2 1 2 2 e e e e 1 1 1 1 1 2 2 2 2 q q q q 0 0 0 0 0 :.:.:.:.0 0 0 0 5 5 5 5 5 5 5 5 5 1 1 1 1 ; ; ; 1 1 1 1 1 # # # # # X X X X         X X               X X X X X X X X   . .             $ $ $ $ pXpXpXpXpXpXpXpXpXpXpXpXpXpXpXpXpXpXpXpXpXpXpXpXpXpXpXpXpXpXpXpXpXpXpXpXpXpXpXpXpXpXpXpXpXpXpXpXpXpXpXpXpXpXpXpXpXpXpXpXpXpXpX",
"pXpXpXpXpXpXpXpXpXpXpXpXpXpXpXpXpXpXpXpXpXpXpXpXpXpXpXpXpXpXpXpXpXpXpXpXpXpXpXpXpXpXpXpXpXpXpXpXpXpXpXpXpXpXpXpXpXpXpXpXpXpXpXpXpXpXpXpXpXpXpXpXpXpXpXpXpXpXpXpXpXpXpXpXpXpXpXpXpXpXpXpXpXpXpXpXpXpXpXpXpXpXpXpXpXpXpXpXpXpXpXpXpXpXpXpXpXpXpXpXpXpXpXpXpXpXpXS.S.S.S.d d d d u u u u u = = = = o o o o           hXhXhXhXdXdXdXdX; ; % % X + # # # # # # + X X # # # # # # # # # # # $ $ $ $ $ % $ $ $ $ $ $ $ # # # # # # # # $ $ $ $ $ $ $ $ $ % % % % $ $ $ $ % % % ; ; $ $ $ $ 2 2 2 2 e e e e 1 1 1 1 1 2 2 2 2 q q q q 0 0 0 0 0 :.:.:.:.0 0 0 0 5 5 5 5 5 5 5 5 5 1 1 1 1 ; ; ; 1 1 1 1 1 # # # # # X X X X         X X               X X X X X X X X . . .   .         $ $ $ $ pXpXpXpXpXpXpXpXpXpXpXpXpXpXpXpXpXpXpXpXpXpXpXpXpXpXpXpXpXpXpXpXpXpXpXpXpXpXpXpXpXpXpXpXpXpXpXpXpXpXpXpXpXpXpXpXpXpXpXpXpXpXpX",
"pXpXpXpXpXpXpXpXpXpXpXpXpXpXpXpXpXpXpXpXpXpXpXpXpXpXpXpXpXpXpXpXpXpXpXpXpXpXpXpXpXpXpXpXpXpXpXpXpXpXpXpXpXpXpXpXpXpXpXpXpXpXpXpXpXpXpXpXpXpXpXpXpXpXpXpXpXpXpXpXpXpXpXpXpXpXpXpXpXpXpXpXpXpXpXpXpXpXpXpXpXpXpXpXpXpXpXpXpXpXpXpXpXpXpXpXpXpXpXpXpXpXpXpXpXpXpX' ' ' ' d d d d u u u u u = = = = o o o o           hXhXhXhXdXdXdXdX; ; ; ; # # # + X X + + # # + # # # # # # # # # # # $ $ $ $ $ $ $ $ $ $ $ $ $ # # # # # # # # $ $ $ $ $ $ $ $ $ % % % % $ $ $ $ % % ; 1 1 $ $ $ $ 1 1 1 1 e e e e 1 1 1 1 1 2 2 2 2 q q q q 0 0 0 0 0 :.:.:.:.0 0 0 0 5 5 5 5 5 5 5 5 5 2 1 1 1 ; ; ; ; 1 1 1 1 # # # # # X X X X                           X X X X X X X X X . .             $ $ $ $ pXpXpXpXpXpXpXpXpXpXpXpXpXpXpXpXpXpXpXpXpXpXpXpXpXpXpXpXpXpXpXpXpXpXpXpXpXpXpXpXpXpXpXpXpXpXpXpXpXpXpXpXpXpXpXpXpXpXpXpXpXpXpX",
"pXpXpXpXpXpXpXpXpXpXpXpXpXpXpXpXpXpXpXpXpXpXpXpXpXpXpXpXpXpXpXpXpXpXpXpXpXpXpXpXpXpXpXpXpXpXpXpXpXpXpXpXpXpXpXpXpXpXpXpXpXpXpXpXpXpXpXpXpXpXpXpXpXpXpXpXpXpXpXpXpXpXpXpXpXpXpXpXpXpXpXpXpXpXpXpXpXpXpXpXpXpXpXpXpXpXpXpXpXpXpXpXpXpXpXpXpXpXpXpXpXpXpXpXpXpXpX' ' ' ' d d d d u u u u u = = = = o o o o           hXhXhXhXdXdXdXdX; ; ; ; # # # + # X X # # # # # # # # # # # # # # # $ $ $ $ $ $ $ $ $ $ $ $ $ # # # # # # # # $ $ $ $ $ $ $ $ $ % % % % $ $ $ $ % % ; 1 1 $ $ $ $ 1 1 1 1 e e e e 1 1 1 1 1 2 2 2 2 q q q q 0 0 0 0 0 :.:.:.:.0 0 0 0 5 5 5 5 5 5 5 5 5 2 2 1 1 ; ; 1 ; 1 1 1 1 # # # # # X X X X         X       X         X X X X X X X X X X .             $ $ $ $ pXpXpXpXpXpXpXpXpXpXpXpXpXpXpXpXpXpXpXpXpXpXpXpXpXpXpXpXpXpXpXpXpXpXpXpXpXpXpXpXpXpXpXpXpXpXpXpXpXpXpXpXpXpXpXpXpXpXpXpXpXpXpX",
"pXpXpXpXpXpXpXpXpXpXpXpXpXpXpXpXpXpXpXpXpXpXpXpXpXpXpXpXpXpXpXpXpXpXpXpXpXpXpXpXpXpXpXpXpXpXpXpXpXpXpXpXpXpXpXpXpXpXpXpXpXpXpXpXpXpXpXpXpXpXpXpXpXpXpXpXpXpXpXpXpXpXpXpXpXpXpXpXpXpXpXpXpXpXpXpXpXpXpXpXpXpXpXpXpXpXpXpXpXpXpXpXpXpXpXpXpXpXpXpXpXpXpXZXZXZXZXD.D.D.D.S S S S a a a a a & & & &         X X X X X bXbXbXbXfXdXdXdX5 5 5 5 # # # # # # + # # X X X X + X # # $ $ $ $ $ $ $ $ $ $ $ $ $ # # # # # $ $ $ # $ $ $ $ $ $ $ $ $ $ $ $ $ 1 1 1 1 % % % % % % % % % % % % % % % % % q q q q q q q q q 2 2 2 2 q q q q e e e e e *.*.*.*.5 5 5 5 2 2 2 2 2 2 2 2 2 5 2 2 2 2 2 2 2 1 1 1 1 $ $ $ # # # # # #     X X           X                                 X X X X % % % % pXpXpXpXpXpXpXpXpXpXpXpXpXpXpXpXpXpXpXpXpXpXpXpXpXpXpXpXpXpXpXpXpXpXpXpXpXpXpXpXpXpXpXpXpXpXpXpXpXpXpXpXpXpXpXpXpXpXpXpXpXpXpX",
"pXpXpXpXpXpXpXpXpXpXpXpXpXpXpXpXpXpXpXpXpXpXpXpXpXpXpXpXpXpXpXpXpXpXpXpXpXpXpXpXpXpXpXpXpXpXpXpXpXpXpXpXpXpXpXpXpXpXpXpXpXpXpXpXpXpXpXpXpXpXpXpXpXpXpXpXpXpXpXpXpXpXpXpXpXpXpXpXpXpXpXpXpXpXpXpXpXpXpXpXpXpXpXpXpXpXpXpXpXpXpXpXpXpXpXpXpXpXpXpXpXpXpXZXZXZXZXD.D.D.D.S S S S a a a a a & & & &         X X X   X bXbXbXbXfXdXdXdX5 5 5 5 # # # # # # # # # X X X X + X # # $ $ $ $ $ $ $ $ $ $ $ $ $ # # # # # $ $ $ $ $ $ $ $ $ $ $ $ $ $ $ $ $ 1 1 1 1 % % % % % % % % % % % % % % % % % q q q q q q q q q 2 2 2 2 q q q q e e e e e *.*.*.*.5 5 5 5 2 2 2 2 2 2 2 2 2 5 2 2 2 2 2 2 2 1 1 1 1 $ $ $ # # # # # #       X           X                                 X X X X % % % % pXpXpXpXpXpXpXpXpXpXpXpXpXpXpXpXpXpXpXpXpXpXpXpXpXpXpXpXpXpXpXpXpXpXpXpXpXpXpXpXpXpXpXpXpXpXpXpXpXpXpXpXpXpXpXpXpXpXpXpXpXpXpX",
"pXpXpXpXpXpXpXpXpXpXpXpXpXpXpXpXpXpXpXpXpXpXpXpXpXpXpXpXpXpXpXpXpXpXpXpXpXpXpXpXpXpXpXpXpXpXpXpXpXpXpXpXpXpXpXpXpXpXpXpXpXpXpXpXpXpXpXpXpXpXpXpXpXpXpXpXpXpXpXpXpXpXpXpXpXpXpXpXpXpXpXpXpXpXpXpXpXpXpXpXpXpXpXpXpXpXpXpXpXpXpXpXpXpXpXpXpXpXpXpXpXpXpXZXZXZXZXD.D.D.D.S S S S a a a a a & & & &         X X     X bXbXbXbXdXdXdXdX5 5 5 5 # # # # # # # + # X X X X # # # # $ $ $ $ $ $ $ $ $ $ $ $ $ # # # # # $ $ $ $ $ $ $ $ $ $ $ $ $ $ $ $ $ 1 1 1 1 % % % % % % % % % % % % % % % % % q q q q q q q q q 2 2 2 2 q q q q e e e e e *.*.*.*.5 5 5 2 1 2 2 2 2 2 2 2 2 2 2 2 5 2 2 2 2 1 1 1 1 $ $ $ $ $ # # # #                   X                                 X X X X % % $ $ pXpXpXpXpXpXpXpXpXpXpXpXpXpXpXpXpXpXpXpXpXpXpXpXpXpXpXpXpXpXpXpXpXpXpXpXpXpXpXpXpXpXpXpXpXpXpXpXpXpXpXpXpXpXpXpXpXpXpXpXpXpXpX",
"pXpXpXpXpXpXpXpXpXpXpXpXpXpXpXpXpXpXpXpXpXpXpXpXpXpXpXpXpXpXpXpXpXpXpXpXpXpXpXpXpXpXpXpXpXpXpXpXpXpXpXpXpXpXpXpXpXpXpXpXpXpXpXpXpXpXpXpXpXpXpXpXpXpXpXpXpXpXpXpXpXpXpXpXpXpXpXpXpXpXpXpXpXpXpXpXpXpXpXpXpXpXpXpXpXpXpXpXpXpXpXpXpXpXpXpXpXpXpXpXpXpXpXZXZXZXZXD.D.D.D.S S S S a a a a a & & & &         X X     X bXbXkXbXdXdXdXdX5 5 5 5 # # # # # # # X # X X X X # # # # $ $ $ $ $ $ $ $ $ $ $ $ $ # # # # # $ $ $ $ $ $ $ $ $ $ $ $ $ $ $ $ $ 1 1 1 1 % % % % % % % % % % % % % % % % % q q q q q q q q q 2 2 2 2 q q q q e e e e e *.*.*.*.5 5 5 5 2 2 2 2 2 2 2 2 2 2 2 2 2 2 2 2 2 1 1 1 1 # $ $ $ $ # # # #                   X                       X . .     X X X X % % $ $ pXpXpXpXpXpXpXpXpXpXpXpXpXpXpXpXpXpXpXpXpXpXpXpXpXpXpXpXpXpXpXpXpXpXpXpXpXpXpXpXpXpXpXpXpXpXpXpXpXpXpXpXpXpXpXpXpXpXpXpXpXpXpX",
"pXpXpXpXpXpXpXpXpXpXpXpXpXpXpXpXpXpXpXpXpXpXpXpXpXpXpXpXpXpXpXpXpXpXpXpXpXpXpXpXpXpXpXpXpXpXpXpXpXpXpXpXpXpXpXpXpXpXpXpXpXpXpXpXpXpXpXpXpXpXpXpXpXpXpXpXpXpXpXpXpXpXpXpXpXpXpXpXpXpXpXpXpXpXpXpXpXpXpXpXpXpXpXpXpXpXpXpXpXpXpXpXpXpXpXpXpXpXpXpXpXpXpXI.I.I.I.g.g.g.g.D.D.D.D.S S S S S u u u u o o o o           hXhXhXhXfXdXdXfX5 5 5 5 # # # # # # # X X # + # # X X X X X X X X X $ $ $ $ $ $ $ $ $ # # $ $ $ $ $ $ ; ; ; ; 1 1 1 1 $ $ $ $ $ $ $ $ $ 1 1 1 1 $ $ $ $ $ % % % % 1 1 1 1 1 1 1 1 5 5 5 5 5 e e e e 2 2 2 2 Y Y Y Y Y e e e e 5 5 5 5 1 1 1 1 2 2 2 2 2 5 5 5 5 2 2 2 2 2 2 2 5 % % % 1 ; 1 1 % % X X X X                                     X . . .         X X X X # # # # # pXpXpXpXpXpXpXpXpXpXpXpXpXpXpXpXpXpXpXpXpXpXpXpXpXpXpXpXpXpXpXpXpXpXpXpXpXpXpXpXpXpXpXpXpXpXpXpXpXpXpXpXpXpXpXpXpXpX",
"pXpXpXpXpXpXpXpXpXpXpXpXpXpXpXpXpXpXpXpXpXpXpXpXpXpXpXpXpXpXpXpXpXpXpXpXpXpXpXpXpXpXpXpXpXpXpXpXpXpXpXpXpXpXpXpXpXpXpXpXpXpXpXpXpXpXpXpXpXpXpXpXpXpXpXpXpXpXpXpXpXpXpXpXpXpXpXpXpXpXpXpXpXpXpXpXpXpXpXpXpXpXpXpXpXpXpXpXpXpXpXpXpXpXpXpXpXpXpXpXpXpXpXI.I.I.I.D g.g.g.D.D.D.D.S S S S S u u u u o o o o           hXhXhXhXfXdXdXfX5 5 5 5 # # # # # # + + X # # # # X X X X X X X X X $ $ $ $ $ $ $ $ $ # # $ $ $ $ $ $ ; ; ; ; 1 1 1 1 $ $ $ $ $ $ $ $ $ 1 1 1 1 $ $ $ $ $ % % % % 1 1 1 1 1 1 1 1 5 5 5 5 5 e e e e 2 2 2 2 Y Y Y Y Y e e e e 5 5 5 5 1 1 1 1 2 2 2 2 2 5 5 5 5 2 2 2 2 2 2 2 2 % % % % % % % % % X X X X                                     X . . .         X X X X # # # # # pXpXpXpXpXpXpXpXpXpXpXpXpXpXpXpXpXpXpXpXpXpXpXpXpXpXpXpXpXpXpXpXpXpXpXpXpXpXpXpXpXpXpXpXpXpXpXpXpXpXpXpXpXpXpXpXpXpX",
"pXpXpXpXpXpXpXpXpXpXpXpXpXpXpXpXpXpXpXpXpXpXpXpXpXpXpXpXpXpXpXpXpXpXpXpXpXpXpXpXpXpXpXpXpXpXpXpXpXpXpXpXpXpXpXpXpXpXpXpXpXpXpXpXpXpXpXpXpXpXpXpXpXpXpXpXpXpXpXpXpXpXpXpXpXpXpXpXpXpXpXpXpXpXpXpXpXpXpXpXpXpXpXpXpXpXpXpXpXpXpXpXpXpXpXpXpXpXpXpXpXpXpXI.I.I.I.g.g.g.g.D.D.D.D.S S S S S u u u u o o o o           hXhXhXhXfXfXfXfX5 5 5 5 # # # # # # # # # # # # # X X X X X X X X X $ $ $ $ $ $ $ $ $ $ $ $ $ $ $ $ $ ; ; ; ; 1 1 1 1 $ $ $ $ $ $ $ $ $ 1 1 1 1 $ $ $ $ $ % % % % 1 1 1 1 1 1 1 1 5 5 5 5 5 e e e e 2 2 2 2 Y Y Y Y Y e e e e 5 5 5 5 1 1 1 1 2 2 2 2 2 5 5 5 5 2 2 2 2 2 2 2 2 % % % % ; ; ; ; % X X X X                                                     X X X X # # # # # pXpXpXpXpXpXpXpXpXpXpXpXpXpXpXpXpXpXpXpXpXpXpXpXpXpXpXpXpXpXpXpXpXpXpXpXpXpXpXpXpXpXpXpXpXpXpXpXpXpXpXpXpXpXpXpXpXpX",
"pXpXpXpXpXpXpXpXpXpXpXpXpXpXpXpXpXpXpXpXpXpXpXpXpXpXpXpXpXpXpXpXpXpXpXpXpXpXpXpXpXpXpXpXpXpXpXpXpXpXpXpXpXpXpXpXpXpXpXpXpXpXpXpXpXpXpXpXpXpXpXpXpXpXpXpXpXpXpXpXpXpXpXpXpXpXpXpXpXpXpXpXpXpXpXpXpXpXpXpXpXpXpXpXpXpXpXpXpXpXpXpXpXpXpXpXpXpXpXpXpXpXpXI.I.I.I.g.g.g.g.D.D.D.D.S S S S S u u u u o o o o           hXhXhXhXfXfXfXfX5 5 5 5 # # # # # # # # # # # # + X X X X X X X X X $ $ $ $ $ $ $ $ $ $ $ # $ $ $ $ $ ; ; % ; 1 1 1 1 $ $ $ $ $ $ $ $ $ 1 1 1 1 $ $ $ $ $ % % % % 1 1 1 1 1 1 1 1 5 5 5 5 5 e e e e 2 2 2 2 Y Y Y Y Y e e e e 5 5 5 5 1 1 1 1 2 2 2 2 2 5 5 5 5 2 2 2 2 2 2 2 2 % % % % ; ; 1 % % X X X X                                           .         X X X X # # # # # pXpXpXpXpXpXpXpXpXpXpXpXpXpXpXpXpXpXpXpXpXpXpXpXpXpXpXpXpXpXpXpXpXpXpXpXpXpXpXpXpXpXpXpXpXpXpXpXpXpXpXpXpXpXpXpXpXpX",
"pXpXpXpXpXpXpXpXpXpXpXpXpXpXpXpXpXpXpXpXpXpXpXpXpXpXpXpXpXpXpXpXpXpXpXpXpXpXpXpXpXpXpXpXpXpXpXpXpXpXpXpXpXpXpXpXpXpXpXpXpXpXpXpXpXpXpXpXpXpXpXpXpXpXpXpXpXpXpXpXpXpXpXpXpXpXpXpXpXpXpXpXpXpXpXpXpXpXpXpXpXpXpXpXpXpXpXpXpXpXpXpXpXpXpXpXpXpXpXpXpXpXpXI.I.I.I.g.g.g.g.D.D.D.D.S S S S S u u u u o o o o           hXhXhXhXfXfXdXfX7 5 7 5 # # # # # # # X X X X X X X X X X X X X X X $ $ $ $ $ $ $ $ $ # # # $ $ $ $ $ ; ; ; ; 1 1 1 1 $ $ $ $ $ $ $ $ $ 1 1 1 1 $ $ $ $ $ % % % % 1 1 1 1 1 1 1 1 5 5 5 5 5 e e e e 2 2 2 2 Y Y Y Y Y e e e e 5 5 5 5 1 1 1 1 2 2 2 2 2 5 5 5 5 2 2 2 5 5 2 2 2 % % % ; 1 ; 1 ; ; X X X X                                         X X         X X X X # # # # # pXpXpXpXpXpXpXpXpXpXpXpXpXpXpXpXpXpXpXpXpXpXpXpXpXpXpXpXpXpXpXpXpXpXpXpXpXpXpXpXpXpXpXpXpXpXpXpXpXpXpXpXpXpXpXpXpXpX",
"pXpXpXpXpXpXpXpXpXpXpXpXpXpXpXpXpXpXpXpXpXpXpXpXpXpXpXpXpXpXpXpXpXpXpXpXpXpXpXpXpXpXpXpXpXpXpXpXpXpXpXpXpXpXpXpXpXpXpXpXpXpXpXpXpXpXpXpXpXpXpXpXpXpXpXpXpXpXpXpXpXpXpXpXpXpXpXpXpXpXpXpXpXpXpXpXpXpXpXpXpXpXpXpXpXpXpXpXpXpXpXpXpXpXpXpXpXpXpXpXpXpXpX].].].].D.D.D.D.D.D.D.D.j j j j j i i i i * * * *           dXdXdXdXhXfXfXfX0 0 0 0 # # # # # # # # # X X + # X X X X X X X X X $ $ $ $ $ $ $ $ # # # # # $ $ $ $ # # # # $ $ $ $ $ $ $ $ $ $ $ $ $ % % % % $ $ $ $ $ 1 1 1 1 % % % % 2 2 2 2 # # # # # 5 5 5 5 v v v v e q q q q Q Q Q Q 5 5 5 5 1 1 1 1 2 2 2 2 2 2 2 2 2 5 5 5 5 2 2 2 2 5 5 5 5 5 ; ; ; % # # # # X X X X X                 X X X . X X X X X                 # # # # # pXpXpXpXpXpXpXpXpXpXpXpXpXpXpXpXpXpXpXpXpXpXpXpXpXpXpXpXpXpXpXpXpXpXpXpXpXpXpXpXpXpXpXpXpXpXpXpXpXpXpXpXpXpXpXpXpXpX",
"pXpXpXpXpXpXpXpXpXpXpXpXpXpXpXpXpXpXpXpXpXpXpXpXpXpXpXpXpXpXpXpXpXpXpXpXpXpXpXpXpXpXpXpXpXpXpXpXpXpXpXpXpXpXpXpXpXpXpXpXpXpXpXpXpXpXpXpXpXpXpXpXpXpXpXpXpXpXpXpXpXpXpXpXpXpXpXpXpXpXpXpXpXpXpXpXpXpXpXpXpXpXpXpXpXpXpXpXpXpXpXpXpXpXpXpXpXpXpXpXpXpXpX].].].].D.D.D.D.D.D.D.D.j j j j j i i i i * * * *           dXdXdXdXfXfXfXfX0 0 0 0 # # # # # # # # # # # # # X X X X X X X X X $ $ $ $ $ $ $ $ # # # # # $ $ $ $ # # # # $ $ $ $ $ $ $ $ $ $ $ $ $ % % % % $ $ $ $ $ 1 1 1 1 % % % % 2 2 2 2 # # # $ $ 5 5 5 5 e e e e q q q q q Q Q Q Q 5 5 5 5 1 1 1 1 2 2 2 2 2 2 2 2 2 5 5 5 5 2 2 2 2 5 5 5 5 5 % % ; ; # # # # X X X X X                 X X X X X X X # #                 # # # # # pXpXpXpXpXpXpXpXpXpXpXpXpXpXpXpXpXpXpXpXpXpXpXpXpXpXpXpXpXpXpXpXpXpXpXpXpXpXpXpXpXpXpXpXpXpXpXpXpXpXpXpXpXpXpXpXpXpX",
"pXpXpXpXpXpXpXpXpXpXpXpXpXpXpXpXpXpXpXpXpXpXpXpXpXpXpXpXpXpXpXpXpXpXpXpXpXpXpXpXpXpXpXpXpXpXpXpXpXpXpXpXpXpXpXpXpXpXpXpXpXpXpXpXpXpXpXpXpXpXpXpXpXpXpXpXpXpXpXpXpXpXpXpXpXpXpXpXpXpXpXpXpXpXpXpXpXpXpXpXpXpXpXpXpXpXpXpXpXpXpXpXpXpXpXpXpXpXpXpXpXpXpX].].].].D.D.D.D.D.D.D.D.j j j j j i i i i * * * *           dXdXdXdXfXfXfXfX0 0 0 0 # # # # # # # # # # # # # X X X X X X X X X $ $ $ $ $ $ $ $ # # # # # $ $ $ $ # # # # $ $ $ $ $ $ $ $ $ $ $ $ $ % % % % $ $ $ $ $ 1 1 1 1 % % % % 2 2 2 2 # # # $ $ 5 5 5 5 e e e e q q q q q E E Q Q 5 5 5 5 1 1 1 1 1 1 2 2 2 2 2 2 2 5 5 5 5 2 2 2 2 5 5 5 5 5 % % ; ; # # # # X X X X X                 X . . X X X X # #                 # # # # # pXpXpXpXpXpXpXpXpXpXpXpXpXpXpXpXpXpXpXpXpXpXpXpXpXpXpXpXpXpXpXpXpXpXpXpXpXpXpXpXpXpXpXpXpXpXpXpXpXpXpXpXpXpXpXpXpXpX",
"pXpXpXpXpXpXpXpXpXpXpXpXpXpXpXpXpXpXpXpXpXpXpXpXpXpXpXpXpXpXpXpXpXpXpXpXpXpXpXpXpXpXpXpXpXpXpXpXpXpXpXpXpXpXpXpXpXpXpXpXpXpXpXpXpXpXpXpXpXpXpXpXpXpXpXpXpXpXpXpXpXpXpXpXpXpXpXpXpXpXpXpXpXpXpXpXpXpXpXpXpXpXpXpXpXpXpXpXpXpXpXpXpXpXpXpXpXpXpXpXpXpXpX].].].].D.D.D.D.D.D.D.D.j j j j j i i i i * * * *           dXdXdXdXfXfXfXfX0 0 0 0 # # # # # # # # # # # # # X X X X X X X X X $ $ $ $ $ $ $ $ # # # # # $ $ $ $ # # # # $ $ % % % % $ $ $ $ $ $ $ % % % % $ $ $ $ $ 1 1 1 1 % % % % 2 2 2 2 # # $ $ $ 5 5 5 5 v v v e q q q q q E E E E 5 5 5 5 1 1 1 1 1 2 2 2 2 2 2 2 2 5 5 5 5 2 2 2 2 5 5 5 5 5 % % % % # # # # X X X X X                 X   . . X X X # +         X       # # # # # pXpXpXpXpXpXpXpXpXpXpXpXpXpXpXpXpXpXpXpXpXpXpXpXpXpXpXpXpXpXpXpXpXpXpXpXpXpXpXpXpXpXpXpXpXpXpXpXpXpXpXpXpXpXpXpXpXpX",
"pXpXpXpXpXpXpXpXpXpXpXpXpXpXpXpXpXpXpXpXpXpXpXpXpXpXpXpXpXpXpXpXpXpXpXpXpXpXpXpXpXpXpXpXpXpXpXpXpXpXpXpXpXpXpXpXpXpXpXpXpXpXpXpXpXpXpXpXpXpXpXpXpXpXpXpXpXpXpXpXpXpXpXpXpXpXpXpXpXpXpXpXpXpXpXpXpXpXpXpXpXpXpXpXpXpXpXpXpXpXpXpXpXpXpXpXpXpXpXpXpXpXpXvXvXvXvX'.'.'.'.g.g.g.g.l l l l l i i i i & & & &           =.=.=.=.hXhXhXhXY Y Y Y # # # # # # # # # X X X X # # # # X X X X X X X X X $ $ $ # $ $ $ $ $ $ $ $ $ $ $ $ $ $ $ $ $ % % % % % % % % % $ $ $ $ ; % ; ; ; % % % % % % % % ; ; ; ; 0 0 0 0 0 7 7 7 7 0 0 0 0 / / / / / q q q q 2 2 2 2 1 1 1 1 1 1 1 1 1 2 2 2 2 2 2 2 2 2 2 2 2 1 1 1 1 1 $ $ $ $ X X X X # # # # # 2 2 2 2 X X X X                   # # # # # # # # # # $ $ # 0 0 0 0 pXpXpXpXpXpXpXpXpXpXpXpXpXpXpXpXpXpXpXpXpXpXpXpXpXpXpXpXpXpXpXpXpXpXpXpXpXpXpXpXpXpXpXpXpXpXpXpXpXpXpXpXpXpX",
"pXpXpXpXpXpXpXpXpXpXpXpXpXpXpXpXpXpXpXpXpXpXpXpXpXpXpXpXpXpXpXpXpXpXpXpXpXpXpXpXpXpXpXpXpXpXpXpXpXpXpXpXpXpXpXpXpXpXpXpXpXpXpXpXpXpXpXpXpXpXpXpXpXpXpXpXpXpXpXpXpXpXpXpXpXpXpXpXpXpXpXpXpXpXpXpXpXpXpXpXpXpXpXpXpXpXpXpXpXpXpXpXpXpXpXpXpXpXpXpXpXpXpXvXvXvXvX'.'.'.'.g.g.g.g.l l l l l i i i i & & & &           =.=.=.=.hXhXhXhXY Y Y Y $ # # # # # # # # X X X X # # # X X X X X X X X X X # $ $ $ $ $ $ $ $ $ $ $ $ $ $ $ $ $ $ $ $ % % % % % % % % % $ $ $ $ ; ; ; % % % % % % % % % % ; ; ; 1 0 0 0 0 0 5 5 5 5 0 0 0 0 / / / / / q q q q 2 2 2 2 1 1 1 1 1 1 1 1 2 2 2 2 2 2 2 2 2 2 2 2 2 1 1 1 1 1 $ $ $ $ X X X X # # # # # 2 2 2 2 X X X X                   # # # # # # # # # # $ $ # 7 0 0 0 pXpXpXpXpXpXpXpXpXpXpXpXpXpXpXpXpXpXpXpXpXpXpXpXpXpXpXpXpXpXpXpXpXpXpXpXpXpXpXpXpXpXpXpXpXpXpXpXpXpXpXpXpXpX",
"pXpXpXpXpXpXpXpXpXpXpXpXpXpXpXpXpXpXpXpXpXpXpXpXpXpXpXpXpXpXpXpXpXpXpXpXpXpXpXpXpXpXpXpXpXpXpXpXpXpXpXpXpXpXpXpXpXpXpXpXpXpXpXpXpXpXpXpXpXpXpXpXpXpXpXpXpXpXpXpXpXpXpXpXpXpXpXpXpXpXpXpXpXpXpXpXpXpXpXpXpXpXpXpXpXpXpXpXpXpXpXpXpXpXpXpXpXpXpXpXpXpXpXvXvXvXvX'.'.'.'.g.g.g.g.l l l l l i i i i & & & &           =.=.=.=.hXhXhXhXY Y Y Y $ $ # # # # # # # X X X X # # # + X X X X X X X X X # $ $ $ $ $ $ $ $ $ $ $ $ $ $ $ $ $ $ $ $ % % % % % % % % % $ $ $ $ ; ; ; % % % % % % % % % % ; ; ; 1 0 0 0 0 0 5 5 5 5 0 0 0 0 / / / / / q q q q 2 2 2 2 1 1 1 1 1 1 1 1 1 2 2 2 2 2 2 2 2 2 2 2 2 1 1 1 1 1 $ $ $ $ X X X X # # # # # 2 2 2 1 . X X X                   # # # # # # # # # # $ # # 0 0 0 0 pXpXpXpXpXpXpXpXpXpXpXpXpXpXpXpXpXpXpXpXpXpXpXpXpXpXpXpXpXpXpXpXpXpXpXpXpXpXpXpXpXpXpXpXpXpXpXpXpXpXpXpXpXpX",
"pXpXpXpXpXpXpXpXpXpXpXpXpXpXpXpXpXpXpXpXpXpXpXpXpXpXpXpXpXpXpXpXpXpXpXpXpXpXpXpXpXpXpXpXpXpXpXpXpXpXpXpXpXpXpXpXpXpXpXpXpXpXpXpXpXpXpXpXpXpXpXpXpXpXpXpXpXpXpXpXpXpXpXpXpXpXpXpXpXpXpXpXpXpXpXpXpXpXpXpXpXpXpXpXpXpXpXpXpXpXpXpXpXpXpXpXpXpXpXpXpXpXpXvXvXvXvX'.'.'.'.g.g.g.g.l l l l l i i i i & & & &           =.=.=.=.hXhXhXhXY Y Y Y $ # # # $ # # # # X X X X # # # # X X X X X X X X X # $ $ $ $ $ $ $ $ $ $ $ $ $ $ $ $ $ $ $ $ % % % % % % % % % $ $ $ $ ; ; ; % % % % % % % % % % % % % % 0 0 0 0 0 7 0 7 5 0 0 0 0 / / / / / q q q q 2 2 2 2 1 1 1 1 1 1 1 1 1 2 2 2 2 2 2 2 2 2 2 2 2 1 1 1 1 1 $ $ $ $ X X X X # # # # # 2 1 1 1 . X X X                   # # # # # # # # # # # # # 0 0 0 0 pXpXpXpXpXpXpXpXpXpXpXpXpXpXpXpXpXpXpXpXpXpXpXpXpXpXpXpXpXpXpXpXpXpXpXpXpXpXpXpXpXpXpXpXpXpXpXpXpXpXpXpXpXpX",
"pXpXpXpXpXpXpXpXpXpXpXpXpXpXpXpXpXpXpXpXpXpXpXpXpXpXpXpXpXpXpXpXpXpXpXpXpXpXpXpXpXpXpXpXpXpXpXpXpXpXpXpXpXpXpXpXpXpXpXpXpXpXpXpXpXpXpXpXpXpXpXpXpXpXpXpXpXpXpXpXpXpXpXpXpXpXpXpXpXpXpXpXpXpXpXpXpXpXpXpXpXpXpXpXpXpXpXpXpXpXpXpXpXpXpXpXpXpXpXpXpXpXpXpXpXpXpX'.'.'.'.l l l l j j j j j i i i i & & & &           ( ( ( ( hXhXhXhX^ ^ ^ ^ $ # $ # # $ $ $ $ # # # # # X # # X X X X X X X X X # + + + $ $ $ $ # # # # # $ $ $ $ $ $ $ $ # # # # # 2 2 2 1 # # # # $ $ $ $ $ 1 1 1 1 2 2 2 2 $ $ $ $ 5 5 5 5 5 5 5 5 5 2 2 2 2 q q q q q 5 5 5 5 2 2 2 2 1 1 1 1 % % % % % ; % % % % % % % 1 1 1 1 5 5 5 5 5 % % % % X X X X X X X X X X X X X # # # # 0 0 0 0 X X X X X X X X X X X X X X X X X X . X X X         X X X X pXpXpXpXpXpXpXpXpXpXpXpXpXpXpXpXpXpXpXpXpXpXpXpXpXpXpXpXpXpXpXpXpXpXpXpXpXpXpXpXpXpXpXpXpXpX",
"pXpXpXpXpXpXpXpXpXpXpXpXpXpXpXpXpXpXpXpXpXpXpXpXpXpXpXpXpXpXpXpXpXpXpXpXpXpXpXpXpXpXpXpXpXpXpXpXpXpXpXpXpXpXpXpXpXpXpXpXpXpXpXpXpXpXpXpXpXpXpXpXpXpXpXpXpXpXpXpXpXpXpXpXpXpXpXpXpXpXpXpXpXpXpXpXpXpXpXpXpXpXpXpXpXpXpXpXpXpXpXpXpXpXpXpXpXpXpXpXpXpXpXpXpXpXpX'.'.'.'.l l l l j j j j j i i i i & & & &           ( ( ( ( hXhXhXhX^ ^ ^ ^ $ $ $ $ $ # # $ $ # # X X X X # # X X X X X X X X X # + + + $ $ $ $ # # # # # $ $ $ $ $ $ $ $ # # # # # 2 1 1 1 # # # # $ $ $ $ $ 1 1 1 1 2 2 2 2 $ $ $ $ 5 5 5 5 5 5 5 5 5 2 2 2 2 q q q q q 5 5 5 5 2 2 2 2 1 1 1 1 % % % % % % % % % % % % % 1 1 1 1 5 5 5 5 5 % % % % X X X X X X X X X X X X X # # # # 0 0 0 0 X X X X X X X X X X X X X X X X X X   . . X         X X X X pXpXpXpXpXpXpXpXpXpXpXpXpXpXpXpXpXpXpXpXpXpXpXpXpXpXpXpXpXpXpXpXpXpXpXpXpXpXpXpXpXpXpXpXpXpX",
"pXpXpXpXpXpXpXpXpXpXpXpXpXpXpXpXpXpXpXpXpXpXpXpXpXpXpXpXpXpXpXpXpXpXpXpXpXpXpXpXpXpXpXpXpXpXpXpXpXpXpXpXpXpXpXpXpXpXpXpXpXpXpXpXpXpXpXpXpXpXpXpXpXpXpXpXpXpXpXpXpXpXpXpXpXpXpXpXpXpXpXpXpXpXpXpXpXpXpXpXpXpXpXpXpXpXpXpXpXpXpXpXpXpXpXpXpXpXpXpXpXpXpXpXpXpXpX'.'.'.'.l l l l j j j j j i i i i & & & &           ( ( ( ( hXhXhXhX^ ^ ^ ^ $ $ $ $ # # # $ $ # # X X X X # # X X X X X X X X X # + + + $ $ $ $ $ # # # # $ $ $ $ $ $ $ $ # # # # # 1 1 1 1 # # # # $ $ $ $ $ 1 1 1 1 2 2 2 2 $ $ $ $ 5 5 5 5 5 5 5 5 5 2 2 2 2 e q q q q 5 5 5 5 2 2 2 2 1 1 1 1 % % % % % % % % % % % % % 1 1 1 1 5 5 5 5 5 % % % % X X X X X X X X X X X X X # # # # 0 0 0 0 X X X X X X X X X     X X X X X X X   X . X         X X X X pXpXpXpXpXpXpXpXpXpXpXpXpXpXpXpXpXpXpXpXpXpXpXpXpXpXpXpXpXpXpXpXpXpXpXpXpXpXpXpXpXpXpXpXpXpX",
"pXpXpXpXpXpXpXpXpXpXpXpXpXpXpXpXpXpXpXpXpXpXpXpXpXpXpXpXpXpXpXpXpXpXpXpXpXpXpXpXpXpXpXpXpXpXpXpXpXpXpXpXpXpXpXpXpXpXpXpXpXpXpXpXpXpXpXpXpXpXpXpXpXpXpXpXpXpXpXpXpXpXpXpXpXpXpXpXpXpXpXpXpXpXpXpXpXpXpXpXpXpXpXpXpXpXpXpXpXpXpXpXpXpXpXpXpXpXpXpXpXpXpXpXpXpXpX'.'.'.'.l l l l j j j j j i i i i & & & &           ( ( ( ( hXhXhXhX^ ^ ^ ^ $ $ $ $ $ # # # # # # # X # # # # X X X X X X X X X # + + + $ $ $ $ $ # # # # $ $ $ $ $ $ $ $ # # # # # 1 1 1 1 # # # # $ $ $ $ $ 1 1 1 1 2 2 2 2 $ $ $ $ 5 5 5 5 5 5 5 5 5 2 2 2 2 e q q q q 5 5 5 5 2 2 2 2 1 1 1 1 % % % % % ; 1 1 ; 1 % % % 1 1 1 1 5 5 5 5 5 % % % % X X X X X X X X X X X X X # # # # 0 0 0 0 X X X X X X X X X         X X X X X . X X X         X X X X pXpXpXpXpXpXpXpXpXpXpXpXpXpXpXpXpXpXpXpXpXpXpXpXpXpXpXpXpXpXpXpXpXpXpXpXpXpXpXpXpXpXpXpXpXpX",
"pXpXpXpXpXpXpXpXpXpXpXpXpXpXpXpXpXpXpXpXpXpXpXpXpXpXpXpXpXpXpXpXpXpXpXpXpXpXpXpXpXpXpXpXpXpXpXpXpXpXpXpXpXpXpXpXpXpXpXpXpXpXpXpXpXpXpXpXpXpXpXpXpXpXpXpXpXpXpXpXpXpXpXpXpXpXpXpXpXpXpXpXpXpXpXpXpXpXpXpXpXpXpXpXpXpXpXpXpXpXpXpXpXpXpXpXpXpXpXpXpXpXpXpXpXpXpX'.'.'.'.l l l l j j j j j i i i i & & & &           ( ( ( ( hXhXhXhX^ ^ ^ ^ $ $ $ $ $ # # # # + + # # # # # # X X X X X X X X X # + + + $ $ $ $ $ # # # # $ $ $ $ $ $ $ $ # # # # # 1 1 1 1 # # # # $ $ $ $ $ 1 1 1 1 2 2 2 2 $ $ $ $ 5 5 5 5 5 5 5 5 5 2 2 2 2 e q q q q 5 5 5 5 2 2 2 2 1 1 1 1 % % % % % 1 1 1 1 1 % % % 1 1 1 1 5 5 5 5 5 % % % % X X X X X X X X X X X X X # # # # 0 0 0 0 X X X X X X X X X         X X X X X X X X X         X X X X pXpXpXpXpXpXpXpXpXpXpXpXpXpXpXpXpXpXpXpXpXpXpXpXpXpXpXpXpXpXpXpXpXpXpXpXpXpXpXpXpXpXpXpXpXpX",
"pXpXpXpXpXpXpXpXpXpXpXpXpXpXpXpXpXpXpXpXpXpXpXpXpXpXpXpXpXpXpXpXpXpXpXpXpXpXpXpXpXpXpXpXpXpXpXpXpXpXpXpXpXpXpXpXpXpXpXpXpXpXpXpXpXpXpXpXpXpXpXpXpXpXpXpXpXpXpXpXpXpXpXpXpXpXpXpXpXpXpXpXpXpXpXpXpXpXpXpXpXpXpXpXpXpXpXpXpXpXpXpXpXpXpXpXpXpXpXpXpXpXpXpXpXpXpX(.(.(.(.l l l S j j j j j i i i i & & = =           *.*.*.*.hXhXhXhXY Y Y Y $ $ $ $ $ $ $ $ $ # # # # # X X + # # + X X X X X X X X X X # # # # # ; ; ; ; $ $ $ $ $ $ $ $ $ $ $ $ $ $ $ $ $ 1 1 1 2 1 1 1 % % % % % % ; ; % % q q e e % % % ; 1 5 2 2 2 Y Y Y Y 5 5 5 5 5 1 1 1 1 1 1 1 1 $ $ $ $ % % % % % $ $ $ $ 1 1 1 1 % % % % % % % % % $ $ $ $ # # # # X X X X X X X X X X X X X X X X X X X X X X X X X X X X X X                           X X X       X X   pXpXpXpXpXpXpXpXpXpXpXpXpXpXpXpXpXpXpXpXpXpXpXpXpXpXpXpXpXpXpXpXpXpXpXpXpXpXpXpXpX",
"pXpXpXpXpXpXpXpXpXpXpXpXpXpXpXpXpXpXpXpXpXpXpXpXpXpXpXpXpXpXpXpXpXpXpXpXpXpXpXpXpXpXpXpXpXpXpXpXpXpXpXpXpXpXpXpXpXpXpXpXpXpXpXpXpXpXpXpXpXpXpXpXpXpXpXpXpXpXpXpXpXpXpXpXpXpXpXpXpXpXpXpXpXpXpXpXpXpXpXpXpXpXpXpXpXpXpXpXpXpXpXpXpXpXpXpXpXpXpXpXpXpXpXpXpXpXpX(.(.(.(.l l l S d j j j j i i i i & & = =           *.*.*.*.hXhXhXhXY Y Y Y $ $ $ $ $ $ $ $ $ # # # # # + # # # + X X X X X X X X X X X # # # # # ; ; ; ; $ $ $ $ $ $ $ % $ $ $ $ $ $ $ $ $ 1 1 1 1 1 1 ; % % % % % % ; ; % ; q q e q % % % 1 1 5 2 2 2 Y Y Y Y 5 5 5 5 5 1 1 1 1 1 1 1 1 $ $ $ $ % % % % % $ $ $ $ 1 1 1 1 % % % % % % % % % $ $ $ $ # # # # X X X X X X X X X X X X X X X X X X + # X X X X X X X X X X                           X X X X       X X pXpXpXpXpXpXpXpXpXpXpXpXpXpXpXpXpXpXpXpXpXpXpXpXpXpXpXpXpXpXpXpXpXpXpXpXpXpXpXpXpX",
"pXpXpXpXpXpXpXpXpXpXpXpXpXpXpXpXpXpXpXpXpXpXpXpXpXpXpXpXpXpXpXpXpXpXpXpXpXpXpXpXpXpXpXpXpXpXpXpXpXpXpXpXpXpXpXpXpXpXpXpXpXpXpXpXpXpXpXpXpXpXpXpXpXpXpXpXpXpXpXpXpXpXpXpXpXpXpXpXpXpXpXpXpXpXpXpXpXpXpXpXpXpXpXpXpXpXpXpXpXpXpXpXpXpXpXpXpXpXpXpXpXpXpXpXpXpXpX(.(.(.(.S l l l d j j j j i i i i & = = =           *.*.*.*.hXhXhXhXY Y Y Y $ $ $ $ $ $ $ $ $ # # # # # # # # # + # # + X X X X X X X X # # # # # ; ; ; ; $ $ $ $ $ $ % % $ $ $ $ $ $ $ $ $ 1 2 1 1 ; ; ; % % % % % % ; ; % % q q e e % % % % 1 5 2 2 2 Y Y Y Y 5 5 5 5 5 1 1 1 1 1 1 1 1 $ $ $ $ % % % % % $ $ $ $ 1 1 1 1 % ; ; % % % % % % $ $ $ $ # # # # X X X X X X X X X X X X X X X X X X # # # # X X X X X X X X                   . . .   X X X X           pXpXpXpXpXpXpXpXpXpXpXpXpXpXpXpXpXpXpXpXpXpXpXpXpXpXpXpXpXpXpXpXpXpXpXpXpXpXpXpXpX",
"pXpXpXpXpXpXpXpXpXpXpXpXpXpXpXpXpXpXpXpXpXpXpXpXpXpXpXpXpXpXpXpXpXpXpXpXpXpXpXpXpXpXpXpXpXpXpXpXpXpXpXpXpXpXpXpXpXpXpXpXpXpXpXpXpXpXpXpXpXpXpXpXpXpXpXpXpXpXpXpXpXpXpXpXpXpXpXpXpXpXpXpXpXpXpXpXpXpXpXpXpXpXpXpXpXpXpXpXpXpXpXpXpXpXpXpXpXpXpXpXpXpXpXpXpXpXpX(.(.(.(.S l l l d j j j j i i i i & = = =           *.*.*.*.hXhXhXhXY Y Y Y $ $ $ $ $ $ $ $ $ # # # # # # # # # # # # # X X X X X X X X # # # # # ; ; ; ; $ $ $ $ $ $ % % % $ $ $ $ $ $ $ $ 1 2 2 1 % ; ; % % % % % % ; ; ; % q q e e % % % % 1 5 2 2 2 Y Y Y Y 5 5 5 5 5 1 1 1 1 1 1 1 1 $ $ $ $ % % % % % $ $ $ $ 1 1 1 1 ; ; ; % % % % % % $ $ $ $ # # # # X X X X X X X X X X X X X X X X X X # # # # X X X X X X X X                   . . .   X X X X         X pXpXpXpXpXpXpXpXpXpXpXpXpXpXpXpXpXpXpXpXpXpXpXpXpXpXpXpXpXpXpXpXpXpXpXpXpXpXpXpXpX",
"pXpXpXpXpXpXpXpXpXpXpXpXpXpXpXpXpXpXpXpXpXpXpXpXpXpXpXpXpXpXpXpXpXpXpXpXpXpXpXpXpXpXpXpXpXpXpXpXpXpXpXpXpXpXpXpXpXpXpXpXpXpXpXpXpXpXpXpXpXpXpXpXpXpXpXpXpXpXpXpXpXpXpXpXpXpXpXpXpXpXpXpXpXpXpXpXpXpXpXpXpXpXpXpXpXpXpXpXpXpXpXpXpXpXpXpXpXpXpXpXpXpXpXpXpXqXqXqXpXpXpXg.g.g.g.j j j j j i i i i o o o o           _ _ %.%.bXbXbXbX^ ^ ^ Q 1 2 2 2 2 # # # # # # # # # # # # X # # # X X X X X # # # # # # # # # $ $ $ $ % % % % $ $ $ $ % % % $ $ $ % % $ % % % % 1 1 1 1 1 1 1 1 1 % % % % 1 1 2 1 % % % % % 1 1 1 1 5 5 5 5 e e e e e % % % % $ $ $ $ 1 1 1 1 $ % % % % % % % % % % % % ; ; ; ; $ $ $ $ $ $ $ # # # # # # # # # # # X X X + X     X X     X X X X X X X X X X q q q q                           .     .           X X X X pXpXpXpXpXpXpXpXpXpXpXpXpXpXpXpXpXpXpXpXpXpXpXpXpXpXpXpXpXpXpXpXpXpXpXpXpX",
"pXpXpXpXpXpXpXpXpXpXpXpXpXpXpXpXpXpXpXpXpXpXpXpXpXpXpXpXpXpXpXpXpXpXpXpXpXpXpXpXpXpXpXpXpXpXpXpXpXpXpXpXpXpXpXpXpXpXpXpXpXpXpXpXpXpXpXpXpXpXpXpXpXpXpXpXpXpXpXpXpXpXpXpXpXpXpXpXpXpXpXpXpXpXpXpXpXpXpXpXpXpXpXpXpXpXpXpXpXpXpXpXpXpXpXpXpXpXpXpXpXpXpXpXwXqXpXqXpXpXpXg.g.g.g.j j j j j i i i i o o o o           _ _ %.%.bXbXbXbX^ ^ ^ Q 1 2 2 2 2 # # # # # # # # # # # # X # # # X X X X X # # # # # # # # # $ $ $ $ % % % % $ $ $ $ $ $ % % $ $ % % $ % % % % 1 1 1 1 1 1 1 1 1 % % % % 1 1 2 1 % % % % % 1 1 1 1 5 5 5 5 e e e e e % % % % $ $ $ $ 1 1 1 1 $ $ $ % $ % % % % % % % % ; ; ; ; $ $ $ $ $ $ $ # # # # # # # # # # # X X X X X     X X       X X X X X X X X X q q q q                           X                 X X X X pXpXpXpXpXpXpXpXpXpXpXpXpXpXpXpXpXpXpXpXpXpXpXpXpXpXpXpXpXpXpXpXpXpXpXpXpX",
"pXpXpXpXpXpXpXpXpXpXpXpXpXpXpXpXpXpXpXpXpXpXpXpXpXpXpXpXpXpXpXpXpXpXpXpXpXpXpXpXpXpXpXpXpXpXpXpXpXpXpXpXpXpXpXpXpXpXpXpXpXpXpXpXpXpXpXpXpXpXpXpXpXpXpXpXpXpXpXpXpXpXpXpXpXpXpXpXpXpXpXpXpXpXpXpXpXpXpXpXpXpXpXpXpXpXpXpXpXpXpXpXpXpXpXpXpXpXpXpXpXpXpXpXpXpXqXqXpXpXpXg.g.g.g.j j j j j i i i i o o o o           _ ( ( %.bXbXbXbX^ ^ ^ Q 2 2 2 2 2 # # # # # # # # # # # # # # # # + X X X X # # # # # # # # # # # $ $ ; % 1 1 $ $ $ $ $ $ $ $ $ $ % % $ % % % % 1 1 1 1 1 1 1 1 1 % % % % 1 1 1 1 % % % % % 1 1 1 1 5 5 5 5 e e e e e % % % % $ $ $ $ 1 1 1 1 $ $ $ $ $ % % % % % % % % ; ; ; ; % $ $ $ $ $ $ # # # # # # # # # # # X X X X X     X X X X X X X X X X X X X X q q q q                           X X X .           X X X X pXpXpXpXpXpXpXpXpXpXpXpXpXpXpXpXpXpXpXpXpXpXpXpXpXpXpXpXpXpXpXpXpXpXpXpXpX",
"pXpXpXpXpXpXpXpXpXpXpXpXpXpXpXpXpXpXpXpXpXpXpXpXpXpXpXpXpXpXpXpXpXpXpXpXpXpXpXpXpXpXpXpXpXpXpXpXpXpXpXpXpXpXpXpXpXpXpXpXpXpXpXpXpXpXpXpXpXpXpXpXpXpXpXpXpXpXpXpXpXpXpXpXpXpXpXpXpXpXpXpXpXpXpXpXpXpXpXpXpXpXpXpXpXpXpXpXpXpXpXpXpXpXpXpXpXpXpXpXpXpXpXpXpXpXpXpXpXpXpXg.g.g.g.j j j j j i i i i o o o o           ( ( ( _ bXbXbXbX^ ^ ^ Q 1 2 2 2 2 # # # # # # # # # # # # # # # # X X X X X # X # # # # # # # # # # $ 1 1 1 1 $ $ $ $ $ $ $ $ $ $ $ $ $ % % % % 1 1 1 1 1 1 1 1 1 % % % % 1 1 1 1 % % % % % 1 1 1 1 5 5 5 5 e e e e e % % % % $ $ $ $ 1 1 1 1 $ $ $ $ $ % % % % % % % % ; ; ; ; % $ $ $ $ $ $ # # # # # # # # # # # X X X X X     X X X X   X X X X X X X X X q q q q                           X X X X     .     X X X X pXpXpXpXpXpXpXpXpXpXpXpXpXpXpXpXpXpXpXpXpXpXpXpXpXpXpXpXpXpXpXpXpXpXpXpXpX",
"pXpXpXpXpXpXpXpXpXpXpXpXpXpXpXpXpXpXpXpXpXpXpXpXpXpXpXpXpXpXpXpXpXpXpXpXpXpXpXpXpXpXpXpXpXpXpXpXpXpXpXpXpXpXpXpXpXpXpXpXpXpXpXpXpXpXpXpXpXpXpXpXpXpXpXpXpXpXpXpXpXpXpXpXpXpXpXpXpXpXpXpXpXpXpXpXpXpXpXpXpXpXpXpXpXpXpXpXpXpXpXpXpXpXpXpXpXpXpXpXpXpXpXpXpXpXpXpXpXpXpXpXpXpXpXD D D D D i i i i = = = =           %.%.%.%.hXhXkXhX( ( ( ( 5 5 5 5 5 # # # $ $ $ # # # # # # # # + # # # X X X X X X # # # X X X # # # # % % 1 1 $ $ $ $ $ $ $ $ $ % % $ $ % % % % $ $ $ $ $ ; ; ; ; ; ; % ; ; ; % ; % % % % % 2 2 2 2 1 1 1 1 % % % % % $ $ $ $ % % % % ; ; ; ; % % % % % $ $ $ $ 1 ; % % ; ; 1 ; $ $ $ $ $ # # # # # # # # # # # # # # # # # X X X X X X X X           X X X X X X X X # # # # #                         X X .     . X X X X X X X X X X X X pXpXpXpXpXpXpXpXpXpXpXpXpXpXpXpXpXpXpXpXpXpXpXpXpXpXpXpX",
"pXpXpXpXpXpXpXpXpXpXpXpXpXpXpXpXpXpXpXpXpXpXpXpXpXpXpXpXpXpXpXpXpXpXpXpXpXpXpXpXpXpXpXpXpXpXpXpXpXpXpXpXpXpXpXpXpXpXpXpXpXpXpXpXpXpXpXpXpXpXpXpXpXpXpXpXpXpXpXpXpXpXpXpXpXpXpXpXpXpXpXpXpXpXpXpXpXpXpXpXpXpXpXpXpXpXpXpXpXpXpXpXpXpXpXpXpXpXpXpXpXpXpXpXpXpXpXpXpXpXpXpXpXpXpXD D D D D i i i i = = = =           %.%.%.%.hXhXhXhX( ( ( ( 5 5 5 5 5 # # # $ $ $ # # # # # # # # X # # # + X X + X X # # # # X X # # # # % % 1 1 $ $ $ $ $ $ $ $ $ $ $ $ $ % % % % $ $ $ $ $ ; ; ; ; ; ; ; ; ; ; 1 1 % % % % % 2 2 2 2 1 ; ; 1 % % % % % $ $ $ $ % % % % ; ; ; ; % % % % % $ $ $ $ 1 ; % % ; ; 1 ; $ $ $ $ $ # # # # # # # # # # # # # # # # # X X X X X X X X           X X X X X X X X # # # # #                         X . .       X X X X X X X X X X X X pXpXpXpXpXpXpXpXpXpXpXpXpXpXpXpXpXpXpXpXpXpXpXpXpXpXpXpX",
"pXpXpXpXpXpXpXpXpXpXpXpXpXpXpXpXpXpXpXpXpXpXpXpXpXpXpXpXpXpXpXpXpXpXpXpXpXpXpXpXpXpXpXpXpXpXpXpXpXpXpXpXpXpXpXpXpXpXpXpXpXpXpXpXpXpXpXpXpXpXpXpXpXpXpXpXpXpXpXpXpXpXpXpXpXpXpXpXpXpXpXpXpXpXpXpXpXpXpXpXpXpXpXpXpXpXpXpXpXpXpXpXpXpXpXpXpXpXpXpXpXpXpXpXpXpXpXpXpXpXpXpXpXpXpXD D D D D i i i i = = = =           %.%.%.%.hXhXhXhX( ( ( ( 5 5 5 5 5 # # $ $ $ $ # # # # # # # # X X # # # # # # # + # # # # X X # # # # % % % ; $ $ $ $ $ $ $ $ $ $ $ $ $ % % % % $ $ $ $ $ ; ; ; ; ; ; ; % % ; 1 ; % % % % % 2 2 2 2 1 ; 1 1 % % % % % $ $ $ $ % % % % ; ; ; ; % % % % % $ $ $ $ 1 % % % % 1 1 ; $ $ $ $ $ # # # # # # # # # # # # # # # # # X X X X X . X X           X X X X X X X X # # # # #                         X         X X X X X X X X X X X X X pXpXpXpXpXpXpXpXpXpXpXpXpXpXpXpXpXpXpXpXpXpXpXpXpXpXpXpX",
"pXpXpXpXpXpXpXpXpXpXpXpXpXpXpXpXpXpXpXpXpXpXpXpXpXpXpXpXpXpXpXpXpXpXpXpXpXpXpXpXpXpXpXpXpXpXpXpXpXpXpXpXpXpXpXpXpXpXpXpXpXpXpXpXpXpXpXpXpXpXpXpXpXpXpXpXpXpXpXpXpXpXpXpXpXpXpXpXpXpXpXpXpXpXpXpXpXpXpXpXpXpXpXpXpXpXpXpXpXpXpXpXpXpXpXpXpXpXpXpXpXpXpXpXpXpXpXpXpXpXpXpXpXpXpXD D D D D i i i i = = = =           %.%.%.%.hXhXhXhX( ( ( ( 5 5 5 5 5 # # $ $ $ $ # $ # # # # # # X X # # # # # # # # # # # X X X # # # # % % % % $ $ $ $ $ $ $ $ $ $ $ $ $ % % % % $ $ $ $ $ ; ; ; ; ; ; ; ; ; ; 1 1 % % % % % 2 2 2 2 1 1 1 1 % % % % % % $ $ $ % % % % ; ; ; ; % % % % % $ $ $ $ 1 % % % % 1 1 ; $ $ $ $ $ # # # # # # # # # # # # # # # # # X X X X X   X .           X X X X X X X X # # # # #                                   X X X X X X X X X X X X X pXpXpXpXpXpXpXpXpXpXpXpXpXpXpXpXpXpXpXpXpXpXpXpXpXpXpXpX",
"pXpXpXpXpXpXpXpXpXpXpXpXpXpXpXpXpXpXpXpXpXpXpXpXpXpXpXpXpXpXpXpXpXpXpXpXpXpXpXpXpXpXpXpXpXpXpXpXpXpXpXpXpXpXpXpXpXpXpXpXpXpXpXpXpXpXpXpXpXpXpXpXpXpXpXpXpXpXpXpXpXpXpXpXpXpXpXpXpXpXpXpXpXpXpXpXpXpXpXpXpXpXpXpXpXpXpXpXpXpXpXpXpXpXpXpXpXpXpXpXpXpXpXpXpXpXpXpXpXpXpXpXpXpXpXW W W W W u u u g o o o o           ^ ^ / / bXbXbXbX%.%.%.%.5 5 5 2 2 # # # # $ $ $ $ # # # # X X X + + # # # # X X X X X X X X X # # # # # # # # $ $ $ $ 5 5 5 5 5 $ $ $ $ $ $ $ $ 1 1 1 1 1 $ $ $ $ 2 2 2 2 % % % % 1 1 1 1 1 1 1 1 1 2 2 2 2 1 2 2 2 1 % % % % $ $ $ % $ $ $ $ $ $ $ $ $ % % % % ; ; ; % % % % % % % % % % # # # # # # # # # # # # # # # # # X # # # X X X X X X X X X X X X X X X X X X X X X X # # # X                                   X X   X X X X X X         pXpXpXpXpXpXpXpXpXpXpXpXpXpXpXpXpXpXpXpXpXpXpXpX",
"pXpXpXpXpXpXpXpXpXpXpXpXpXpXpXpXpXpXpXpXpXpXpXpXpXpXpXpXpXpXpXpXpXpXpXpXpXpXpXpXpXpXpXpXpXpXpXpXpXpXpXpXpXpXpXpXpXpXpXpXpXpXpXpXpXpXpXpXpXpXpXpXpXpXpXpXpXpXpXpXpXpXpXpXpXpXpXpXpXpXpXpXpXpXpXpXpXpXpXpXpXpXpXpXpXpXpXpXpXpXpXpXpXpXpXpXpXpXpXpXpXpXpXpXpXpXpXpXpXpXpXpXpXpXpXW W W W W u u u g o o o o           ^ ^ ^ / bXbXbXbX%.%.%.%.5 5 5 2 2 # # # # $ $ $ $ # # # # X X X X # # # # # X X X X X X X X X # # # # # # # # $ $ $ $ 5 5 5 5 5 $ $ $ $ $ $ $ $ 1 1 1 1 1 $ $ $ $ 2 2 2 2 % % % % 1 1 1 1 1 1 1 1 1 2 2 2 2 1 2 2 1 1 % % % % $ % % % $ $ $ $ $ $ $ $ $ % % % % ; % % % % % % % % % % % % # # # # # # # # # # # # # # # # # X # # # X X X X X X X X X X X X X X X X X X X X X X # # # X                                   X X   . X X X X X         pXpXpXpXpXpXpXpXpXpXpXpXpXpXpXpXpXpXpXpXpXpXpXpX",
"pXpXpXpXpXpXpXpXpXpXpXpXpXpXpXpXpXpXpXpXpXpXpXpXpXpXpXpXpXpXpXpXpXpXpXpXpXpXpXpXpXpXpXpXpXpXpXpXpXpXpXpXpXpXpXpXpXpXpXpXpXpXpXpXpXpXpXpXpXpXpXpXpXpXpXpXpXpXpXpXpXpXpXpXpXpXpXpXpXpXpXpXpXpXpXpXpXpXpXpXpXpXpXpXpXpXpXpXpXpXpXpXpXpXpXpXpXpXpXpXpXpXpXpXpXpXpXpXpXpXpXpXpXpXpXW W W W W u u u u o o o o           ^ ^ ^ / bXbXbXbX%.%.%.%.5 2 2 2 2 # # # # $ $ $ $ # # # # # X # # # # # # X X X X X X X X X X # # # # # # # # # # $ $ 5 5 5 5 5 $ % % $ $ $ $ $ 1 1 1 1 1 $ $ $ $ 2 2 2 2 % % % % 1 1 1 1 1 1 1 1 1 2 2 2 2 1 1 1 1 1 % % % % $ $ $ $ $ $ $ $ $ $ $ $ $ % % % % % % ; % % % % % % % % % % # # # # # # # # # # # # # # # # # + # # # X X X X X X X     X X X X X X X X X X X X X # # # X                                   X X     X X X X X         pXpXpXpXpXpXpXpXpXpXpXpXpXpXpXpXpXpXpXpXpXpXpXpX",
"pXpXpXpXpXpXpXpXpXpXpXpXpXpXpXpXpXpXpXpXpXpXpXpXpXpXpXpXpXpXpXpXpXpXpXpXpXpXpXpXpXpXpXpXpXpXpXpXpXpXpXpXpXpXpXpXpXpXpXpXpXpXpXpXpXpXpXpXpXpXpXpXpXpXpXpXpXpXpXpXpXpXpXpXpXpXpXpXpXpXpXpXpXpXpXpXpXpXpXpXpXpXpXpXpXpXpXpXpXpXpXpXpXpXpXpXpXpXpXpXpXpXpXpXpXpXpXpXpXpXpXpXpXpXpXW W W W W u u u u o o o o           ^ ^ ^ / bXbXbXbX%.%.%.%.2 2 2 2 2 # # # # $ $ $ $ # # # # # # # # # # + X X X X X X X X X X X # # # # # # # # # # $ $ 5 5 5 5 5 $ $ % % $ $ $ $ 1 1 1 1 1 $ $ $ $ 2 2 2 2 % % % % 1 1 1 1 1 1 1 1 1 2 2 2 2 1 1 1 1 1 % % % % $ $ $ $ $ $ $ $ $ $ $ $ $ % % % % % ; ; % % % % % % % % % % # # # # # # # # # # # # # # # # # # # # # X X X X X X . .   X X X X X X X X X X X X X # # # X                                   X .     X X X X X         pXpXpXpXpXpXpXpXpXpXpXpXpXpXpXpXpXpXpXpXpXpXpXpX",
"pXpXpXpXpXpXpXpXpXpXpXpXpXpXpXpXpXpXpXpXpXpXpXpXpXpXpXpXpXpXpXpXpXpXpXpXpXpXpXpXpXpXpXpXpXpXpXpXpXpXpXpXpXpXpXpXpXpXpXpXpXpXpXpXpXpXpXpXpXpXpXpXpXpXpXpXpXpXpXpXpXpXpXpXpXpXpXpXpXpXpXpXpXpXpXpXpXpXpXpXpXpXpXpXpXpXpXpXpXpXpXpXpXpXpXpXpXpXpXpXpXpXpXpXpXpXpXpXpXpXpXpXpXpXpXW W W W W u u u u o o o o           / / ^ / bXbXbXbX%.%.%.%.5 5 5 2 5 # # # # $ $ $ $ # # # # # # X X X X + # # X X X X X X X X X # # # # # # # # $ $ $ $ 5 5 5 5 5 % % $ $ $ $ $ $ 1 1 1 1 1 $ $ $ $ 2 2 2 2 % % % % 1 1 1 1 1 1 1 1 1 2 2 2 2 1 1 1 1 1 % % % % $ $ $ $ $ $ $ $ $ $ $ $ $ % % % % ; ; ; ; % % % % % % % % % # # # # # # # # # # # # # # # # # # # # # X X X X X X X X X X X X X X X X X X X X X X # # # #                                   X X X X X X X X X         pXpXpXpXpXpXpXpXpXpXpXpXpXpXpXpXpXpXpXpXpXpXpXpX",
"pXpXpXpXpXpXpXpXpXpXpXpXpXpXpXpXpXpXpXpXpXpXpXpXpXpXpXpXpXpXpXpXpXpXpXpXpXpXpXpXpXpXpXpXpXpXpXpXpXpXpXpXpXpXpXpXpXpXpXpXpXpXpXpXpXpXpXpXpXpXpXpXpXpXpXpXpXpXpXpXpXpXpXpXpXpXpXpXpXpXpXpXpXpXpXpXpXpXpXpXpXpXpXpXpXpXpXpXpXpXpXpXpXpXpXpXpXpXpXpXpXpXpXpXpXpXpXpXpXpXpXP.P.P.P.k k k k k u u u u * * * *           E E E E dXdXdXdX^ ^ ^ / 5 5 5 5 5 # # # # # # # # # # # # # # X X X X # # # X X X X X X X X X # # # # # # # # $ $ $ $ $ $ $ $ $ 2 2 2 2 % % % % 2 2 2 2 2 5 5 5 5 ; ; ; % $ $ $ $ 1 1 1 1 1 5 5 5 5 $ $ $ $ $ $ $ $ $ $ $ $ $ # $ $ $ $ $ $ $ % % % % % $ $ $ % % $ % $ 1 1 1 1 % % % % % $ $ $ $ $ # $ $ # # # # # # # # # $ $ $ $ # # # # X X X X X X X X   X X X X X X X X X       X         X X X X                   X X     # # # # # # # # # $ $ $ $ # # # # pXpXpXpXpXpXpXpXpXpXpXpXpXpXpXpX",
"pXpXpXpXpXpXpXpXpXpXpXpXpXpXpXpXpXpXpXpXpXpXpXpXpXpXpXpXpXpXpXpXpXpXpXpXpXpXpXpXpXpXpXpXpXpXpXpXpXpXpXpXpXpXpXpXpXpXpXpXpXpXpXpXpXpXpXpXpXpXpXpXpXpXpXpXpXpXpXpXpXpXpXpXpXpXpXpXpXpXpXpXpXpXpXpXpXpXpXpXpXpXpXpXpXpXpXpXpXpXpXpXpXpXpXpXpXpXpXpXpXpXpXpXpXpXpXpXpXpXpXP.P.P.P.k k k k k u u u u * * * *           E E E E dXdXdXdX/ ^ ^ ^ 5 5 5 5 5 # # # # # # # # # # # # # # + X # # # # # X X X X X X X X X # # # # $ $ # # $ $ $ $ $ $ $ $ $ 2 2 2 2 % % % % 2 2 2 2 2 5 5 5 5 % ; ; ; $ $ $ $ 1 1 1 1 1 5 5 5 5 $ $ $ $ $ $ $ $ $ $ $ $ $ $ $ $ $ $ $ $ $ % % % % % $ $ $ $ $ $ $ $ 1 1 1 1 % % % % % $ $ $ $ # # # # # # # # # # # # # $ $ $ $ # # # # X X X X X X           X X . X     X       X X X     X X X X                   X X . . # # # # # # # # # $ $ $ $ # # # # pXpXpXpXpXpXpXpXpXpXpXpXpXpXpXpX",
"pXpXpXpXpXpXpXpXpXpXpXpXpXpXpXpXpXpXpXpXpXpXpXpXpXpXpXpXpXpXpXpXpXpXpXpXpXpXpXpXpXpXpXpXpXpXpXpXpXpXpXpXpXpXpXpXpXpXpXpXpXpXpXpXpXpXpXpXpXpXpXpXpXpXpXpXpXpXpXpXpXpXpXpXpXpXpXpXpXpXpXpXpXpXpXpXpXpXpXpXpXpXpXpXpXpXpXpXpXpXpXpXpXpXpXpXpXpXpXpXpXpXpXpXpXpXpXpXpXpXpXP.P.P.P.k k k k k u u u u * * * *           E E E E dXdXdXdX/ ^ ^ ^ 5 5 5 5 5 # # # # # # # # # # # # # # # # # # # # # X X X X X X X X X # # # # $ $ # # $ $ $ $ $ $ $ $ $ 2 2 2 2 % % % % 2 2 2 2 2 5 5 5 5 % % ; ; $ $ $ $ 1 1 1 1 1 5 5 5 5 $ $ $ $ $ $ $ $ $ $ $ $ $ $ $ $ $ $ $ $ $ % % % % % $ $ $ $ $ $ $ $ 1 1 1 1 % % % % % $ $ $ $ # # # # # # # # # # # # # $ $ $ $ # # # # X X X X X .         X X X         X X               X X X X                   X X X X # # # # # # # # # $ $ $ $ # # # # pXpXpXpXpXpXpXpXpXpXpXpXpXpXpXpX",
"pXpXpXpXpXpXpXpXpXpXpXpXpXpXpXpXpXpXpXpXpXpXpXpXpXpXpXpXpXpXpXpXpXpXpXpXpXpXpXpXpXpXpXpXpXpXpXpXpXpXpXpXpXpXpXpXpXpXpXpXpXpXpXpXpXpXpXpXpXpXpXpXpXpXpXpXpXpXpXpXpXpXpXpXpXpXpXpXpXpXpXpXpXpXpXpXpXpXpXpXpXpXpXpXpXpXpXpXpXpXpXpXpXpXpXpXpXpXpXpXpXpXpXpXpXpXpXpXpXpXpXP.P.P.P.k k k k k u u u u * * * *           E E E E dXdXdXdX^ ^ ^ ^ 5 5 5 5 5 # # # # # # # # # # # # X X # # # # # # # X X X X X X X X X # # # # $ $ $ $ $ $ $ $ $ $ $ $ $ 2 2 2 2 % % % % 2 2 2 2 2 5 5 5 5 % % ; ; $ $ $ $ 1 1 1 1 1 5 5 5 5 $ $ $ $ $ $ $ $ $ $ $ $ $ $ $ $ $ $ $ $ $ % % % % % $ $ % $ $ $ $ $ 1 1 1 1 % % % % % $ $ $ $ $ $ # # # # # # # # # # # $ $ $ $ # # # # X X X X X X X X X .   X X X X     X                 X X X X                           # # # # # # # # # $ $ $ $ # # # # pXpXpXpXpXpXpXpXpXpXpXpXpXpXpXpX",
"pXpXpXpXpXpXpXpXpXpXpXpXpXpXpXpXpXpXpXpXpXpXpXpXpXpXpXpXpXpXpXpXpXpXpXpXpXpXpXpXpXpXpXpXpXpXpXpXpXpXpXpXpXpXpXpXpXpXpXpXpXpXpXpXpXpXpXpXpXpXpXpXpXpXpXpXpXpXpXpXpXpXpXpXpXpXpXpXpXpXpXpXpXpXpXpXpXpXpXpXpXpXpXpXpXpXpXpXpXpXpXpXpXpXpXpXpXpXpXpXpXpXpXpXpXpXpXpXpXpXpXG.G.G.G.f.f.f.f.f.p p p p = = = =           Y Y Y Y dXdXdXdX*.*.*.*.5 5 5 5 5 # # # # + # X X # # # # # # # # # # # # # # # # # # X X # # # # # # # # # # $ $ $ $ $ $ $ $ $ $ $ $ $ 2 2 2 2 $ $ $ $ $ 2 2 2 2 2 2 2 2 1 1 1 1 % % ; ; ; % % % % $ $ $ $ $ $ $ $ $ # # # # # # # # $ $ $ # $ $ $ $ $ $ % % $ $ $ $ $ % % % % 2 2 2 2 2 % % 1 1 % % % % # # # # # # # # # # # # # + # # # # # # # # X X X X         X X . X X         X               # # # # #                 # # # # # # # # # X + + + # # # # # X # # # pXpXpXpXpXpXpXpXpXpXpX",
"pXpXpXpXpXpXpXpXpXpXpXpXpXpXpXpXpXpXpXpXpXpXpXpXpXpXpXpXpXpXpXpXpXpXpXpXpXpXpXpXpXpXpXpXpXpXpXpXpXpXpXpXpXpXpXpXpXpXpXpXpXpXpXpXpXpXpXpXpXpXpXpXpXpXpXpXpXpXpXpXpXpXpXpXpXpXpXpXpXpXpXpXpXpXpXpXpXpXpXpXpXpXpXpXpXpXpXpXpXpXpXpXpXpXpXpXpXpXpXpXpXpXpXpXpXpXpXpXpXpXpXG.G.G.G.f.f.f.f.f.p p p p = = = =           Y Y Y Y dXdXdXdX*.*.*.*.5 5 5 5 5 # # # # X X X X # # # # # # # # # X X X # # # # # # X X + # + + # # # # # # $ $ $ $ $ $ $ $ $ $ $ $ $ 2 2 2 2 $ $ $ $ $ 2 2 2 2 2 2 2 2 1 1 1 1 ; ; ; ; ; % % % % $ $ $ $ $ $ $ $ $ # # # # # # # # $ $ # # $ $ $ $ $ $ % $ $ $ $ $ $ % % % % 2 2 2 2 2 1 ; 1 1 % % % % # # # # # # # # # # # # # + + + # # # # # # X X X X         X X X X X         X   X X         # # # # #                 # # # # # # # # # X + + + # # # # # X X # # pXpXpXpXpXpXpXpXpXpXpX",
"pXpXpXpXpXpXpXpXpXpXpXpXpXpXpXpXpXpXpXpXpXpXpXpXpXpXpXpXpXpXpXpXpXpXpXpXpXpXpXpXpXpXpXpXpXpXpXpXpXpXpXpXpXpXpXpXpXpXpXpXpXpXpXpXpXpXpXpXpXpXpXpXpXpXpXpXpXpXpXpXpXpXpXpXpXpXpXpXpXpXpXpXpXpXpXpXpXpXpXpXpXpXpXpXpXpXpXpXpXpXpXpXpXpXpXpXpXpXpXpXpXpXpXpXpXpXpXpXpXpXpXG.G.G.G.f.f.f.f.f.p p p p = = = =           Y Y Y Y dXdXdXfX*.*.*.*.5 5 5 5 5 # # # # X X X X # # # # # # # # # X X X # # # # # # X X # # X + # # # # # # $ $ $ $ $ $ $ $ $ $ $ $ $ 2 2 2 2 $ $ $ $ $ 2 2 2 2 2 2 2 2 1 1 1 1 ; ; ; ; ; % % % % $ $ $ $ $ $ $ $ $ # # # # # # # # $ $ # # $ $ $ $ $ $ $ $ $ $ $ $ $ % % % % 2 2 2 2 2 1 1 1 1 % % % % # # # # # # # # # # # # # X + + + # # # # # X X X X         X X X X X             X X         # # # # #                 # # # # # # # # # + + + + # # # # + X X # # pXpXpXpXpXpXpXpXpXpXpX",
"pXpXpXpXpXpXpXpXpXpXpXpXpXpXpXpXpXpXpXpXpXpXpXpXpXpXpXpXpXpXpXpXpXpXpXpXpXpXpXpXpXpXpXpXpXpXpXpXpXpXpXpXpXpXpXpXpXpXpXpXpXpXpXpXpXpXpXpXpXpXpXpXpXpXpXpXpXpXpXpXpXpXpXpXpXpXpXpXpXpXpXpXpXpXpXpXpXpXpXpXpXpXpXpXpXpXpXpXpXpXpXpXpXpXpXpXpXpXpXpXpXpXpXpXpXpXpXpXpXpXpXG.G.G.G.f.f.f.f.f.p p p p = = = = . . . .   Y Y Y Y fXdXdXdX*.*.*.*.5 5 5 5 5 # # # # X X X + # # # # # # # # # # + X + # # # # # X # # # X X # # # # # # # # # # $ $ $ $ $ $ $ $ $ 2 2 2 2 $ $ $ $ $ 2 2 2 2 2 2 2 2 1 1 1 1 ; ; ; ; ; % % % % $ $ $ $ # $ $ $ $ # # # # # # # # # # # # $ $ $ $ $ $ $ $ $ $ $ $ $ % % % % 2 2 2 2 2 1 1 % % $ $ $ $ # # # # # # # # # # # # # # # # # # # # # # X X X X         X X X X X               X X X X X # # # # #                 # # # # # # # # # + X X + # # # # # # # # # pXpXpXpXpXpXpXpXpXpXpX",
"pXpXpXpXpXpXpXpXpXpXpXpXpXpXpXpXpXpXpXpXpXpXpXpXpXpXpXpXpXpXpXpXpXpXpXpXpXpXpXpXpXpXpXpXpXpXpXpXpXpXpXpXpXpXpXpXpXpXpXpXpXpXpXpXpXpXpXpXpXpXpXpXpXpXpXpXpXpXpXpXpXpXpXpXpXpXpXpXpXpXpXpXpXpXpXpXpXpXpXpXpXpXpXpXpXpXpXpXpXpXpXpXpXpXpXpXpXpXpXpXpXpXpXpXpXpXpXpXpXpXpXS.S.S.S.A.A.A.A.A.j j j j = = = = . . . .   e e e e hXhXhXhX*.*.*.*.e e e e e # # # # X X X + # # # # # # # # # # # # # # # # # X X # # # X X X X # # # # + + + + 2 2 2 2 2 $ $ $ $ # # # # 1 1 1 1 1 ; ; % % ; ; ; 1 2 2 2 2 % % % % % # # # # $ $ $ $ # # # # # # # # # # # # # # # # # # # # # # # # # # # $ $ $ % % % % % % % % % 5 5 5 5 2 2 2 2 1 1 2 2 2 % % % % % % % % # # # # % % % % % $ $ $ $ # # # # X X X + # X X X X           X X             X X X X X X X X           $ $ $ $ + X + + X X X X + X X # # # # # # pXpXpXpXpXpXpX",
"pXpXpXpXpXpXpXpXpXpXpXpXpXpXpXpXpXpXpXpXpXpXpXpXpXpXpXpXpXpXpXpXpXpXpXpXpXpXpXpXpXpXpXpXpXpXpXpXpXpXpXpXpXpXpXpXpXpXpXpXpXpXpXpXpXpXpXpXpXpXpXpXpXpXpXpXpXpXpXpXpXpXpXpXpXpXpXpXpXpXpXpXpXpXpXpXpXpXpXpXpXpXpXpXpXpXpXpXpXpXpXpXpXpXpXpXpXpXpXpXpXpXpXpXpXpXpXpXpXpXpXS.S.S.S.A.A.A.A.A.j j j j = = = =     .     e e e e hXhXhXhX*.*.*.*.e e e e e # # # # # # # # # # # # # # # # # # # # # X # # X X + # # # X X X X X # # # + + + # 2 2 2 2 2 $ $ $ $ # # # # 1 1 1 1 1 ; ; % % % ; % % 2 2 2 2 % % % % % # # # # $ $ $ $ # # # # # # # # # # # # # # # # # # # # # # # # # # $ $ $ # % % % % % % % % % 5 5 5 5 2 2 2 2 1 1 2 1 2 % % % % % % % % # # # # % % % % % $ $ $ $ # # + # X X # # # X X X X                           X X X X X X X X           $ $ $ $ + + + + X X X X + X X X X # # # # pXpXpXpXpXpXpX",
"pXpXpXpXpXpXpXpXpXpXpXpXpXpXpXpXpXpXpXpXpXpXpXpXpXpXpXpXpXpXpXpXpXpXpXpXpXpXpXpXpXpXpXpXpXpXpXpXpXpXpXpXpXpXpXpXpXpXpXpXpXpXpXpXpXpXpXpXpXpXpXpXpXpXpXpXpXpXpXpXpXpXpXpXpXpXpXpXpXpXpXpXpXpXpXpXpXpXpXpXpXpXpXpXpXpXpXpXpXpXpXpXpXpXpXpXpXpXpXpXpXpXpXpXpXpXpXpXpXpXpXS.S.S.S.A.A.A.A.A.j j j j = = = =           e e e e hXhXhXhX*.*.*.*.e e e e e # # # # # # + # # # # # # # # # # # # # # + # # X X X X # # X X X X X # # # + + + # 2 2 2 2 2 $ $ $ $ # # # # 1 1 1 1 1 ; ; ; % % % % % 2 2 2 2 % % % % % # # # # $ $ $ $ # # # # # # # # # # # # # # # # # # # # # # # # # # $ $ $ # % % % % % % % % % 5 5 5 5 2 2 2 2 1 1 1 1 2 % % % % % % % % # # # # % % % % % $ $ $ $ # # X X X X # # # X X X X                           X X X X X X X X           $ $ $ $ X + + + X X X X X X X X X # # # # pXpXpXpXpXpXpX",
"pXpXpXpXpXpXpXpXpXpXpXpXpXpXpXpXpXpXpXpXpXpXpXpXpXpXpXpXpXpXpXpXpXpXpXpXpXpXpXpXpXpXpXpXpXpXpXpXpXpXpXpXpXpXpXpXpXpXpXpXpXpXpXpXpXpXpXpXpXpXpXpXpXpXpXpXpXpXpXpXpXpXpXpXpXpXpXpXpXpXpXpXpXpXpXpXpXpXpXpXpXpXpXpXpXpXpXpXpXpXpXpXpXpXpXpXpXpXpXpXpXpXpXpXpXpXpXpXpXpXpXS.S.S.S.A.A.A.A.A.j j j j = = = =           e e e v hXhXhXhX*.&.&.*.e e e e e # # # # # # X X # # # # # # # # # # # # # # # # X X # # # # X X X X + # + X # # # # 2 2 2 2 2 $ $ $ $ # # # # 1 1 1 1 1 ; ; % % ; ; % % 2 2 2 2 % % % % % # # # # $ $ $ $ # # # # # # # # # # # # # # # # # # # # # # # # # # $ $ $ # % % % % % % % % % 5 5 5 5 2 2 2 2 1 1 1 1 1 % % % % % % % % # # # # % % % % % $ $ $ $ # # # # + X X # X     X X                           X X X X X X X X           $ $ $ $ + + + + X X X X X X X X + # # # # pXpXpXpXpXpXpX",
"pXpXpXpXpXpXpXpXpXpXpXpXpXpXpXpXpXpXpXpXpXpXpXpXpXpXpXpXpXpXpXpXpXpXpXpXpXpXpXpXpXpXpXpXpXpXpXpXpXpXpXpXpXpXpXpXpXpXpXpXpXpXpXpXpXpXpXpXpXpXpXpXpXpXpXpXpXpXpXpXpXpXpXpXpXpXpXpXpXpXpXpXpXpXpXpXpXpXpXpXpXpXpXpXpXpXpXpXpXpXpXpXpXpXpXpXpXpXpXpXpXpXpXpXpXpXpXpXpXpXpXG.G.G.G.g.g.g.g.g.D D D D a a a a           e e e e hXhXhXfX*.&.&.*.0 0 0 0 0 # # # # X X X X # # # # # # # # $ # # # # # # # X X X X X X X + # # X + X X + + # # $ $ $ $ $ $ $ $ $ $ $ $ $ $ $ $ $ $ ; ; % ; 2 2 2 2 5 5 5 5 # # # # # $ $ $ $ # # # # # # # # # # # # # # # # # # # # # # # # # # # # # # # # # # # $ $ $ $ $ $ $ $ 1 1 1 1 5 5 5 5 ; ; 1 1 ; 2 2 2 2 % % % % $ $ $ $ 1 1 1 ; ; e e e e 5 5 5 5 # X X # X X X X X X X X X                                   X X X X X $ $ $ $ % % % % # # # # X X X X X # # # # pXpXpXpXpXpXpX",
"pXpXpXpXpXpXpXpXpXpXpXpXpXpXpXpXpXpXpXpXpXpXpXpXpXpXpXpXpXpXpXpXpXpXpXpXpXpXpXpXpXpXpXpXpXpXpXpXpXpXpXpXpXpXpXpXpXpXpXpXpXpXpXpXpXpXpXpXpXpXpXpXpXpXpXpXpXpXpXpXpXpXpXpXpXpXpXpXpXpXpXpXpXpXpXpXpXpXpXpXpXpXpXpXpXpXpXpXpXpXpXpXpXpXpXpXpXpXpXpXpXpXpXpXpXpXpXpXpXpXpXG.G.G.G.g.g.g.g.g.D D D D a a a a           e e e e fXhXhXfX&.&.&.*.0 0 0 0 0 # # # # X X X X # # # # # # # # # # # # # # # X X X X X X X X X # # # # X + + + + + $ $ $ $ $ # $ $ $ $ $ $ $ $ $ $ $ $ ; ; % ; 2 2 2 2 5 5 5 5 # # # # # $ $ $ $ # # # # # # # # # # # # # # # # # # # # # # # # # # # # # # # # # # $ $ $ $ $ $ $ $ $ 1 1 1 1 5 5 5 5 ; ; ; 1 1 2 2 2 2 % % % % $ $ $ $ 1 1 1 1 1 e e e e 5 5 5 5 + X X X X X X X X X X X X                                   X X X X X $ $ $ $ % % % % # # # # X X X X X # # # # pXpXpXpXpXpXpX",
"pXpXpXpXpXpXpXpXpXpXpXpXpXpXpXpXpXpXpXpXpXpXpXpXpXpXpXpXpXpXpXpXpXpXpXpXpXpXpXpXpXpXpXpXpXpXpXpXpXpXpXpXpXpXpXpXpXpXpXpXpXpXpXpXpXpXpXpXpXpXpXpXpXpXpXpXpXpXpXpXpXpXpXpXpXpXpXpXpXpXpXpXpXpXpXpXpXpXpXpXpXpXpXpXpXpXpXpXpXpXpXpXpXpXpXpXpXpXpXpXpXpXpXpXpXpXpXpXpXpXpXG.G.G.G.g.g.g.g.g.D D D D a a a a           e e e e fXhXhXfX&.&.&.*.0 0 0 0 0 # # # # X X X X # # # # # # # # # # # # # + # X X X X X X X X X # # # # # # + + + + # # $ $ $ # # $ $ $ $ $ $ $ $ $ $ $ ; ; ; ; 2 2 2 5 5 5 5 5 # # # # # $ $ $ $ # # # # # # # # # # # # # # # # # # # # # # # # # # # # # # # # # # $ $ $ $ $ $ $ $ $ 1 1 1 1 5 5 5 5 ; ; ; ; ; 2 2 2 2 % % % % $ $ $ $ 1 1 1 1 1 e e e e 5 5 5 5 X X X X X X X X X X X X X                                   X X X X X $ $ $ $ % % % % # # # # X X X X X # # # # pXpXpXpXpXpXpX",
"pXpXpXpXpXpXpXpXpXpXpXpXpXpXpXpXpXpXpXpXpXpXpXpXpXpXpXpXpXpXpXpXpXpXpXpXpXpXpXpXpXpXpXpXpXpXpXpXpXpXpXpXpXpXpXpXpXpXpXpXpXpXpXpXpXpXpXpXpXpXpXpXpXpXpXpXpXpXpXpXpXpXpXpXpXpXpXpXpXpXpXpXpXpXpXpXpXpXpXpXpXpXpXpXpXpXpXpXpXpXpXpXpXpXpXpXpXpXpXpXpXpXpXpXpXpXpXpXpXpXpXG.G.G.G.g.g.g.g.g.D D D D a a a a           e e e e fXhXhXfX*.*.*.*.0 0 0 0 0 # # # # X X X X # # # # $ $ # # # X # # # # # # X X X X X X X X X + # # # # # # # # $ $ $ $ $ $ $ $ $ $ $ $ $ $ $ $ $ $ ; ; ; ; 2 2 5 5 5 5 5 5 # # # # # $ # # # # # # # # # # # # # # # # # # # # # # # # # # # # # # # # # # # # # # # # $ $ $ $ $ $ 1 1 1 1 5 5 5 5 ; 1 1 1 1 2 2 2 2 % % % % $ $ $ $ 1 ; ; ; ; e e e e 5 5 5 5 + + + + + X X X X . . . X                                   X X X X X # $ $ $ % % % % # # # # X X X X X # # X X pXpXpXpXpXpXpX",
"pXpXpXpXpXpXpXpXpXpXpXpXpXpXpXpXpXpXpXpXpXpXpXpXpXpXpXpXpXpXpXpXpXpXpXpXpXpXpXpXpXpXpXpXpXpXpXpXpXpXpXpXpXpXpXpXpXpXpXpXpXpXpXpXpXpXpXpXpXpXpXpXpXpXpXpXpXpXpXpXpXpXpXpXpXpXpXpXpXpXpXpXpXpXpXpXpXpXpXpXpXpXpXpXpXpXpXpXpXpXpXpXpXpXpXpXpXpXpXpXpXpXpXpXpXpXpXpXpXpXpXG.G.G.G.g.g.g.g.g.D D D D a a a a           e e e e fXhXhXfX*.*.*.*.0 0 0 0 0 # # # # X X X X # # # # $ $ # # # X # # # # # # + X X X X X X X X X # # # # # # # # $ # $ $ # # # # $ $ $ $ $ $ $ $ $ $ ; ; ; ; 2 2 5 2 5 5 5 5 # # # # # $ # # # # # # # # # # # # # # # # # # # # # # # # # # # # # # # # # # # # # # # # $ $ $ $ $ $ 1 1 1 1 5 5 5 5 ; ; 1 1 1 2 2 2 2 % % % % $ $ $ $ 1 ; ; ; ; e e e e 5 5 5 5 + + + + + X X X X .     X                                   X X X X X $ $ $ $ % % % % # # # # X X X X X # # X X pXpXpXpXpXpXpX",
"pXpXpXpXpXpXpXpXpXpXpXpXpXpXpXpXpXpXpXpXpXpXpXpXpXpXpXpXpXpXpXpXpXpXpXpXpXpXpXpXpXpXpXpXpXpXpXpXpXpXpXpXpXpXpXpXpXpXpXpXpXpXpXpXpXpXpXpXpXpXpXpXpXpXpXpXpXpXpXpXpXpXpXpXpXpXpXpXpXpXpXpXpXpXpXpXpXpXpXpXpXpXpXpXpXpXpXpXpXpXpXpXpXpXpXpXpXpXpXpXpXpXpXpXpXpXpXpXpXpXpXmXmXmXmXG.G.G.G.G.D.D.D.D.p p p p           0 0 0 q :.:.OXOX*.*.*.*.5 5 5 5 5 # # # # X X X X + X + + $ $ $ $ $ # # # # # # # # # # # # # X X # # X X X X X X # # # # X X # # # # # $ $ $ $ % % % % % ; ; ; ; 1 1 1 1 # # # # # # # # # # # # # # # # # # # # # # # # # # X X # # # # X X X X # # # # # # # # # # # # # # # # # # # # $ $ $ $ ; ; % % 1 1 1 1 1 2 2 2 2 $ $ $ $ # $ $ $ $ $ $ $ $ 1 1 1 1 5 5 5 5 $ $ $ $ $ # # # + X X X X                                   X X X X X X X X X $ $ $ $ $ $ $ $ X X X X X X X X X # $ # # pXpXpX",
"pXpXpXpXpXpXpXpXpXpXpXpXpXpXpXpXpXpXpXpXpXpXpXpXpXpXpXpXpXpXpXpXpXpXpXpXpXpXpXpXpXpXpXpXpXpXpXpXpXpXpXpXpXpXpXpXpXpXpXpXpXpXpXpXpXpXpXpXpXpXpXpXpXpXpXpXpXpXpXpXpXpXpXpXpXpXpXpXpXpXpXpXpXpXpXpXpXpXpXpXpXpXpXpXpXpXpXpXpXpXpXpXpXpXpXpXpXpXpXpXpXpXpXpXpXpXpXpXpXpXpXmXmXmXmXG.G.G.G.G.D.D.D.D.p p p p           0 0 0 q :.:.OX:.*.*.*.*.5 5 5 5 5 # # # # X X X X + + + + $ $ $ $ $ # # # # # # # # # # # # # + + # # X X X X X X X + # X X X + # # # # $ $ $ $ % % % % % ; ; ; ; 1 1 1 1 # # # # # # # # # # # # # # # # # # + # # # # # # # + X # # # # X X X X # # # # # # # # # # # # # # # # # # # # $ $ $ $ ; 1 % % 1 1 1 1 1 2 2 2 2 $ $ $ $ # $ $ $ $ $ $ $ $ 1 1 1 1 5 5 5 5 $ $ $ $ $ # # # # X X X X                                   X X X X X X X X X $ $ $ $ $ $ $ $ X X X X X X X X X # $ # # pXpXpX",
"pXpXpXpXpXpXpXpXpXpXpXpXpXpXpXpXpXpXpXpXpXpXpXpXpXpXpXpXpXpXpXpXpXpXpXpXpXpXpXpXpXpXpXpXpXpXpXpXpXpXpXpXpXpXpXpXpXpXpXpXpXpXpXpXpXpXpXpXpXpXpXpXpXpXpXpXpXpXpXpXpXpXpXpXpXpXpXpXpXpXpXpXpXpXpXpXpXpXpXpXpXpXpXpXpXpXpXpXpXpXpXpXpXpXpXpXpXpXpXpXpXpXpXpXpXpXpXpXpXpXpXmXmXmXmXG.G.G.G.G.D.D.D.D.p p p p           0 0 0 q :.:.:.:.*.*.*.*.5 5 5 5 5 # # # # X X X X X X + + $ $ $ $ $ # # # # # # # # # # # # # # # # # X X X X X X # # # # X X + # # # # $ $ $ $ % % % % % % % ; ; 1 1 1 1 # # # # # # # # # # X # # # # # + X X # # # # # # # # # # # # + X X X # # # X # # # # # # # # # # # # # # # # # $ $ $ $ ; ; ; ; 1 1 1 1 1 2 2 2 2 $ % % % $ $ $ # $ $ $ $ $ 1 1 1 1 5 5 0 7 $ $ $ $ $ # # # # X X X X                                   X X X X X X X X X $ $ $ $ $ $ $ $ X X X X X X X X X # # $ $ pXpXpX",
"pXpXpXpXpXpXpXpXpXpXpXpXpXpXpXpXpXpXpXpXpXpXpXpXpXpXpXpXpXpXpXpXpXpXpXpXpXpXpXpXpXpXpXpXpXpXpXpXpXpXpXpXpXpXpXpXpXpXpXpXpXpXpXpXpXpXpXpXpXpXpXpXpXpXpXpXpXpXpXpXpXpXpXpXpXpXpXpXpXpXpXpXpXpXpXpXpXpXpXpXpXpXpXpXpXpXpXpXpXpXpXpXpXpXpXpXpXpXpXpXpXpXpXpXpXpXpXpXpXpXpXmXmXmXmXG.G.G.G.G.D.D.D.D.p p p p           q 0 0 q :.:.:.:.*.*.*.*.5 5 5 5 5 # # # # X X X X + X + + $ $ $ $ $ # # # # # # # # # # # X X # # # # X X X X X X # # # # X X + # # # # $ $ $ $ % % % % % % % % % 1 1 1 1 # # # # # # # # # # X X # # # # # X + # # # # # # # # # # # # # X X + # # # X # # # # # # # # # # # # # # # # # $ $ $ $ ; ; 1 ; 1 1 1 1 1 2 2 2 2 $ % % % $ $ $ $ $ $ $ $ $ 1 1 1 1 5 5 0 0 $ $ $ $ $ # # + # X X X X                                   X X X X X X X X X $ $ $ $ $ $ $ $ X X X X X X X X X # # $ $ pXpXpX",
"pXpXpXpXpXpXpXpXpXpXpXpXpXpXpXpXpXpXpXpXpXpXpXpXpXpXpXpXpXpXpXpXpXpXpXpXpXpXpXpXpXpXpXpXpXpXpXpXpXpXpXpXpXpXpXpXpXpXpXpXpXpXpXpXpXpXpXpXpXpXpXpXpXpXpXpXpXpXpXpXpXpXpXpXpXpXpXpXpXpXpXpXpXpXpXpXpXpXpXpXpXpXpXpXpXpXpXpXpXpXpXpXpXpXpXpXpXpXpXpXpXpXpXpXpXpXpXpXpXpXpXpXpXpXpXpXpXpXpXpX].].].].S.S.S.S., , , , , 0 0 0 0 dXdXdXdX*.&.*.%.q q q q q $ $ $ $ + + # # X X X X # # # # # $ # # # # # # # # # # # # # # # # + X # + # # # # # # # X + # # # # # # # # # # # # # % % % % # # # # # # # # + X # # # # X X # # # # # X + + # # X X X X + # # # # # # # X X X X X X # # # # # # # # # # # X # # # # # # # # # # $ $ % % % % % 1 1 1 1 2 2 2 2 $ $ $ $ $ # # $ $ $ $ $ $ $ % % % # # # # # # X + X X X X X X X X X # # # # # X X     X X X X # # X X + X X X X X X X X X X X X X X X X X X X X X # # # # pXpXpX",
"pXpXpXpXpXpXpXpXpXpXpXpXpXpXpXpXpXpXpXpXpXpXpXpXpXpXpXpXpXpXpXpXpXpXpXpXpXpXpXpXpXpXpXpXpXpXpXpXpXpXpXpXpXpXpXpXpXpXpXpXpXpXpXpXpXpXpXpXpXpXpXpXpXpXpXpXpXpXpXpXpXpXpXpXpXpXpXpXpXpXpXpXpXpXpXpXpXpXpXpXpXpXpXpXpXpXpXpXpXpXpXpXpXpXpXpXpXpXpXpXpXpXpXpXpXpXpXpXpXpXpXpXpXpXpXpXpXpXpXpX].].].].S.S.S.S., , , , , 0 0 0 0 dXdXdXdX&.*.*.%.q q q q q $ $ $ $ + + # # X X X X # # # # # $ # # # # # # # # # # # # # # # # + X # # # # # # # # # + # # # # # # # # # # # # # # % % % % # # # # # # # # + # # # # # # # # # # # # # # X X + X X X X X # # # # # # # X X X X X # # # # # # # # # # # # X # # # # # # # # # # $ $ % % % % % 1 1 1 1 2 2 2 2 $ $ $ $ $ # # # $ $ $ $ $ % % % % # # # # # # X X X X X X X X X X X # # # # # X X     X X X X # # X X + X X X X X X X X X X X X X X X X X X X X X # # # # pXpXpX",
"pXpXpXpXpXpXpXpXpXpXpXpXpXpXpXpXpXpXpXpXpXpXpXpXpXpXpXpXpXpXpXpXpXpXpXpXpXpXpXpXpXpXpXpXpXpXpXpXpXpXpXpXpXpXpXpXpXpXpXpXpXpXpXpXpXpXpXpXpXpXpXpXpXpXpXpXpXpXpXpXpXpXpXpXpXpXpXpXpXpXpXpXpXpXpXpXpXpXpXpXpXpXpXpXpXpXpXpXpXpXpXpXpXpXpXpXpXpXpXpXpXpXpXpXpXpXpXpXpXpXpXpXpXpXpXpXpXpXpXpX].].].].S.S.S.S., , , , , 0 0 0 0 dXdXdXdX&.%.%.%.q q q q q $ $ $ $ + + # # X X X X # # # # # # $ $ $ # # # # # # # # # # # # # # + + # # # # # # # # # # # # # # + # # # # # # # # % % % % # # # # # # # # # # + # # # # # # # # # # # # X # # # # # # # # # # # # # # X X X X X X X X # # # # # # # # # # # # # # # # # # # # $ # % % % % % 1 1 1 1 2 2 2 2 $ $ $ $ $ $ $ $ $ $ $ $ $ $ $ $ $ # # # # # + + X # X X X X X X X X # # # # # X X X X X X X X + + + + + X X X X X X X X X X X X X X X X X X X X X # # # # pXpXpX",
"pXpXpXpXpXpXpXpXpXpXpXpXpXpXpXpXpXpXpXpXpXpXpXpXpXpXpXpXpXpXpXpXpXpXpXpXpXpXpXpXpXpXpXpXpXpXpXpXpXpXpXpXpXpXpXpXpXpXpXpXpXpXpXpXpXpXpXpXpXpXpXpXpXpXpXpXpXpXpXpXpXpXpXpXpXpXpXpXpXpXpXpXpXpXpXpXpXpXpXpXpXpXpXpXpXpXpXpXpXpXpXpXpXpXpXpXpXpXpXpXpXpXpXpXpXpXpXpXpXpXpXpXpXpXpXpXpXpXpXpX].].].].S.S.S.S., , , , , 0 0 0 0 dXdXdXdX%.%.%.%.q q q q q $ $ $ $ + + # # X X X X # # # # # # $ $ $ # # # # # # # # # # # # # # # # # # # # # # # # # # # # # # # # # + # # # # # % % % % # # # # # # # # # # X + # # # # # # # # # # X X # # # # # # # # # # X X # + X X X X X + + X # # # # # # # # # # # # # # # # # # # # $ $ % % % % % 1 1 1 1 2 2 2 2 $ $ $ $ $ $ $ $ $ $ $ $ $ $ $ $ $ # # # # # # + + # X X X X X X X X # # # # # X X X X X X X X + + X X + X X X X X X X X X X X X X X X X X X X X X # # # # pXpXpX",
"pXpXpXpXpXpXpXpXpXpXpXpXpXpXpXpXpXpXpXpXpXpXpXpXpXpXpXpXpXpXpXpXpXpXpXpXpXpXpXpXpXpXpXpXpXpXpXpXpXpXpXpXpXpXpXpXpXpXpXpXpXpXpXpXpXpXpXpXpXpXpXpXpXpXpXpXpXpXpXpXpXpXpXpXpXpXpXpXpXpXpXpXpXpXpXpXpXpXpXpXpXpXpXpXpXpXpXpXpXpXpXpXpXpXpXpXpXpXpXpXpXpXpXpXpXpXpXpXpXpXpXpXpXpXpXpXpXpXpXpXVXVXVXVXSXSXSXSX# $ # # # 5 5 5 5 :.:.:.:.*.*.*.*.e e e e e $ $ $ $ + + # # X X X X X X + + + $ $ $ $ $ # # # # # + + + # # # # # + X X X X + X # # X + # X X X X + # # + # # # # # # # # # # # # # # # # # X X X X X # X X + + # # # # # # # # # # # # # # + X X X X X # # # # # # # # # # # # # # # # # # # # # # # # # # # # # # # # # # # $ $ $ $ $ $ $ $ # $ $ $ $ $ $ $ $ $ $ $ $ # # # # # # + # # # # # # # # # # 5 5 5 5 $ $ $ $ $ X X X X     . . $ $ $ $ $ 1 1 1 1 2 2 2 2 % % % % X X X X X X X X X # + + X pXpXpX",
"pXpXpXpXpXpXpXpXpXpXpXpXpXpXpXpXpXpXpXpXpXpXpXpXpXpXpXpXpXpXpXpXpXpXpXpXpXpXpXpXpXpXpXpXpXpXpXpXpXpXpXpXpXpXpXpXpXpXpXpXpXpXpXpXpXpXpXpXpXpXpXpXpXpXpXpXpXpXpXpXpXpXpXpXpXpXpXpXpXpXpXpXpXpXpXpXpXpXpXpXpXpXpXpXpXpXpXpXpXpXpXpXpXpXpXpXpXpXpXpXpXpXpXpXpXpXpXpXpXpXpXpXpXpXpXpXpXpXpXpXVXVXVXVXSXSXSXSX# # # # # 5 5 5 5 :.:.:.:.*.*.*.*.e e e e e $ $ $ $ + + # # X X X X X X + + + $ $ $ $ $ # # # # # + + X # # # # # # X X + + # # # # X X # X X X X # # # # # # # # # # # # # # # # # # # # # X X X X X # X X X X # # # # # # # # # # # # # # + X X X X X # # # # # # # # X # # # # # # # # # # # # # # # # # # # # # # # # # # $ $ $ $ $ $ $ $ # $ $ $ $ $ $ $ $ $ $ $ $ $ $ # # # # + + # # # # # # # # # 5 5 5 5 $ $ $ $ $ X X X X     . . $ $ $ $ $ 1 1 1 1 2 2 2 2 % % % % X X X X X X X X X # + + X pXpXpX",
"pXpXpXpXpXpXpXpXpXpXpXpXpXpXpXpXpXpXpXpXpXpXpXpXpXpXpXpXpXpXpXpXpXpXpXpXpXpXpXpXpXpXpXpXpXpXpXpXpXpXpXpXpXpXpXpXpXpXpXpXpXpXpXpXpXpXpXpXpXpXpXpXpXpXpXpXpXpXpXpXpXpXpXpXpXpXpXpXpXpXpXpXpXpXpXpXpXpXpXpXpXpXpXpXpXpXpXpXpXpXpXpXpXpXpXpXpXpXpXpXpXpXpXpXpXpXpXpXpXpXpXpXpXpXpXpXpXpXpXpXVXVXVXVXSXSXSXSX# # # # # 5 5 5 5 :.:.:.:.*.*.*.*.e e e e e $ $ # # X # # # X X X X # # + + + $ $ $ $ $ # # $ # # # + X # # X X + # # # # # # # X X + X # X X X X X X X # # # # # # # # # # # # # # # # # # X X X X X # X + # # + X # # # # # # # # # # X X X + # + X X # # # # # # # # # # # # # # # # # # # # # # # # # # # # # # # # # # # $ $ $ $ $ $ $ $ $ $ $ $ $ $ $ $ $ $ $ $ $ $ $ $ $ + + + + # # # # # # # # # 5 5 5 5 $ $ $ $ $ X X X X     . . $ $ $ $ # 1 1 1 1 2 2 2 1 % % % % X X X X X X X X X # # + X pXpXpX",
"pXpXpXpXpXpXpXpXpXpXpXpXpXpXpXpXpXpXpXpXpXpXpXpXpXpXpXpXpXpXpXpXpXpXpXpXpXpXpXpXpXpXpXpXpXpXpXpXpXpXpXpXpXpXpXpXpXpXpXpXpXpXpXpXpXpXpXpXpXpXpXpXpXpXpXpXpXpXpXpXpXpXpXpXpXpXpXpXpXpXpXpXpXpXpXpXpXpXpXpXpXpXpXpXpXpXpXpXpXpXpXpXpXpXpXpXpXpXpXpXpXpXpXpXpXpXpXpXpXpXpXpXpXpXpXpXpXpXpXpXVXVXVXVXSXSXSXSX# # # # # 5 5 5 5 :.:.:.:.*.*.*.*.e e e e e $ $ # # X # # # X X X X # # + + + $ $ $ $ $ # # $ # # # + + # # X X # # # # # # # # X # # X # X X X X X X X # # # # # # # # # # # # # # # # + # X X X X X # # # # # X X # # # # # # # # # # X # + # # X X X # # # # # # X + # # # # # # # # # # # # # # # # # # # # # # # # # # # $ $ $ $ $ $ $ $ $ $ $ $ $ $ $ $ $ $ $ $ $ $ $ $ $ + + X + # # # # # # # # # 5 5 5 5 $ $ $ $ $ X X X X X   .   $ $ $ $ # 1 1 1 1 2 2 2 1 % % % % X X X X X X X X X # # + # pXpXpX",
"pXpXpXpXpXpXpXpXpXpXpXpXpXpXpXpXpXpXpXpXpXpXpXpXpXpXpXpXpXpXpXpXpXpXpXpXpXpXpXpXpXpXpXpXpXpXpXpXpXpXpXpXpXpXpXpXpXpXpXpXpXpXpXpXpXpXpXpXpXpXpXpXpXpXpXpXpXpXpXpXpXpXpXpXpXpXpXpXpXpXpXpXpXpXpXpXpXpXpXpXpXpXpXpXpXpXpXpXpXpXpXpXpXpXpXpXpXpXpXpXpXpXpXpXpXpXpXpXpXpXpXpXpXpXpXpXpXpXpXpXVXVXVXVXSXSXSXSX# # # # # 5 5 5 5 :.:.:.:.*.*.*.*.e e e e e # # # # # # # # X X X X # # + + + $ $ $ $ $ # $ $ # # # # + + X X X # # # # X + # # # # # # # X X X X # + + # # # # # # # # X X # # # # X X X # X X X X X # # # # # X X X # # # # # # # # # # # # # # # X X # # # # X X X X # # # # # # # # # # # # # # # # # # # # # # # # # # # $ $ $ $ $ $ $ $ $ $ $ $ $ $ $ $ $ $ $ $ $ $ $ $ $ # + # # # # # # # # # # # 5 5 5 5 $ $ $ $ $ X X X X X X . . $ $ $ $ # 1 1 1 1 2 1 1 1 % % % % X X X X X X X X X # # # # pXpXpX",
"pXpXpXpXpXpXpXpXpXpXpXpXpXpXpXpXpXpXpXpXpXpXpXpXpXpXpXpXpXpXpXpXpXpXpXpXpXpXpXpXpXpXpXpXpXpXpXpXpXpXpXpXpXpXpXpXpXpXpXpXpXpXpXpXpXpXpXpXpXpXpXpXpXpXpXpXpXpXpXpXpXpXpXpXpXpXpXpXpXpXpXpXpXpXpXpXpXpXpXpXpXpXpXpXpXpXpXpXpXpXpXpXpXpXpXpXpXpXpXpXpXpXpXpXpXpXpXpXpXpXpXpXpXpXpXpXpXpXpXpXlXlXlXlXFXFXFXFX# # # # # 7 7 7 7 dXdXdXsX*.*.*.*.q q q q q # # # # # # # # X X X X # # + + + $ $ $ $ # # # # # # # # # # # # # # # # # X # # # # # # # # X X X X # # # + X X + # # # X X X X + X X X + + # # + # + # # # # # # X X + # # # # # # # # # # # # # # # # # + # # + X X X X # # # # # # # # # # # # + + # # # # # # # # # # $ $ $ # # # # $ $ $ $ $ $ $ $ $ $ # # $ $ $ $ $ % % % % + + + # # X X X X # # # # $ $ $ $ 2 2 2 2 2 # # # # # # # # 2 2 2 2 2 # # # # $ $ $ $ $ $ $ $ # # # # # # # # # $ $ $ $ pXpXpX",
"pXpXpXpXpXpXpXpXpXpXpXpXpXpXpXpXpXpXpXpXpXpXpXpXpXpXpXpXpXpXpXpXpXpXpXpXpXpXpXpXpXpXpXpXpXpXpXpXpXpXpXpXpXpXpXpXpXpXpXpXpXpXpXpXpXpXpXpXpXpXpXpXpXpXpXpXpXpXpXpXpXpXpXpXpXpXpXpXpXpXpXpXpXpXpXpXpXpXpXpXpXpXpXpXpXpXpXpXpXpXpXpXpXpXpXpXpXpXpXpXpXpXpXpXpXpXpXpXpXpXpXpXpXpXpXpXpXpXpXpXlXlXlXlXFXFXFXFX# # # # # 7 7 7 5 sXdXdXsX*.*.*.*.q q q q q # # # # # # # # X X X X # # # # # $ $ $ $ # # # # # # # # # # # # # # # # # X X X X # # # # # X X X X # # # + X X + + # + X X X X X # # # + # + X X # # # # X # # # # X X X + # # # # # # # # # X X # # # # X X X # # # X X X # # # # # # # # X + + # # # # # # # # # # $ $ $ $ $ # # # # $ $ $ $ $ $ $ $ $ $ $ $ $ $ $ $ $ % % % % + + + # # X X X X # # # # $ $ $ # 2 2 2 2 2 # # # # # # # # 5 5 5 5 5 # # # # $ $ $ $ % % % % # # # # # # # # # $ $ $ $ pXpXpX",
"pXpXpXpXpXpXpXpXpXpXpXpXpXpXpXpXpXpXpXpXpXpXpXpXpXpXpXpXpXpXpXpXpXpXpXpXpXpXpXpXpXpXpXpXpXpXpXpXpXpXpXpXpXpXpXpXpXpXpXpXpXpXpXpXpXpXpXpXpXpXpXpXpXpXpXpXpXpXpXpXpXpXpXpXpXpXpXpXpXpXpXpXpXpXpXpXpXpXpXpXpXpXpXpXpXpXpXpXpXpXpXpXpXpXpXpXpXpXpXpXpXpXpXpXpXpXpXpXpXpXpXpXpXpXpXpXpXpXpXpXlXlXlXlXFXFXFXFX# # # # # 7 7 7 5 sXdXdXsX*.*.*.*.q q q q q # # # # # # # # X X X X # # # # # $ $ $ $ # # # # # # # # # # # # # # # # # X X + X # # # # X X X X X # # # # + X X # # # # X X + X # # # # # X X X # # # # X # # # # X X + # # # # # # # # # # X + # # # # X X + + # # + # X # # # # # # # # X X # # + # # # # # # # # $ $ $ $ $ # # # # $ $ $ $ $ $ $ $ $ $ $ $ $ $ $ $ $ % % % % + + # # # X X X X # # # # $ $ $ # 1 1 1 2 2 # # # # # # # # 5 5 5 5 2 # # # # $ $ $ $ % % % % # # # # # # # # # $ $ $ $ pXpXpX",
"pXpXpXpXpXpXpXpXpXpXpXpXpXpXpXpXpXpXpXpXpXpXpXpXpXpXpXpXpXpXpXpXpXpXpXpXpXpXpXpXpXpXpXpXpXpXpXpXpXpXpXpXpXpXpXpXpXpXpXpXpXpXpXpXpXpXpXpXpXpXpXpXpXpXpXpXpXpXpXpXpXpXpXpXpXpXpXpXpXpXpXpXpXpXpXpXpXpXpXpXpXpXpXpXpXpXpXpXpXpXpXpXpXpXpXpXpXpXpXpXpXpXpXpXpXpXpXpXpXpXpXpXpXpXpXpXpXpXpXpXlXlXlXlXFXFXFXFX# # # # # 7 5 7 5 sXdXdXdX*.*.*.*.q q q q q # # # # # # # # # # X X # # X X # $ $ $ $ # # # # # # # # # # # # # # # # # # # # # # + X X X X X X X # # # + X # # # # # # # # + # # # + # # # X X # # # # X X # # X # # # X X # + # # # # # # # # # # # # X X + # # # # # # # # # # # # # # X # # # # # # # # # # # # $ $ $ $ $ # # # # $ $ $ $ $ $ $ $ $ $ $ $ $ $ $ $ $ % % % % + + + + # X X X X # # # # $ $ $ # 1 1 1 1 1 # # # # $ $ # # 5 5 2 2 2 # # # # $ $ $ $ % $ % % # # # # # # # # # $ $ $ $ pXpXpX",
"pXpXpXpXpXpXpXpXpXpXpXpXpXpXpXpXpXpXpXpXpXpXpXpXpXpXpXpXpXpXpXpXpXpXpXpXpXpXpXpXpXpXpXpXpXpXpXpXpXpXpXpXpXpXpXpXpXpXpXpXpXpXpXpXpXpXpXpXpXpXpXpXpXpXpXpXpXpXpXpXpXpXpXpXpXpXpXpXpXpXpXpXpXpXpXpXpXpXpXpXpXpXpXpXpXpXpXpXpXpXpXpXpXpXpXpXpXpXpXpXpXpXpXpXpXpXpXpXpXpXpXpXpXpXpXpXpXpXpXpX_._._._.SXSXFXFX# # # # # 2 2 2 2 :.sXsXOX*.*.*.*.q q q q q $ $ $ $ + + # # X X X X # # # # # % % % % $ # # # # # # # # # # # # # # # # # # # # # # X X X X X X # X X X X # # # # # # # # # # # # # X X X X X X X X X X X X X # # # # # # # # # # + + X # # # # X X X X X + # # # # # # # # # # # # # # # X # # # # # # # # $ $ $ $ $ $ $ $ $ # # # # $ $ $ $ % % % % $ $ $ $ $ $ $ $ $ $ $ $ $ # # # # # X X X X + + + + X X X X X X X X X     X X                   + # + + # # $ $ $ # $ # X X X X X X X + + ; ; ; 1 $ $ $ ",
"pXpXpXpXpXpXpXpXpXpXpXpXpXpXpXpXpXpXpXpXpXpXpXpXpXpXpXpXpXpXpXpXpXpXpXpXpXpXpXpXpXpXpXpXpXpXpXpXpXpXpXpXpXpXpXpXpXpXpXpXpXpXpXpXpXpXpXpXpXpXpXpXpXpXpXpXpXpXpXpXpXpXpXpXpXpXpXpXpXpXpXpXpXpXpXpXpXpXpXpXpXpXpXpXpXpXpXpXpXpXpXpXpXpXpXpXpXpXpXpXpXpXpXpXpXpXpXpXpXpXpXpXpXpXpXpXpXpXpXpX_._._._.SXFXFXFX# # # # # 2 2 2 2 sXsXsX:.*.=.=.=.q q q q q $ $ $ $ X X X X X X X X # # # # # % % % % $ $ # # # # # # # # # # # # # # # # # X + # # # X X X # # # X X X X # # # # # # # # # X X + + X X X X X X X X X X X X X # # X # # # # # # # # X X X X # # X X X X # # # # X + # # # # # # # # # # # # # # # # # # # # $ $ $ $ $ $ $ $ $ $ $ $ $ $ $ $ $ % % % % $ $ $ $ $ $ $ $ $ $ $ $ $ # # # # # X X X X X + X + X X X X X X X X X                           # + + + # $ $ # # # # $ X X X X X X X X X 1 1 1 1 $ $ # ",
"pXpXpXpXpXpXpXpXpXpXpXpXpXpXpXpXpXpXpXpXpXpXpXpXpXpXpXpXpXpXpXpXpXpXpXpXpXpXpXpXpXpXpXpXpXpXpXpXpXpXpXpXpXpXpXpXpXpXpXpXpXpXpXpXpXpXpXpXpXpXpXpXpXpXpXpXpXpXpXpXpXpXpXpXpXpXpXpXpXpXpXpXpXpXpXpXpXpXpXpXpXpXpXpXpXpXpXpXpXpXpXpXpXpXpXpXpXpXpXpXpXpXpXpXpXpXpXpXpXpXpXpXpXpXpXpXpXpXpXpX_._._._.SXFXFXFX# # # # # 2 2 2 2 :.sXsX:.*.=.=.=.q q q q q $ $ $ $ X X X X X X X X # # # # # % % % % $ $ # $ # # # # # # # # # # # # # # # X X # # # # X # # # + X X X X # # # # # # # # # X X # # X X X X X X X X X X X X X # # # # # # # # # # # + # X # # # X X X X # # # # X X X # # # # # # # # # # # # # # # # # # # $ $ $ $ $ $ $ $ $ $ $ $ $ $ $ $ $ % % % % $ $ $ $ $ $ $ $ $ $ $ $ $ # # # # # X X X X + + X + X X X X X X X X X                           # + # + # $ # # # # # $ X X X X X X X X X 1 1 1 1 $ $ # ",
"pXpXpXpXpXpXpXpXpXpXpXpXpXpXpXpXpXpXpXpXpXpXpXpXpXpXpXpXpXpXpXpXpXpXpXpXpXpXpXpXpXpXpXpXpXpXpXpXpXpXpXpXpXpXpXpXpXpXpXpXpXpXpXpXpXpXpXpXpXpXpXpXpXpXpXpXpXpXpXpXpXpXpXpXpXpXpXpXpXpXpXpXpXpXpXpXpXpXpXpXpXpXpXpXpXpXpXpXpXpXpXpXpXpXpXpXpXpXpXpXpXpXpXpXpXpXpXpXpXpXpXpXpXpXpXpXpXpXpXpX_._._._.FXFXFXFX# # # # # 2 2 2 2 :.:.:.:.=.=.=.*.q q q q q $ $ $ $ X X X X X X X X # # # # # % % % % $ $ $ $ # # # # # # # # # # # # # # X X X # # # # X # # # # X X X X # X X + X # # # X X X # # X X X X X X X X X X X X X # # # # # # # # # # + + # # # # # X X X X # # # + X X # # # # # # # # # # # # # # # # # # # # $ $ $ $ $ $ $ $ $ $ $ $ $ $ $ $ $ % % % % $ $ $ $ $ $ $ $ $ $ $ $ $ # # # # # X X X X + + + + X X X X X X X X X                           # # # # $ $ $ # # # $ $ X X X X X # + X X 1 1 1 1 $ # # ",
"pXpXpXpXpXpXpXpXpXpXpXpXpXpXpXpXpXpXpXpXpXpXpXpXpXpXpXpXpXpXpXpXpXpXpXpXpXpXpXpXpXpXpXpXpXpXpXpXpXpXpXpXpXpXpXpXpXpXpXpXpXpXpXpXpXpXpXpXpXpXpXpXpXpXpXpXpXpXpXpXpXpXpXpXpXpXpXpXpXpXpXpXpXpXpXpXpXpXpXpXpXpXpXpXpXpXpXpXpXpXpXpXpXpXpXpXpXpXpXpXpXpXpXpXpXpXpXpXpXpXpXpXpXpXpXpXpXpXpXpX).).).).FXFXFXFX$ $ $ $ $ 1 1 1 1 sXsXsXdX*.*.*.*.e e e e e $ $ $ $ + + X X X X X X # # # # # % % % % $ $ $ $ $ # # # # # # # # # # # # # # # # # # # # # # # # # # # # X X X X X X # # # # X X X X # # # # # # + # # # # # # X X X X # X + # # # # X + X X X X # # # # X X X X X X # # # # # # + # # # # # # # # # # # # # # # # # % % % % % 1 1 1 1 % % % % 1 1 1 1 2 2 2 2 2 % % % % $ $ $ $ # # # # # X X X X X X X X X X X X X X X X X                           + + # # # # # X # # # # # + + + + # + X X % % % % $ $ $ ",
"pXpXpXpXpXpXpXpXpXpXpXpXpXpXpXpXpXpXpXpXpXpXpXpXpXpXpXpXpXpXpXpXpXpXpXpXpXpXpXpXpXpXpXpXpXpXpXpXpXpXpXpXpXpXpXpXpXpXpXpXpXpXpXpXpXpXpXpXpXpXpXpXpXpXpXpXpXpXpXpXpXpXpXpXpXpXpXpXpXpXpXpXpXpXpXpXpXpXpXpXpXpXpXpXpXpXpXpXpXpXpXpXpXpXpXpXpXpXpXpXpXpXpXpXpXpXpXpXpXpXpXpXpXpXpXpXpXpXqXqX).).).).FXFXFXFX$ $ $ $ $ 1 1 1 1 dXsXsXsX&.&.&.*.e e e e e $ $ $ $ X X X X X X X X # # # # # % % % % $ $ $ $ $ $ # # # # # # # # # # # # # # # # # # # # # # # # # # # # # # # # X # # # # X X X X X X # # X X X + # # # # # X X X X # X X # # # # X X X X X X # # # # X X X X X # # # X X # # # # # # # X # # # # # # # # # # # # % % % % % 1 1 1 1 % % % % 1 1 1 1 2 2 2 2 2 % % % % $ $ $ $ # # # # # X X X X X X X X X X X X X X X X X                           # X X X # # # X # # # # X + + # # # # X X % % % % $ $ $ ",
"pXpXpXpXpXpXpXpXpXpXpXpXpXpXpXpXpXpXpXpXpXpXpXpXpXpXpXpXpXpXpXpXpXpXpXpXpXpXpXpXpXpXpXpXpXpXpXpXpXpXpXpXpXpXpXpXpXpXpXpXpXpXpXpXpXpXpXpXpXpXpXpXpXpXpXpXpXpXpXpXpXpXpXpXpXpXpXpXpXpXpXpXpXpXpXpXpXpXpXpXpXpXpXpXpXpXpXpXpXpXpXpXpXpXpXpXpXpXpXpXpXpXpXpXpXpXpXpXpXpXpXpXpXpXpXpXpXpXqXqX).).).).FXFXFXFX$ $ $ $ $ 1 1 1 1 dXsXsXsX&.&.&.*.e e e e e $ $ $ $ + + X X X X X X # # # # # % % % % $ $ $ $ $ $ $ $ # # # # # # # # # # # # # # # # # # # # # # # # # # # # # # # + X # # X X X X X + # # # + X X # # # # # X X X X # X X # # # + X X X X X X # # # # X X X X X # # # X + # # # # # # # X # # # # # # # # # # # # % % % % % 1 1 1 1 % % % % 1 1 1 1 2 2 2 2 2 % % % % $ $ $ $ # # # # # X X X X X X X X X X X X X X X X X                           # X X X # # # X # # # # X + # # + # # X X % % % % $ $ $ ",
"pXpXpXpXpXpXpXpXpXpXpXpXpXpXpXpXpXpXpXpXpXpXpXpXpXpXpXpXpXpXpXpXpXpXpXpXpXpXpXpXpXpXpXpXpXpXpXpXpXpXpXpXpXpXpXpXpXpXpXpXpXpXpXpXpXpXpXpXpXpXpXpXpXpXpXpXpXpXpXpXpXpXpXpXpXpXpXpXpXpXpXpXpXpXpXpXpXpXpXpXpXpXpXpXpXpXpXpXpXpXpXpXpXpXpXpXpXpXpXpXpXpXpXpXpXpXpXpXpXpXpXpXpXpXpXpXpXpXqXqX)._.).).FXFXFXFX$ $ $ $ $ 1 1 1 1 dXdXsXsX*.&.&.*.e e e e e $ $ $ $ + + X X X X X X # # # # # % % % % $ $ $ $ $ $ $ $ # # # # # # # # # # # # # # # # # # # # # # # # # # # # # X X X X # # X X X X # # # # # X # # # # # # # X X X X # X # # # # # X X X X X X # # # # X X X X X # # # + # # # # # # # # X X # X X # # # # # # # # % % % % % 1 1 1 1 % % % % 1 1 1 1 2 2 2 2 2 % % % % $ $ $ $ # # # # # X X X X X X X X X X X X X X X X X                           # X X X # # # # # # # # X + + + + # + X X % % % % $ $ $ ",
"pXpXpXpXpXpXpXpXpXpXpXpXpXpXpXpXpXpXpXpXpXpXpXpXpXpXpXpXpXpXpXpXpXpXpXpXpXpXpXpXpXpXpXpXpXpXpXpXpXpXpXpXpXpXpXpXpXpXpXpXpXpXpXpXpXpXpXpXpXpXpXpXpXpXpXpXpXpXpXpXpXpXpXpXpXpXpXpXpXpXpXpXpXpXpXpXpXpXpXpXpXpXpXpXpXpXpXpXpXpXpXpXpXpXpXpXpXpXpXpXpXpXpXpXpXpXpXpXpXpXpXpXpXpXpXpXpXpXqXpX/./.L.L.FXFXFXFX3 2 2 2 3 1 1 1 1 :.:.:.:.*.*.*.*.e e e e e # # # # # # # # X X + # # # # # # $ # # $ 1 1 1 1 # # # # # # # # # # # # # # # # # # # # # # # # # # # # # # X X X X X X X X X # # + + # # # # X X # # # X X X X X X X X X X X X X # # X X X X X X X X X X X X X X X X X X X # # # # # # + X # # # # # X X X X # # # # # # # # # $ $ $ $ $ $ $ $ $ $ $ $ $ $ $ $ $ $ $ $ $ % % % % # # # # # X X X X X X X X X X X X       X X                           X X X X X X X X X X X X X X X X X # # # # $ $ $ $ # # # ",
"pXpXpXpXpXpXpXpXpXpXpXpXpXpXpXpXpXpXpXpXpXpXpXpXpXpXpXpXpXpXpXpXpXpXpXpXpXpXpXpXpXpXpXpXpXpXpXpXpXpXpXpXpXpXpXpXpXpXpXpXpXpXpXpXpXpXpXpXpXpXpXpXpXpXpXpXpXpXpXpXpXpXpXpXpXpXpXpXpXpXpXpXpXpXpXpXpXpXpXpXpXpXpXpXpXpXpXpXpXpXpXpXpXpXpXpXpXpXpXpXpXpXpXpXpXpXpXpXpXpXpXpXpXpXpXpXpXpXpXpXL.L.L.L.FXFXFXFX3 3 3 3 2 1 1 1 1 :.:.:.:.*.*.*.*.e e e e e # # # # # # # # # X X X # # + # # # # # # 1 1 1 1 # # # # # # # # # # # # # # # # # # # # # # # # # # # # # # X X X X X X X X X # # # # # # # # # # # X X X X X X X X X X X X X X X # # # X X X X X X X X X X X X X X X X X X # # # # X X X # # # # # # # # # # # # # # # # # # # $ $ $ $ $ $ $ $ $ $ $ $ # $ $ $ $ $ $ $ $ % % % % # # # # # X X X X X X X X X X X X X X X X X                           X X X X X X X X X X X X X X X X X # # # # $ $ $ $ # # # ",
"pXpXpXpXpXpXpXpXpXpXpXpXpXpXpXpXpXpXpXpXpXpXpXpXpXpXpXpXpXpXpXpXpXpXpXpXpXpXpXpXpXpXpXpXpXpXpXpXpXpXpXpXpXpXpXpXpXpXpXpXpXpXpXpXpXpXpXpXpXpXpXpXpXpXpXpXpXpXpXpXpXpXpXpXpXpXpXpXpXpXpXpXpXpXpXpXpXpXpXpXpXpXpXpXpXpXpXpXpXpXpXpXpXpXpXpXpXpXpXpXpXpXpXpXpXpXpXpXpXpXpXpXpXpXpXpXpXpXpXpXL.L.L.L.FXFXFXFX3 3 3 3 2 1 1 1 1 :.:.:.:.*.*.*.*.e e e e e # # # # # # # # + X X X # # # # X # # # # 1 1 1 1 # # # # # # # # # # # # # # # # # # # # # # # # # # # # # # X X X X X X X X X + # # # # # + # # # # + X X X X X X X X X X X X X X # # # + X X X X X X X X X X X X X X X X X # # # # X + X # # # # # # # # # # # # # # # # # # # $ $ $ $ $ $ $ $ $ $ $ $ # $ $ $ $ $ $ $ $ % % % % # # # # # X X X X X X X X X X X X X X X X X                           X X X X X X X X X X X X X X X X X + # # # $ $ $ $ # # # ",
"pXpXpXpXpXpXpXpXpXpXpXpXpXpXpXpXpXpXpXpXpXpXpXpXpXpXpXpXpXpXpXpXpXpXpXpXpXpXpXpXpXpXpXpXpXpXpXpXpXpXpXpXpXpXpXpXpXpXpXpXpXpXpXpXpXpXpXpXpXpXpXpXpXpXpXpXpXpXpXpXpXpXpXpXpXpXpXpXpXpXpXpXpXpXpXpXpXpXpXpXpXpXpXpXpXpXpXpXpXpXpXpXpXpXpXpXpXpXpXpXpXpXpXpXpXpXpXpXpXpXpXpXpXpXpXpXpXpXpXpXL.L.L.L.FXFXFXFX1 2 3 3 2 1 1 1 1 :.:.:.:.*.*.*.*.e e e e e # # # # # # # # X X X X # # + + X # # # # % 1 1 1 # # # # # # # # # # # # # # # # # # # # # # # # # # # # # # X X X X X X X X X X X # # X X X X # # # # X X X X X X X X X X X X X X # # # # X X X X X X X X X X X X X X X X X # # # # X # # # # # # # # # # # # # # # # # # # # # $ $ $ $ $ $ $ $ $ $ $ $ $ $ $ $ $ $ $ $ $ % % % % # # # # # X X X X X X X X X X X X X                                   X X X X X X X X X X X X X X X X X + + # # $ $ $ $ # # # ",
"pXpXpXpXpXpXpXpXpXpXpXpXpXpXpXpXpXpXpXpXpXpXpXpXpXpXpXpXpXpXpXpXpXpXpXpXpXpXpXpXpXpXpXpXpXpXpXpXpXpXpXpXpXpXpXpXpXpXpXpXpXpXpXpXpXpXpXpXpXpXpXpXpXpXpXpXpXpXpXpXpXpXpXpXpXpXpXpXpXpXpXpXpXpXpXpXpXpXpXpXpXpXpXpXpXpXpXpXpXpXpXpXpXpXpXpXpXpXpXpXpXpXpXpXpXpXpXpXpXpXpXpXpXpXpXpXpXpXpXpXL.L.L.L.FXFXFXFX1 2 2 2 2 1 1 1 1 :.:.:.:.*.*.*.*.e e e e e # # # # # # # # X X X X # # # + + # # # # ; 1 1 1 # # # # # # # # # # # # # # # # # # # # # # # # # # # # # # X X X X X X X X X # + + X X X X X # # # + X X X X X X X X X X X X X X # # # # X X X X X X X X X X X X X X X X X # # # # + # # # # # # # # # # # # # # # # # # # # # $ $ $ $ $ $ $ $ $ $ $ $ $ $ $ $ $ $ $ $ $ % % % % # # # # # X X X X X X X X X X X X X                                   X X X X X X X X X X X X X X X X X + + # # $ $ $ $ # # # ",
"pXpXpXpXpXpXpXpXpXpXpXpXpXpXpXpXpXpXpXpXpXpXpXpXpXpXpXpXpXpXpXpXpXpXpXpXpXpXpXpXpXpXpXpXpXpXpXpXpXpXpXpXpXpXpXpXpXpXpXpXpXpXpXpXpXpXpXpXpXpXpXpXpXpXpXpXpXpXpXpXpXpXpXpXpXpXpXpXpXpXpXpXpXpXpXpXpXpXpXpXpXpXpXpXpXpXpXpXpXpXpXpXpXpXpXpXpXpXpXpXpXpXpXpXpXpXpXpXpXpXpXpXpXpXpXpXpXpXpXpX;.;.;.;.VXVXVXVXn B n n n ; ; ; ; *.*.*.*.%.%.%.%.Y Y Y Y Y # # # # # # # # X X X X X X X X X 1 1 1 1 1 1 1 1 # # # # # # # # # $ $ $ $ # # # # # # # # # # # # # # # # # X X X X X # # # # X X X X X X X X # # # # # X X X X X X X X X X X X X X X X X X X X X # # # X X X X X X X X X X # # # # # # # # # # # # # # # # # # # # # # # # # # # # $ $ $ $ $ $ $ $ # # # # # # # $ $ $ $ $ $ $ $ # # # # # X X X X X X X X X X X X                                     X X X X X X X X X X X X X X X X X X X X X X X X # X X X ",
"pXpXpXpXpXpXpXpXpXpXpXpXpXpXpXpXpXpXpXpXpXpXpXpXpXpXpXpXpXpXpXpXpXpXpXpXpXpXpXpXpXpXpXpXpXpXpXpXpXpXpXpXpXpXpXpXpXpXpXpXpXpXpXpXpXpXpXpXpXpXpXpXpXpXpXpXpXpXpXpXpXpXpXpXpXpXpXpXpXpXpXpXpXpXpXpXpXpXpXpXpXpXpXpXpXpXpXpXpXpXpXpXpXpXpXpXpXpXpXpXpXpXpXpXpXpXpXpXpXpXpXpXpXpXpXpXpXpXpXpX;.;.;.;.VXVXVXVXn n n n n ; ; ; ; *.*.*.*.%.%.%.%.Y Y Y Y Y # # # # # # # # X X X X X X X X X 1 1 1 1 1 1 1 1 # # # # # # # # # $ $ $ $ # # # # # # # # # # # # # # # # # X X X X X # # # # X X X X X X X X # # # # # X X X X X X X X X X X X X X X X X X X X X # # X X X X X X X X X X X # # # # # # # # # # # # # # # # # # # # # # # # # # # $ $ $ $ $ $ $ $ $ $ # # # # # # $ $ $ $ $ $ $ $ # # # # # X X X X X X X X X X X X                                     X X X X X X X X X X X X X X X X X X X X X X X X + X X X ",
"pXpXpXpXpXpXpXpXpXpXpXpXpXpXpXpXpXpXpXpXpXpXpXpXpXpXpXpXpXpXpXpXpXpXpXpXpXpXpXpXpXpXpXpXpXpXpXpXpXpXpXpXpXpXpXpXpXpXpXpXpXpXpXpXpXpXpXpXpXpXpXpXpXpXpXpXpXpXpXpXpXpXpXpXpXpXpXpXpXpXpXpXpXpXpXpXpXpXpXpXpXpXpXpXpXpXpXpXpXpXpXpXpXpXpXpXpXpXpXpXpXpXpXpXpXpXpXpXpXpXpXpXpXpXpXpXpXpXpXpX;.;.;.;.VXVXVXVXn n n n n ; ; ; % *.*.*.*.%.%.%.%.Y Y Y Y Y # # # # # # # # X X X X X X X X X 1 1 1 1 1 1 1 1 # # # # # # # # # $ # # $ # # # # # # # # # # # # # # # # # X X X X X # # # # X X X X X X X X # # # # # X X X X X X X X X X X X X X X X X X X X X # # # # X X X X X X X X X # # # # # # # # # # # # # # # # # # # X X # # # # # $ $ $ $ $ $ $ $ $ $ $ $ # # # # # $ $ $ $ $ $ $ $ # # # # # X X X X X X X X X X X X                                     X X X X X X X X X X X X X X X X X X X X X X X X X X X X ",
"pXpXpXpXpXpXpXpXpXpXpXpXpXpXpXpXpXpXpXpXpXpXpXpXpXpXpXpXpXpXpXpXpXpXpXpXpXpXpXpXpXpXpXpXpXpXpXpXpXpXpXpXpXpXpXpXpXpXpXpXpXpXpXpXpXpXpXpXpXpXpXpXpXpXpXpXpXpXpXpXpXpXpXpXpXpXpXpXpXpXpXpXpXpXpXpXpXpXpXpXpXpXpXpXpXpXpXpXpXpXpXpXpXpXpXpXpXpXpXpXpXpXpXpXpXpXpXpXpXpXpXpXpXpXpXpXpXpXpXpX;.;.;.;.VXVXVXVXn n n B n ; ; ; % *.*.*.*.%.%.%.%.Y Y Y Y Y # # # # # # # # X X X X X X X X X 1 1 1 1 1 1 1 1 # # # # # # # # # $ # $ # # # # # # # # # # # # # # # # # # X X X X X # # # # X X X X X X X X # # # # # X X X X X X X X X X X X X X X X X X X X X # # # # X X X X X X X X X # # # # # # # # # # # # # # # # # # # X X # # # # # $ $ $ $ $ $ $ $ $ $ $ $ # # # # # $ $ $ $ $ $ $ $ # # # # # X X X X X X X X X X X X                                     X X X X X X X X X X X X X X X X X X X X X X X X X X X X ",
"pXpXpXpXpXpXpXpXpXpXpXpXpXpXpXpXpXpXpXpXpXpXpXpXpXpXpXpXpXpXpXpXpXpXpXpXpXpXpXpXpXpXpXpXpXpXpXpXpXpXpXpXpXpXpXpXpXpXpXpXpXpXpXpXpXpXpXpXpXpXpXpXpXpXpXpXpXpXpXpXpXpXpXpXpXpXpXpXpXpXpXpXpXpXpXpXpXpXpXpXpXpXpXpXpXpXpXpXpXpXpXpXpXpXpXpXpXpXpXpXpXpXpXpXpXpXpXpXpXpXpXpXpXpXpXpXpXpXpXpX*.*.*.*.lXlXjXjX&.&.} } } 1 1 1 1 %.%.%.%.%.%.%.%.Y Y Y Y Y # # # # # # # # X X X X # # # # # $ $ $ $ % % % % # # # $ $ $ # $ $ # $ $ $ # # # # # # + + # # # # X X + # # X X X X X X X # # X X X X # # # # X X X X X X X X X X X X X # X X X X # # # # # # # # X X X X X X X X # # # # X X X X # # # # # # # # X X # # # # # # # # # # # # # # # # # $ $ $ $ $ $ $ $ $ $ $ $ $ $ $ $ $ $ $ $ $ X X + + X X X X X X X X X .     X X X X X X                           X X X X X X X X X X X X X X X X X X X X X X X X X X X X ",
"pXpXpXpXpXpXpXpXpXpXpXpXpXpXpXpXpXpXpXpXpXpXpXpXpXpXpXpXpXpXpXpXpXpXpXpXpXpXpXpXpXpXpXpXpXpXpXpXpXpXpXpXpXpXpXpXpXpXpXpXpXpXpXpXpXpXpXpXpXpXpXpXpXpXpXpXpXpXpXpXpXpXpXpXpXpXpXpXpXpXpXpXpXpXpXpXpXpXpXpXpXpXpXpXpXpXpXpXpXpXpXpXpXpXpXpXpXpXpXpXpXpXpXpXpXpXpXpXpXpXpXpXpXpXpXpXpXpXpXpX*.*.*.*.lXlXjXlX&.&.} } } 1 1 1 1 %.%.%.%.%.%.%.%.Y Y Y Y Y # # # # # # # # X X X X # # # # # $ $ $ $ % % % % # $ $ $ $ $ # # $ $ $ $ $ # # # # # + + + # # # # X X X X # X X X X X # X + X X X X X # # X # X X X X X X X X X X X X X # X X X X # # # # # # # # X X X X X X X # # # # # X X X X # # # # # # # # X X # # # # # # # # # # # # # # # # # $ $ $ $ $ $ $ $ $ $ $ $ $ $ $ $ $ $ $ $ $ X X X + X X X X X X X X X .     X X X X X X                           X X X X X X X X X X X X X X X X X X X X X X X X X X X X ",
"pXpXpXpXpXpXpXpXpXpXpXpXpXpXpXpXpXpXpXpXpXpXpXpXpXpXpXpXpXpXpXpXpXpXpXpXpXpXpXpXpXpXpXpXpXpXpXpXpXpXpXpXpXpXpXpXpXpXpXpXpXpXpXpXpXpXpXpXpXpXpXpXpXpXpXpXpXpXpXpXpXpXpXpXpXpXpXpXpXpXpXpXpXpXpXpXpXpXpXpXpXpXpXpXpXpXpXpXpXpXpXpXpXpXpXpXpXpXpXpXpXpXpXpXpXpXpXpXpXpXpXpXpXpXpXpXpXpXpXpX*.*.*.*.lXlXlXlX&.&.&.} } 1 1 1 1 %.%.%.%.%.%.%.%.Y Y Y Y Y # # # # # # # # X X X X # # # # # $ $ $ $ % % % % # $ $ $ $ $ $ $ $ $ $ $ $ # # # # # + + + # # # # X X X X # X X X X X # # X + X X X X # # X X X X X X X X X X X X X X X # + X # # # # # # # # # # X X X X X X # # # # # # # # # # # # X # # # # # X X # # # # # # # # # # # # # # # # # $ $ $ $ $ $ $ $ $ $ $ $ $ $ $ $ $ $ $ $ $ + + + + X X X X X X X X X X X X X X X X X X                           X X X X X X X X X X X X X X X X X X X X X X X X X X X X "
};
