/* XPM */
static char *ff1ab8ae7bca47ded4454ae439dfd87cWrqIeKzZa0fR9YT8[] = {
/* columns rows colors chars-per-pixel */
"369 595 253 2 ",
"   c #010101",
".  c #080706",
"X  c #0C0C0C",
"o  c #120201",
"O  c #0F100E",
"+  c #14120D",
"@  c #131313",
"#  c #191916",
"$  c #1B1B1B",
"%  c #240000",
"&  c #2E1203",
"*  c #241D13",
"=  c #1C231B",
"-  c #26221B",
";  c #362910",
":  c #362A1A",
">  c #1F2138",
",  c #232423",
"<  c #292926",
"1  c #2B2C2B",
"2  c #332F27",
"3  c #2F302E",
"4  c #3A3326",
"5  c #31322E",
"6  c #343433",
"7  c #383936",
"8  c #3B3B3B",
"9  c #4B1205",
"0  c #770202",
"q  c #592311",
"w  c #502E10",
"e  c #48351B",
"r  c #692E14",
"t  c #463A28",
"y  c #503B2A",
"u  c #723222",
"i  c #7D293A",
"p  c #295F23",
"a  c #5A4005",
"s  c #704E10",
"d  c #584528",
"f  c #484536",
"g  c #4D4831",
"h  c #564A39",
"j  c #664A2A",
"k  c #714A2C",
"l  c #6C522E",
"z  c #77542B",
"x  c #685539",
"c  c #775935",
"v  c #7B6437",
"b  c #2B305C",
"n  c #7C2E44",
"m  c #7B3149",
"M  c #7C324C",
"N  c #61395D",
"B  c #7B3553",
"V  c #793859",
"C  c #773C64",
"Z  c #733E6A",
"A  c #703E6F",
"S  c #434443",
"D  c #4B4B47",
"F  c #524C44",
"G  c #4F514E",
"H  c #575349",
"J  c #585957",
"K  c #655C4C",
"L  c #5A6358",
"P  c #776649",
"I  c #696455",
"U  c #786C56",
"Y  c #787056",
"T  c #78416C",
"R  c #6E4175",
"E  c #6E447B",
"W  c #734273",
"Q  c #784677",
"!  c #72457B",
"~  c #656563",
"^  c #6B6B6A",
"/  c #737069",
"(  c #7A7A78",
")  c #8C1C15",
"_  c #861D19",
"`  c #8C1F1A",
"'  c #921D14",
"]  c #981F13",
"[  c #8D231B",
"{  c #93241A",
"}  c #952619",
"|  c #9B2B1B",
" . c #8D3411",
".. c #9C321E",
"X. c #A22C18",
"o. c #A4351E",
"O. c #8B2323",
"+. c #85252C",
"@. c #8A2629",
"#. c #932B25",
"$. c #9A3627",
"%. c #91362E",
"&. c #842934",
"*. c #872A34",
"=. c #832C3B",
"-. c #88313A",
";. c #A33B23",
":. c #F0191D",
">. c #87511B",
",. c #955F19",
"<. c #904F2D",
"1. c #A64428",
"2. c #AC4C2B",
"3. c #B24C29",
"4. c #AB552D",
"5. c #B3562E",
"6. c #A54B32",
"7. c #AB5536",
"8. c #B45B34",
"9. c #8B6A2E",
"0. c #8A6537",
"q. c #966A36",
"w. c #B86437",
"e. c #BC6B3B",
"r. c #AB7339",
"t. c #C04A29",
"y. c #C46E39",
"u. c #C3753D",
"i. c #812E43",
"p. c #853344",
"a. c #82344B",
"s. c #813956",
"d. c #965050",
"f. c #866C47",
"g. c #977648",
"h. c #8B7251",
"j. c #967C56",
"k. c #B96B47",
"l. c #AF7448",
"z. c #867A67",
"x. c #C57B47",
"c. c #C77752",
"v. c #C37A60",
"b. c #269717",
"n. c #48B423",
"m. c #46C83B",
"M. c #64D032",
"N. c #759172",
"B. c #B18037",
"V. c #8BE93C",
"C. c #A88F5F",
"Z. c #B08852",
"A. c #8E8670",
"S. c #AE956C",
"D. c #CA8748",
"F. c #D3954C",
"G. c #C98854",
"H. c #CD9353",
"J. c #D49956",
"K. c #DAA658",
"L. c #D6AB5C",
"P. c #E2B75C",
"I. c #D09569",
"U. c #E28D6F",
"Y. c #DAA868",
"T. c #DDB367",
"R. c #DCAA74",
"E. c #D1B075",
"W. c #E0AF68",
"Q. c #E2B867",
"!. c #E3B978",
"~. c #E6C05F",
"^. c #E9C768",
"/. c #EED36A",
"(. c #E8C678",
"). c #EED477",
"_. c #F0D87A",
"`. c #364080",
"'. c #6D4782",
"]. c #6E4985",
"[. c #6C4B8C",
"{. c #724B87",
"}. c #674E96",
"|. c #6B4E92",
" X c #6C5096",
".X c #625E95",
"XX c #67519C",
"oX c #6A529B",
"OX c #745492",
"+X c #6654A3",
"@X c #6955A3",
"#X c #6457A9",
"$X c #6459AD",
"%X c #6A59AA",
"&X c #715AA4",
"*X c #645CB4",
"=X c #695DB3",
"-X c #625EBB",
";X c #6360BE",
":X c #7776B1",
">X c #5F62C5",
",X c #5363C8",
"<X c #5E65CC",
"1X c #5D67D1",
"2X c #5D6AD6",
"3X c #5C6BD9",
"4X c #5B6DDE",
"5X c #5C6CDC",
"6X c #5F71DD",
"7X c #6162C3",
"8X c #6166CA",
"9X c #6168CE",
"0X c #606AD3",
"qX c #5B6EE0",
"wX c #5B6EE1",
"eX c #5D70E1",
"rX c #94798B",
"tX c #7881D4",
"yX c #8A8B89",
"uX c #958F8D",
"iX c #979897",
"pX c #A59788",
"aX c #9FA19E",
"sX c #B4AA8F",
"dX c #8788B8",
"fX c #A7A8A6",
"gX c #B4B5B4",
"hX c #D1B58F",
"jX c #E4BB8A",
"kX c #CBB6A1",
"lX c #D7C699",
"zX c #E9C887",
"xX c #EDD389",
"cX c #F1DB87",
"vX c #EACA96",
"bX c #EED396",
"nX c #F1DB98",
"mX c #F4E19B",
"MX c #EDD5A7",
"NX c #E8D0AD",
"BX c #F1DAA6",
"VX c #F2DEB9",
"CX c #F5E4A8",
"ZX c #F5E6B7",
"AX c #F5EABA",
"SX c #E4D7CC",
"DX c #F7EAC7",
"FX c #F7ECD0",
"GX c #FBF5D8",
"HX c #F2EBE4",
"JX c #FCF8E7",
"KX c #FEFCF4",
"LX c #FFFEFD",
/* pixels */
"wXwXwXwXwXwXwXwXwXwXwXwXwXwXwXwXwXwXwXwXwXwXwXwXwXwXwXwXwXwXwXwXwXwXwXwXwXwXwXwXwXwXwXwXwXwXwXwXwXwXwXwXwXwXwXwXwXwXwXwXwXwXwXwXwXwXwXwXwXwXwXwXwXwXwXwXwXwXwXwXwXwXwXwXwXwXwXwXwXwXwXwXwXwXwXwXwXwXwXwXwX5X5X5X5X2X2X2X2XwXwXwXwXwXwXwXwXwXwXwXwX2X2X2X2X3X3X3X4X4X4X4XwXwXwXwXwXwXwXwXwXwXwXwX3X3X3X3XwXwXwXwXwXwXwXwX3X3X3X3X3X3X3X3X2X2X2X2X4X4X4X4XwXwXwXwX4X4X4X4XwXwXwXwX3X3X3X3X4X4X4X4X4X4X5X5XwXwXwXwXwXwXwXwXwXwXwXwXwXwXwXwXwXwXwXwXwXwXwXwXwXwXwXwXwXwXwXwXwXwXwXwXwXwXwXwXwXwXwXwXwXwXwXwXwXwXwXwXwXwXwXwXwXwXwXwXwXwXwXwXwXwXwXwXwXwXwXwXwXwXwXwXwXwXwXwXwXwXwXwXwXwXwXwXwXwXwXwXwXwXwXwXwXwXwXwXwXwXwXwXwXwXwXwXwXwXwXwXwXwXwXwXwXwXwXwXwXwXwXwXwXwXwXwXwXwXwXwXwXwXwXwXwXwXwXwXwXwXwXwXwXwXwXwXwXwXwXwXwXwXwXwXwXwXwXwXwXwXwXwXwXwXwXwXwXwXwXwXwX",
"wXwXwXwXwXwXwXwXwXwXwXwXwXwXwXwXwXwXwXwXwXwXwXwXwXwXwXwXwXwXwXwXwXwXwXwXwXwXwXwXwXwXwXwXwXwXwXwXwXwXwXwXwXwXwXwXwXwXwXwXwXwXwXwXwXwXwXwXwXwXwXwXwXwXwXwXwXwXwXwXwXwXwXwXwXwXwXwXwXwXwXwXwXwXwXwXwXwXwXwXwX5X5X5X5X2X2X2X2XwXwXwXwXwXwXwXwXwXwXwXwX2X2X2X2X3X3X3X4X4X4X4XwXwXwXwXwXwXwXwXwXwXwXwX3X3X3X3XwXwXwXwXwXwXwXwX3X3X3X3X3X3X3X3X2X2X2X2X4X4X4X4XwXwXwXwX4X4X4X4XwXwXwXwX3X3X3X3X4X4X4X4X4X4X4X4XwXwXwXwXwXwXwXwXwXwXwXwXwXwXwXwXwXwXwXwXwXwXwXwXwXwXwXwXwXwXwXwXwXwXwXwXwXwXwXwXwXwXwXwXwXwXwXwXwXwXwXwXwXwXwXwXwXwXwXwXwXwXwXwXwXwXwXwXwXwXwXwXwXwXwXwXwXwXwXwXwXwXwXwXwXwXwXwXwXwXwXwXwXwXwXwXwXwXwXwXwXwXwXwXwXwXwXwXwXwXwXwXwXwXwXwXwXwXwXwXwXwXwXwXwXwXwXwXwXwXwXwXwXwXwXwXwXwXwXwXwXwXwXwXwXwXwXwXwXwXwXwXwXwXwXwXwXwXwXwXwXwXwXwXwXwXwXwXwXwXwXwXwX",
"wXwXwXwXwXwXwXwXwXwXwXwXwXwXwXwXwXwXwXwXwXwXwXwXwXwXwXwXwXwXwXwXwXwXwXwXwXwXwXwXwXwXwXwXwXwXwXwXwXwXwXwXwXwXwXwXwXwXwXwXwXwXwXwXwXwXwXwXwXwXwXwXwXwXwXwXwXwXwXwXwXwXwXwXwXwXwXwXwXwXwXwXwXwXwXwXwXwXwXwXwX5X5X5X5X2X2X2X2XwXwXwXwXwXwXwXwXwXwXwXwX2X2X2X2X3X3X3X4X4X4X4XwXwXwXwXwXwXwXwXwXwXwXwX3X3X3X3XwXwXwX4XwXwXwXwX3X3X3X3X3X3X3X3X2X2X2X2X4X4X4X4XwXwXwXwX4X4X4X4XwXwXwXwX3X3X3X3X4X4X4X4X4X4X4X4XwXwXwXwXwXwXwXwXwXwXwXwXwXwXwXwXwXwXwXwXwXwXwXwXwXwXwXwXwXwXwXwXwXwXwXwXwXwXwXwXwXwXwXwXwXwXwXwXwXwXwXwXwXwXwXwXwXwXwXwXwXwXwXwXwXwXwXwXwXwXwXwXwXwXwXwXwXwXwXwXwXwXwXwXwXwXwXwXwXwXwXwXwXwXwXwXwXwXwXwXwXwXwXwXwXwXwXwXwXwXwXwXwXwXwXwXwXwXwXwXwXwXwXwXwXwXwXwXwXwXwXwXwXwXwXwXwXwXwXwXwXwXwXwXwXwXwXwXwXwXwXwXwXwXwXwXwXwXwXwXwXwXwXwXwXwXwXwXwXwXwXwXwX",
"wXwXwXwXwXwXwXwXwXwXwXwXwXwXwXwXwXwXwXwXwXwXwXwXwXwXwXwXwXwXwXwXwXwXwXwXwXwXwXwXwXwXwXwXwXwXwXwXwXwXwXwXwXwXwXwXwXwXwXwXwXwXwXwXwXwXwXwXwXwXwXwXwXwXwXwXwXwXwXwXwXwXwXwXwXwXwXwXwXwXwXwXwXwXwXwXwXwXwXwXwX5X5X5X5X2X2X2X2XwXwXwXwXwXwXwXwXwXwXwXwX2X2X2X2X3X3X3X4X4X4X4XwXwXwXwXwXwXwXwXwXwXwXwX3X3X3X3XwXwXwX4XwXwXwXwX3X3X3X3X3X3X3X3X2X2X2X2X4X4X4X4XwXwXwXwX4X4X4X4XwXwXwXwX3X3X3X3X4X4X4X4X4X4X4X4XwXwXwXwXwXwXwXwXwXwXwXwXwXwXwXwXwXwXwXwXwXwXwXwXwXwXwXwXwXwXwXwXwXwXwXwXwXwXwXwXwXwXwXwXwXwXwXwXwXwXwXwXwXwXwXwXwXwXwXwXwXwXwXwXwXwXwXwXwXwXwXwXwXwXwXwXwXwXwXwXwXwXwXwXwXwXwXwXwXwXwXwXwXwXwXwXwXwXwXwXwXwXwXwXwXwXwXwXwXwXwXwXwXwXwXwXwXwXwXwXwXwXwXwXwXwXwXwXwXwXwXwXwXwXwXwXwXwXwXwXwXwXwXwXwXwXwXwXwXwXwXwXwXwXwXwXwXwXwXwXwXwXwXwXwXwXwXwXwXwXwXwXwX",
"wXwXwXwXwXwXwXwXwXwXwXwXwXwXwXwXwXwXwXwXwXwXwXwXwXwXwXwXwXwXwXwXwXwXwXwXwXwXwXwXwXwXwXwXwXwXwXwXwXwXwXwXwXwXwXwXwXwXwXwXwXwXwXwXwXwXwXwXwXwXwXwXwXwXwXwXwXwXwXwXwXwXwXwXwXwXwXwXwX4X4X4X4X4X4X4X4X3X3X3X3X2X2X2X2X2X2X1X2XwXwXwXwX4X4X4X4X<X<X<X1X<X<X<X<XwXwXwXwXwXwXwX1X1X1X1XwXwXwXwXwXwXwXwXwXwXwXwX2X2X2X2X3X3X3X3X2X2X2X2XwXwXwXwXwXwXwXwX1X1X1X1X4X4X4X4XwXwXwXwXwXwXwXwXwXwXwXwXwXwXwXwX4X4X4X4X4X4X4X4XwXwXwXwXwXwXwXwXwXwXwXwXwXwXwXwXwXwXwXwXwXwXwXwXwXwXwXwXwXwXwXwXwXwXwXwXwXwXwXwXwXwXwXwXwXwXwXwXwXwXwXwXwXwXwXwXwXwXwXwXwXwXwXwXwXwXwXwXwXwXwXwXwXwXwXwXwXwXwXwXwXwXwXwXwXwXwXwXwXwXwXwXwXwXwXwXwXwXwXwXwXwXwXwXwXwXwXwXwXwXwXwXwXwXwXwXwXwXwXwXwXwXwXwXwXwXwXwXwXwXwXwXwXwXwXwXwXwXwXwXwXwXwXwXwXwXwXwXwXwXwXwXwXwXwXwXwXwXwXwXwXwXwXwXwXwXwXwXwX",
"wXwXwXwXwXwXwXwXwXwXwXwXwXwXwXwXwXwXwXwXwXwXwXwXwXwXwXwXwXwXwXwXwXwXwXwXwXwXwXwXwXwXwXwXwXwXwXwXwXwXwXwXwXwXwXwXwXwXwXwXwXwXwXwXwXwXwXwXwXwXwXwXwXwXwXwXwXwXwXwXwXwXwXwXwXwXwXwXwX4X4X4X4X4X4X4X4X3X3X3X3X2X2X2X2X2X2X2X2XwXwXwXwX4X4X4X4X<X<X<X1X<X<X<X<XwXwXwXwXwXwXwX1X1X1X1XwXwXwXwXwXwXwXwXwXwXwXwX2X2X2X2X3X3X3X3X2X2X2X2XwXwXwXwXwXwXwXwX1X1X1X1X4X4X4X4XwXwXwXwXwXwXwXwXwXwXwXwXwXwXwXwX4X4X4X4X4X4X4X4XwXwXwXwXwXwXwXwXwXwXwXwXwXwXwXwXwXwXwXwXwXwXwXwXwXwXwXwXwXwXwXwXwXwXwXwXwXwXwXwXwXwXwXwXwXwXwXwXwXwXwXwXwXwXwXwXwXwXwXwXwXwXwXwXwXwXwXwXwXwXwXwXwXwXwXwXwXwXwXwXwXwXwXwXwXwXwXwXwXwXwXwXwXwXwXwXwXwXwXwXwXwXwXwXwXwXwXwXwXwXwXwXwXwXwXwXwXwXwXwXwXwXwXwXwXwXwXwXwXwXwXwXwXwXwXwXwXwXwXwXwXwXwXwXwXwXwXwXwXwXwXwXwXwXwXwXwXwXwXwXwXwXwXwXwXwXwXwXwX",
"wXwXwXwXwXwXwXwXwXwXwXwXwXwXwXwXwXwXwXwXwXwXwXwXwXwXwXwXwXwXwXwXwXwXwXwXwXwXwXwXwXwXwXwXwXwXwXwXwXwXwXwXwXwXwXwXwXwXwXwXwXwXwXwXwXwXwXwXwXwXwXwXwXwXwXwXwXwXwXwXwXwXwXwXwXwXwXwXwX4X4X4X4X4X4X4X4X3X3X3X3X2X2X2X2X2X2X2X2XwXwXwXwX4X4X4X4X<X<X<X1X1X<X<X<XwXwXwXwXwXwXwX1X1X1X1XwXwXwXwXwXwXwXwXwXwXwXwX2X2X2X2X3X3X3X3X2X2X2X2XwXwXwXwXwXwXwXwX1X1X1X1X4X4X4X4XwXwXwXwXwXwXwXwXwXwXwXwXwXwXwXwX4X4X4X4X4X4X4X4XwXwXwXwXwXwXwXwXwXwXwXwXwXwXwXwXwXwXwXwXwXwXwXwXwXwXwXwXwXwXwXwXwXwXwXwXwXwXwXwXwXwXwXwXwXwXwXwXwXwXwXwXwXwXwXwXwXwXwXwXwXwXwXwXwXwXwXwXwXwXwXwXwXwXwXwXwXwXwXwXwXwXwXwXwXwXwXwXwXwXwXwXwXwXwXwXwXwXwXwXwXwXwXwXwXwXwXwXwXwXwXwXwXwXwXwXwXwXwXwXwXwXwXwXwXwXwXwXwXwXwXwXwXwXwXwXwXwXwXwXwXwXwXwXwXwXwXwXwXwXwXwXwXwXwXwXwXwXwXwXwXwXwXwXwXwXwXwXwX",
"wXwXwXwXwXwXwXwXwXwXwXwXwXwXwXwXwXwXwXwXwXwXwXwXwXwXwXwXwXwXwXwXwXwXwXwXwXwXwXwXwXwXwXwXwXwXwXwXwXwXwXwXwXwXwXwXwXwXwXwXwXwXwXwXwXwXwXwXwXwXwXwXwXwXwXwXwXwXwXwXwXwXwXwXwXwXwXwXwX4X4X4X4X4X4X4X4X3X3X3X3X2X2X2X2X2X2X2X2XwXwXwXwX4X4X4X4X<X<X<X1X1X<X<X<XwXwXwXwXwXwXwX1X1X1X1XwXwXwXwXwXwXwXwXwXwXwXwX2X2X2X2X3X3X3X3X2X2X2X2XwXwXwXwXwXwXwXwX1X1X1X1X4X4X4X4XwXwXwXwXwXwXwXwXwXwXwXwXwXwXwXwX5X4X4X4X4X4X4X4XwXwXwXwXwXwXwXwXwXwXwXwXwXwXwXwXwXwXwXwXwXwXwXwXwXwXwXwXwXwXwXwXwXwXwXwXwXwXwXwXwXwXwXwXwXwXwXwXwXwXwXwXwXwXwXwXwXwXwXwXwXwXwXwXwXwXwXwXwXwXwXwXwXwXwXwXwXwXwXwXwXwXwXwXwXwXwXwXwXwXwXwXwXwXwXwXwXwXwXwXwXwXwXwXwXwXwXwXwXwXwXwXwXwXwXwXwXwXwXwXwXwXwXwXwXwXwXwXwXwXwXwXwXwXwXwXwXwXwXwXwXwXwXwXwXwXwXwXwXwXwXwXwXwXwXwXwXwXwXwXwXwXwXwXwXwXwXwXwX",
"wXwXwXwXwXwXwXwXwXwXwXwXwXwXwXwXwXwXwXwXwXwXwXwXwXwXwXwXwXwXwXwXwXwXwXwXwXwXwXwXwXwXwXwXwXwXwXwXwXwXwXwXwXwXwXwXwXwXwXwXwXwXwXwXwXwXwXwXwXwXwXwXwXwXwXwXwXwXwXwXwXwXwXwXwXwXwXwXwXwXwXwXwXwXwXwXwXwXwXwXwXwXwXwXwXwXwXwXwX1X1X1X1X8X7X7X7X2X2X2X2XwX4X4X4XwXwXwXwXwXwXwX7X7X7X7X4X4X4X4X4X4X4X4X<X<X<X<X1X1X<X1XwXwXwXwX2X2X2X2XwXwXwXwX1X1X1X2X1X1X1X1X<X<X<X<XwXwXwXwX1X1X1X2X2X2X2X2X4X4X4X4XwXwXwXwXwXwXwXwXwXwXwXwX4X4X4X4XwXwXwXwXwXwXwXwXwXwXwXwXwXwXwXwXwXwXwXwXwXwXwXwXwXwXwXwXwXwXwXwXwXwXwXwXwXwXwXwXwXwXwXwXwXwXwXwXwXwXwXwXwXwXwXwXwXwXwXwXwXwXwXwXwXwXwXwXwXwXwXwXwXwXwXwXwXwXwXwXwXwXwXwXwXwXwXwXwXwXwXwXwXwXwXwXwXwXwXwXwXwXwXwXwXwXwXwXwXwXwXwXwXwXwXwXwXwXwXwXwXwXwXwXwXwXwXwXwXwXwXwXwXwXwXwXwXwXwXwXwXwXwXwXwXwXwXwXwXwXwXwXwXwXwXwXwXwXwXwXwX",
"wXwXwXwXwXwXwXwXwXwXwXwXwXwXwXwXwXwXwXwXwXwXwXwXwXwXwXwXwXwXwXwXwXwXwXwXwXwXwXwXwXwXwXwXwXwXwXwXwXwXwXwXwXwXwXwXwXwXwXwXwXwXwXwXwXwXwXwXwXwXwXwXwXwXwXwXwXwXwXwXwXwXwXwXwXwXwXwXwXwXwXwXwXwXwXwXwXwXwXwXwXwXwXwXwXwXwXwXwX1X1X1X1X8X7X7X7X2X2X2X2XwX4X4X4XwXwXwXwXwXwXwX7X7X7X7X4X4X4X4X4X4X4X4X<X<X<X<X<X1X1X1XwXwXwXwX2X2X2X2XwXwXwXwX1X1X1X2X1X1X1X1X<X<X<X<XwXwXwXwX1X1X1X1X2X2X2X2X4X4X4X4XwXwXwXwXwXwXwXwXwXwXwXwX4X4X4X4XwXwXwXwXwXwXwXwXwXwXwXwXwXwXwXwXwXwXwXwXwXwXwXwXwXwXwXwXwXwXwXwXwXwXwXwXwXwXwXwXwXwXwXwXwXwXwXwXwXwXwXwXwXwXwXwXwXwXwXwXwXwXwXwXwXwXwXwXwXwXwXwXwXwXwXwXwXwXwXwXwXwXwXwXwXwXwXwXwXwXwXwXwXwXwXwXwXwXwXwXwXwXwXwXwXwXwXwXwXwXwXwXwXwXwXwXwXwXwXwXwXwXwXwXwXwXwXwXwXwXwXwXwXwXwXwXwXwXwXwXwXwXwXwXwXwXwXwXwXwXwXwXwXwXwXwXwXwXwXwXwX",
"wXwXwXwXwXwXwXwXwXwXwXwXwXwXwXwXwXwXwXwXwXwXwXwXwXwXwXwXwXwXwXwXwXwXwXwXwXwXwXwXwXwXwXwXwXwXwXwXwXwXwXwXwXwXwXwXwXwXwXwXwXwXwXwXwXwXwXwXwXwXwXwXwXwXwXwXwXwXwXwXwXwXwXwXwXwXwXwXwXwXwXwXwXwXwXwXwXwXwXwXwXwXwXwXwXwXwXwX4X1X1X1X1X8X7X7X7X2X2X2X2X4X4X4X4XwXwXwXwXwXwXwX7X7X7X7X4X4X4X4X4X4X4X4X<X<X<X<X1X<X<X<XwXwXwXwX2X2X2X2XwXwXwXwX1X1X2X2X1X1X1X1X<X<X<X<XwXwXwXwX1X1X1X1X2X2X2X2X4X4X4X4XwXwXwXwXwXwXwXwXwXwXwXwX4X4X4X4XwXwXwXwXwXwXwXwXwXwXwXwXwXwXwXwXwXwXwXwXwXwXwXwXwXwXwXwXwXwXwXwXwXwXwXwXwXwXwXwXwXwXwXwXwXwXwXwXwXwXwXwXwXwXwXwXwXwXwXwXwXwXwXwXwXwXwXwXwXwXwXwXwXwXwXwXwXwXwXwXwXwXwXwXwXwXwXwXwXwXwXwXwXwXwXwXwXwXwXwXwXwXwXwXwXwXwXwXwXwXwXwXwXwXwXwXwXwXwXwXwXwXwXwXwXwXwXwXwXwXwXwXwXwXwXwXwXwXwXwXwXwXwXwXwXwXwXwXwXwXwXwXwXwXwXwXwXwXwXwXwX",
"wXwXwXwXwXwXwXwXwXwXwXwXwXwXwXwXwXwXwXwXwXwXwXwXwXwXwXwXwXwXwXwXwXwXwXwXwXwXwXwXwXwXwXwXwXwXwXwXwXwXwXwXwXwXwXwXwXwXwXwXwXwXwXwXwXwXwXwXwXwXwXwXwXwXwXwXwXwXwXwXwXwXwXwXwXwXwXwXwXwXwXwXwXwXwXwXwXwXwXwXwXwXwXwXwXwXwXwX4X1X1X1X1X8X7X7X7X2X2X2X2XwX4X4X4XwXwXwXwXwXwXwX7X7X7X7X4X4X4X4X4X4X4X4X<X<X<X<X1X1X1X<XwXwXwXwX2X2X2X2XwXwXwXwX1X1X2X2X1X1X1X1X1X<X<X<XwXwXwXwX1X1X1X1X2X2X2X2X5X4X4X4XwXwXwXwXwXwXwXwXwXwXwXwX4X4X4X4XwXwXwXwXwXwXwXwXwXwXwXwXwXwXwXwXwXwXwXwXwXwXwXwXwXwXwXwXwXwXwXwXwXwXwXwXwXwXwXwXwXwXwXwXwXwXwXwXwXwXwXwXwXwXwXwXwXwXwXwXwXwXwXwXwXwXwXwXwXwXwXwXwXwXwXwXwXwXwXwXwXwXwXwXwXwXwXwXwXwXwXwXwXwXwXwXwXwXwXwXwXwXwXwXwXwXwXwXwXwXwXwXwXwXwXwXwXwXwXwXwXwXwXwXwXwXwXwXwXwXwXwXwXwXwXwXwXwXwXwXwXwXwXwXwXwXwXwXwXwXwXwXwXwXwXwXwXwXwXwXwX",
"wXwXwXwXwXwXwXwXwXwXwXwXwXwXwXwXwXwXwXwXwXwXwXwXwXwXwXwXwXwXwXwXwXwXwXwXwXwXwXwXwXwXwXwXwXwXwXwXwXwXwXwXwXwXwXwXwXwXwXwXwXwXwXwXwXwXwXwXwXwXwXwXwXwXwXwXwXwXwXwXwXwXwXwXwXwXwXwXwXwXwXwXwX4X4X4X4X3X3X3X3XwXwXwXwX<X<X<X<X4X4X4X4X5X5X5X5X7X7X7X7X4X4X4X4X4X4X4X-X-X;X;X-X-X-X*X*X*X*X*X4X4X4X4X7X7X7X7X<X<X<X<X<X<X<X<X2X2X2X2X4X4X4X4X1X1X1X1X1X1X<X<XwXwXwXwX1X1X1X2X4X4X4X4XwXwXwXwX2X2X2X2X4X4X4X4X3X3X3X3X3X3X3X3XwXwXwXwXwXwXwXwX4X4X4XwXwXwXwXwXwXwXwXwXwXwXwXwXwXwXwXwXwXwXwXwXwXwXwXwXwXwXwXwXwXwXwXwXwXwXwXwXwXwXwXwXwXwXwXwXwXwXwXwXwXwXwXwXwXwXwXwXwXwXwXwXwXwXwXwXwXwXwXwXwXwXwXwXwXwXwXwXwXwXwXwXwXwXwXwXwXwXwXwXwXwXwXwXwXwXwXwXwXwXwXwXwXwXwXwXwXwXwXwXwXwXwXwXwXwXwXwXwXwXwXwXwXwXwXwXwXwXwXwXwXwXwXwXwXwXwXwXwXwXwXwXwXwXwXwXwXwXwXwXwXwXwXwXwX",
"wXwXwXwXwXwXwXwXwXwXwXwXwXwXwXwXwXwXwXwXwXwXwXwXwXwXwXwXwXwXwXwXwXwXwXwXwXwXwXwXwXwXwXwXwXwXwXwXwXwXwXwXwXwXwXwXwXwXwXwXwXwXwXwXwXwXwXwXwXwXwXwXwXwXwXwXwXwXwXwXwXwXwXwXwXwXwXwXwXwXwXwXwX4X4X4X4X3X3X3X3XwXwXwXwX<X<X<X<X4X4X4X4X5X5X5X5X7X7X7X7X4X4X4X4X4X4X4X-X-X;X;X-X-X-X*X*X*X*X*X4X4X4X4X7X7X7X7X<X<X<X<X<X<X<X<X2X2X2X2X4X4X4X4X1X1X1X1X1X<X<X<XwXwXwXwX1X1X2X2X4X4X4X4XwXwXwXwX2X2X2X2X4X4X4X4X3X3X3X3X3X3X3X3XwXwXwXwXwXwXwXwX4X4X4XwXwXwXwXwXwXwXwXwXwXwXwXwXwXwXwXwXwXwXwXwXwXwXwXwXwXwXwXwXwXwXwXwXwXwXwXwXwXwXwXwXwXwXwXwXwXwXwXwXwXwXwXwXwXwXwXwXwXwXwXwXwXwXwXwXwXwXwXwXwXwXwXwXwXwXwXwXwXwXwXwXwXwXwXwXwXwXwXwXwXwXwXwXwXwXwXwXwXwXwXwXwXwXwXwXwXwXwXwXwXwXwXwXwXwXwXwXwXwXwXwXwXwXwXwXwXwXwXwXwXwXwXwXwXwXwXwXwXwXwXwXwXwXwXwXwXwXwXwXwXwXwXwXwX",
"wXwXwXwXwXwXwXwXwXwXwXwXwXwXwXwXwXwXwXwXwXwXwXwXwXwXwXwXwXwXwXwXwXwXwXwXwXwXwXwXwXwXwXwXwXwXwXwXwXwXwXwXwXwXwXwXwXwXwXwXwXwXwXwXwXwXwXwXwXwXwXwXwXwXwXwXwXwXwXwXwXwXwXwXwXwXwXwXwXwXwXwXwX4X4X4X4X3X3X3X3XwXwXwXwX<X<X<X<X4X4X4X4X5X5X5X5X7X7X7X7X4X4X4X4X4X4X4X-X-X;X;X-X-X*X*X*X*X*X*X4X4X4X4X7X7X7X7X>X<X>X>X<X<X<X<X2X2X2X2X4X4X4X4X1X1X1X1X1X1X<X<X4X4XwX4X1X1X1X1X4X4X4X4XwXwXwXwX2X2X2X2X4X4X4X4X3X3X3X3X3X3X3X3XwXwXwXwXwXwXwXwX4X4X4XwXwXwXwXwXwXwXwXwXwXwXwXwXwXwXwXwXwXwXwXwXwXwXwXwXwXwXwXwXwXwXwXwXwXwXwXwXwXwXwXwXwXwXwXwXwXwXwXwXwXwXwXwXwXwXwXwXwXwXwXwXwXwXwXwXwXwXwXwXwXwXwXwXwXwXwXwXwXwXwXwXwXwXwXwXwXwXwXwXwXwXwXwXwXwXwXwXwXwXwXwXwXwXwXwXwXwXwXwXwXwXwXwXwXwXwXwXwXwXwXwXwXwXwXwXwXwXwXwXwXwXwXwXwXwXwXwXwXwXwXwXwXwXwXwXwXwXwXwXwXwXwXwXwX",
"wXwXwXwXwXwXwXwXwXwXwXwXwXwXwXwXwXwXwXwXwXwXwXwXwXwXwXwXwXwXwXwXwXwXwXwXwXwXwXwXwXwXwXwXwXwXwXwXwXwXwXwXwXwXwXwXwXwXwXwXwXwXwXwXwXwXwXwXwXwXwXwXwXwXwXwXwXwXwXwXwXwXwXwXwXwXwXwXwXwXwXwXwX4X4X4X4X3X3X3X3XwXwXwXwX<X<X<X<X4X4X4X4X5X5X5X5X7X7X7X7X4X4X4X4X4X4X4X-X;X;X7X-X-X*X*X*X*X*X*X4X4X4X4X7X7X7X7X<X>X<X<X<X<X<X<X2X2X2X2X4X4X4X4X1X1X1X1X1X1X<X<X4X4X4X4X1X1X1X1X4X4X4X4XwXwXwXwX2X2X2X2X4X4X4X4X3X3X3X3X3X3X3X3XwXwXwXwXwXwXwXwX4X4X4XwXwXwXwXwXwXwXwXwXwXwXwXwXwXwXwXwXwXwXwXwXwXwXwXwXwXwXwXwXwXwXwXwXwXwXwXwXwXwXwXwXwXwXwXwXwXwXwXwXwXwXwXwXwXwXwXwXwXwXwXwXwXwXwXwXwXwXwXwXwXwXwXwXwXwXwXwXwXwXwXwXwXwXwXwXwXwXwXwXwXwXwXwXwXwXwXwXwXwXwXwXwXwXwXwXwXwXwXwXwXwXwXwXwXwXwXwXwXwXwXwXwXwXwXwXwXwXwXwXwXwXwXwXwXwXwXwXwXwXwXwXwXwXwXwXwXwXwXwXwXwXwXwXwX",
"wXwXwXwXwXwXwXwXwXwXwXwXwXwXwXwXwXwXwXwXwXwXwXwXwXwXwXwXwXwXwXwXwXwXwXwXwXwXwXwXwXwXwXwXwXwXwXwXwXwXwXwXwXwXwXwXwXwXwXwXwXwXwXwXwXwXwXwXwXwXwXwXwXwXwXwXwXwXwXwXwXwXwXwXwXwXwXwXwXwXwXwXwX4X4X4X4XwXwXwXwXwXwXwXwXwXwXwXwX7X7X7X7X8X8X8X8X5X5X5X5X5X5X5X5X4X4X4X4X4X4X4X5X5X5X5X9X9X9X9X4X4X4X4X4X4X4X4X-X-X-X-X1X1X1X1X<X<X1X1XwXwXwXwX3X3X3X3X<X<X<X1XwXwXwXwX<X<X<X<X2X2X2X2X1X1X1X2XwXwXwXwXwXwXwXwXwXwXwXwXwXwXwXwX3X3X3X3X3X3X3X3XwXwXwX4X5X4X5XwXwXwXwXwXwXwXwXwXwXwXwXwXwXwXwXwXwXwXwXwXwXwXwXwXwXwXwXwXwXwXwXwXwXwXwXwXwXwXwXwXwXwXwXwXwXwXwXwXwXwXwXwXwXwXwXwXwXwXwXwXwXwXwXwXwXwXwXwXwXwXwXwXwXwXwXwXwXwXwXwXwXwXwXwXwXwXwXwXwXwXwXwXwXwXwXwXwXwXwXwXwXwXwXwXwXwXwXwXwXwXwXwXwXwXwXwXwXwXwXwXwXwXwXwXwXwXwXwXwXwXwXwXwXwXwXwXwXwXwXwXwXwXwXwXwXwXwXwXwX",
"wXwXwXwXwXwXwXwXwXwXwXwXwXwXwXwXwXwXwXwXwXwXwXwXwXwXwXwXwXwXwXwXwXwXwXwXwXwXwXwXwXwXwXwXwXwXwXwXwXwXwXwXwXwXwXwXwXwXwXwXwXwXwXwXwXwXwXwXwXwXwXwXwXwXwXwXwXwXwXwXwXwXwXwXwXwXwXwXwXwXwXwXwX4X4X4X4XwXwXwXwXwXwXwXwXwXwXwXwX7X7X7X7X8X8X8X8X5X5X5X5X5X5X5X5X4X4X4X4X4X4X4X5X5X5X5X9X9X9X9X4X4X4X4X4X4X4X4X-X-X-X-X1X1X1X1X<X1X1X1XwXwXwXwX3X3X3X3X<X<X<X1XwXwXwXwX<X<X<X<X2X2X2X2X1X1X1X1XwXwXwXwXwXwXwXwXwXwXwXwXwXwXwXwX3X3X3X3X3X3X3X3XwXwXwX4X4X4X5XwXwXwXwXwXwXwXwXwXwXwXwXwXwXwXwXwXwXwXwXwXwXwXwXwXwXwXwXwXwXwXwXwXwXwXwXwXwXwXwXwXwXwXwXwXwXwXwXwXwXwXwXwXwXwXwXwXwXwXwXwXwXwXwXwXwXwXwXwXwXwXwXwXwXwXwXwXwXwXwXwXwXwXwXwXwXwXwXwXwXwXwXwXwXwXwXwXwXwXwXwXwXwXwXwXwXwXwXwXwXwXwXwXwXwXwXwXwXwXwXwXwXwXwXwXwXwXwXwXwXwXwXwXwXwXwXwXwXwXwXwXwXwXwXwXwXwXwXwXwX",
"wXwXwXwXwXwXwXwXwXwXwXwXwXwXwXwXwXwXwXwXwXwXwXwXwXwXwXwXwXwXwXwXwXwXwXwXwXwXwXwXwXwXwXwXwXwXwXwXwXwXwXwXwXwXwXwXwXwXwXwXwXwXwXwXwXwXwXwXwXwXwXwXwXwXwXwXwXwXwXwXwXwXwXwXwXwXwXwXwXwXwXwXwX4X4X4X4XwXwXwXwXwXwXwXwXwXwXwXwX7X7X7X7X8X8X8X8X5X5X5X5X5X5X5X4X4X4X4X4X4X4X4X5X5X5X5X9X9X9X9X4X4X4X4X4X4X4X4X-X-X-X-X1X1X1X1X<X<X1X1XwXwXwXwX3X3X3X3X<X<X<X<XwXwXwXwX<X<X<X<X1X2X2X2X1X1X1X1XwXwXwXwXwXwXwXwXwXwXwXwXwXwXwXwX3X3X3X3X3X3X3X3XwXwXwX4X4X4X5XwXwXwXwXwXwXwXwXwXwXwXwXwXwXwXwXwXwXwXwXwXwXwXwXwXwXwXwXwXwXwXwXwXwXwXwXwXwXwXwXwXwXwXwXwXwXwXwXwXwXwXwXwXwXwXwXwXwXwXwXwXwXwXwXwXwXwXwXwXwXwXwXwXwXwXwXwXwXwXwXwXwXwXwXwXwXwXwXwXwXwXwXwXwXwXwXwXwXwXwXwXwXwXwXwXwXwXwXwXwXwXwXwXwXwXwXwXwXwXwXwXwXwXwXwXwXwXwXwXwXwXwXwXwXwXwXwXwXwXwXwXwXwXwXwXwXwXwXwXwX",
"wXwXwXwXwXwXwXwXwXwXwXwXwXwXwXwXwXwXwXwXwXwXwXwXwXwXwXwXwXwXwXwXwXwXwXwXwXwXwXwXwXwXwXwXwXwXwXwXwXwXwXwXwXwXwXwXwXwXwXwXwXwXwXwXwXwXwXwXwXwXwXwXwXwXwXwXwXwXwXwXwXwXwXwXwXwXwXwXwXwXwXwXwX4X4X4X4XwXwXwXwXwXwXwXwXwXwXwXwX7X7X7X7X8X8X8X8X5X5X5X5X5X5X5X4X4X4X4X4X4X4X4X5X5X5X5X9X9X9X9X4X4X4X4X4X4X4X4X;X-X-X-X1X1X1X1X<X<X1X1XwXwXwXwX3X3X3X3X<X<X<X<XwXwXwXwX<X<X<X<X1X2X2X2X1X1X1X1XwXwXwXwXwXwXwXwXwXwXwXwXwXwXwXwX3X3X3X3X3X3X3X3XwXwXwX4X4X4X5XwXwXwXwXwXwXwXwXwXwXwXwXwXwXwXwXwXwXwXwXwXwXwXwXwXwXwXwXwXwXwXwXwXwXwXwXwXwXwXwXwXwXwXwXwXwXwXwXwXwXwXwXwXwXwXwXwXwXwXwXwXwXwXwXwXwXwXwXwXwXwXwXwXwXwXwXwXwXwXwXwXwXwXwXwXwXwXwXwXwXwXwXwXwXwXwXwXwXwXwXwXwXwXwXwXwXwXwXwXwXwXwXwXwXwXwXwXwXwXwXwXwXwXwXwXwXwXwXwXwXwXwXwXwXwXwXwXwXwXwXwXwXwXwXwXwXwXwXwXwX",
"wXwXwXwXwXwXwXwXwXwXwXwXwXwXwXwXwXwXwXwXwXwXwXwXwXwXwXwXwXwXwXwXwXwXwXwXwXwXwXwXwXwXwXwXwXwXwXwXwXwXwXwXwXwXwXwXwXwXwXwXwXwXwXwXwXwXwXwXwXwXwXwXwXwXwXwXwX4X4X4X4XwXwXwXwXwXwXwXwXwXwXwXwX4X4X4X4XwXwXwXwXwXwXwXwXwXwXwXwX$X$X$X$X0X0X0X0X0X0X0X0X+X+X+X+X0X0X1X<X<X<X<X8X8X8X8X X XXXXX*X*X*X*X*X*X*X*X<X<X<X<XwXwXwXwX>X>X>X>X2X2X3X3X1X1X1X1XwXwXwXwX<X<X<X<X4X4X4X4X<X<X<X<XwXwXwXwXwXwXwXwX2X2X2X2X4X4X4X4XwXwXwXwX2X2X2X2X2X2X2X2X3X3X3X3X3X3X3XwXwXwXwXwXwXwXwXwXwXwXwXwXwXwXwXwXwXwXwXwXwXwXwXwXwXwXwXwXwXwXwXwXwXwXwXwXwXwXwXwXwXwXwXwXwXwXwXwXwXwXwXwXwXwXwXwXwXwXwXwXwXwXwXwXwXwXwXwXwXwXwXwXwXwXwXwXwXwXwXwXwXwXwXwXwXwXwXwXwXwXwXwXwXwXwXwXwXwXwXwXwXwXwXwXwXwXwXwXwXwXwXwXwXwXwXwXwXwXwXwXwXwXwXwXwXwXwXwXwXwXwXwXwXwXwXwXwXwXwXwXwXwXwXwXwXwXwXwXwX",
"wXwXwXwXwXwXwXwXwXwXwXwXwXwXwXwXwXwXwXwXwXwXwXwXwXwXwXwXwXwXwXwXwXwXwXwXwXwXwXwXwXwXwXwXwXwXwXwXwXwXwXwXwXwXwXwXwXwXwXwXwXwXwXwXwXwXwXwXwXwXwXwXwXwXwXwXwX4X4X4X4XwXwXwXwXwXwXwXwXwXwXwXwX4X4X4X4XwXwXwXwXwXwXwXwXwXwXwXwX$X$X$X$X0X0X0X0X0X0X0X0X+X+X+XXX0X1X1X<X<X<X<X8X8X8X8X X XXXXX*X*X*X*X*X*X*X*X<X<X<X<XwXwXwXwX>X>X>X>X2X2X2X3X1X1X1X1XwXwXwXwX<X<X<X<X4X4X4X4X<X<X<X<XwXwXwXwXwXwXwXwX2X2X1X1X4X4X4X4XwXwXwXwX2X2X2X2X2X2X2X2X3X3X3X3X3X3X3XwXwXwXwXwXwXwXwXwXwXwXwXwXwXwXwXwXwXwXwXwXwXwXwXwXwXwXwXwXwXwXwXwXwXwXwXwXwXwXwXwXwXwXwXwXwXwXwXwXwXwXwXwXwXwXwXwXwXwXwXwXwXwXwXwXwXwXwXwXwXwXwXwXwXwXwXwXwXwXwXwXwXwXwXwXwXwXwXwXwXwXwXwXwXwXwXwXwXwXwXwXwXwXwXwXwXwXwXwXwXwXwXwXwXwXwXwXwXwXwXwXwXwXwXwXwXwXwXwXwXwXwXwXwXwXwXwXwXwXwXwXwXwXwXwXwXwXwXwXwX",
"wXwXwXwXwXwXwXwXwXwXwXwXwXwXwXwXwXwXwXwXwXwXwXwXwXwXwXwXwXwXwXwXwXwXwXwXwXwXwXwXwXwXwXwXwXwXwXwXwXwXwXwXwXwXwXwXwXwXwXwXwXwXwXwXwXwXwXwXwXwXwXwXwXwXwXwXwX4X4X4X4XwXwXwXwXwXwXwXwXwXwXwXwX4X4X4X4XwXwXwXwXwXwXwXwXwXwXwX4X$X$X$X$X0X0X0X0X0X0X0X0XXX+X+X+X1X1X1X<X<X<X<X8X8X8X8X X X XXX*X*X*X*X*X*X*X*X<X<X<X<XwXwXwXwX>X>X>X>X2X2X3X3X1X1X1X1XwXwXwXwX<X<X<X<X4X4X4X4X<X<X<X<XwXwXwXwXwXwXwXwX2X2X2X1X4X4X4X4XwXwXwXwX2X2X2X2X2X2X2X2X3X3X3X3X3X3X3XwXwXwXwXwXwXwXwXwXwXwXwXwXwXwXwXwXwXwXwXwXwXwXwXwXwXwXwXwXwXwXwXwXwXwXwXwXwXwXwXwXwXwXwXwXwXwXwXwXwXwXwXwXwXwXwXwXwXwXwXwXwXwXwXwXwXwXwXwXwXwXwXwXwXwXwXwXwXwXwXwXwXwXwXwXwXwXwXwXwXwXwXwXwXwXwXwXwXwXwXwXwXwXwXwXwXwXwXwXwXwXwXwXwXwXwXwXwXwXwXwXwXwXwXwXwXwXwXwXwXwXwXwXwXwXwXwXwXwXwXwXwXwXwXwXwXwXwXwXwX",
"wXwXwXwXwXwXwXwXwXwXwXwXwXwXwXwXwXwXwXwXwXwXwXwXwXwXwXwXwXwXwXwXwXwXwXwXwXwXwXwXwXwXwXwXwXwXwXwXwXwXwXwXwXwXwXwXwXwXwXwXwXwXwXwXwXwXwXwXwXwXwXwXwXwXwXwXwX4X4X4X4XwXwXwXwXwXwXwXwXwXwXwXwX4X4X4X4XwXwXwXwXwXwXwXwXwXwXwX4X$X$X$X$X0X0X0X0X0X0X0X0XXX+X+X+X1X1X1X<X<X<X<X8X8X8X8X X XXXXX*X*X*X*X*X*X*X*X<X<X<X<XwXwXwXwX>X>X>X>X2X2X3X3X1X1X1X1XwXwXwXwX<X<X<X<X4X4X4X4X<X<X<X<XwXwXwXwXwXwXwXwX1X2X1X2X4X4X4X4XwXwXwXwX2X2X2X2X2X2X2X2X3X3X3X3X3X3X3XwXwXwXwXwXwXwXwXwXwXwXwXwXwXwXwXwXwXwXwXwXwXwXwXwXwXwXwXwXwXwXwXwXwXwXwXwXwXwXwXwXwXwXwXwXwXwXwXwXwXwXwXwXwXwXwXwXwXwXwXwXwXwXwXwXwXwXwXwXwXwXwXwXwXwXwXwXwXwXwXwXwXwXwXwXwXwXwXwXwXwXwXwXwXwXwXwXwXwXwXwXwXwXwXwXwXwXwXwXwXwXwXwXwXwXwXwXwXwXwXwXwXwXwXwXwXwXwXwXwXwXwXwXwXwXwXwXwXwXwXwXwXwXwXwXwXwXwXwXwX",
"wXwXwXwXwXwXwXwXwXwXwXwXwXwXwXwXwXwXwXwXwXwXwXwXwXwXwXwXwXwXwXwXwXwXwXwXwXwXwXwXwXwXwXwXwXwXwXwXwXwXwXwXwXwXwXwXwXwXwXwXwXwXwXwXwX4X4X4X4XwXwXwXwXwXwXwXwX5X5X5X5X4X4X4X4X4X4X4X4XwXwXwXwX4X4X4X4XwXwXwXwX5X5X5X5X7X;X;X;X5X4X4X5X-X-X-X-X#X#X#X+X*X-X-X-X7X7X7X+X+X+X+X@X@X@XoX[.[.[.[.$X$X$X$X7X7X7X7X-X-X-X-X*X*X*X*X4X4XwXwXwXwXwXwX<X<X<X<XwXwXwXwX1X1X1X1X2X2X2X2XwXwXwXwX4X4X4X4XwXwXwXwXwXwXwXwX4X4X4X4XwXwXwXwX2X2X2X2X4X4X4X4X2X2X2X3X3X3X3XwXwXwXwX5X5X5X5XwXwXwXwX4X4X4X4XwXwXwXwXwXwXwXwXwXwXwXwXwXwXwXwXwXwXwXwXwXwXwXwXwXwXwXwXwXwXwXwXwXwXwXwXwXwXwXwXwXwXwXwXwXwXwXwXwXwXwXwXwXwXwXwXwXwXwXwXwXwXwXwXwXwXwXwXwXwXwXwXwXwXwXwXwXwXwXwXwXwXwXwXwXwXwXwXwXwXwXwXwXwXwXwXwXwXwXwXwXwXwXwXwXwXwXwXwXwXwXwXwXwXwXwXwXwXwXwXwXwXwXwXwXwXwXwXwXwXwXwXwXwX",
"wXwXwXwXwXwXwXwXwXwXwXwXwXwXwXwXwXwXwXwXwXwXwXwXwXwXwXwXwXwXwXwXwXwXwXwXwXwXwXwXwXwXwXwXwXwXwXwXwXwXwXwXwXwXwXwXwXwXwXwXwXwXwXwXwX4X4X4X4XwXwXwXwXwXwXwXwX5X5X5X5X4X4X4X4X4X4X4X4XwXwXwXwX4X4X4X4XwXwXwXwX5X5X5X5X7X;X-X;X5X4X4X5X-X-X-X-X#X#X#X+X*X-X-X-X7X;X;X+X+X+X+X@X@X@X@X[.[.[.[.$X$X$X$X7X7X7X7X-X-X-X-X*X*X*X*X4X4XwXwXwXwXwXwX<X<X<X<XwXwXwXwX1X1X1X1X2X2X2X2XwXwXwXwX4X4X4X4XwXwXwXwXwXwXwXwX4X4X4X4XwXwXwXwX2X2X2X2X4X4X4X4X2X2X2X3X3X3X3XwXwXwXwX5X5X5X5XwXwXwXwX4X4X4X4XwXwXwXwXwXwXwXwXwXwXwXwXwXwXwXwXwXwXwXwXwXwXwXwXwXwXwXwXwXwXwXwXwXwXwXwXwXwXwXwXwXwXwXwXwXwXwXwXwXwXwXwXwXwXwXwXwXwXwXwXwXwXwXwXwXwXwXwXwXwXwXwXwXwXwXwXwXwXwXwXwXwXwXwXwXwXwXwXwXwXwXwXwXwXwXwXwXwXwXwXwXwXwXwXwXwXwXwXwXwXwXwXwXwXwXwXwXwXwXwXwXwXwXwXwXwXwXwXwXwXwXwXwXwX",
"wXwXwXwXwXwXwXwXwXwXwXwXwXwXwXwXwXwXwXwXwXwXwXwXwXwXwXwXwXwXwXwXwXwXwXwXwXwXwXwXwXwXwXwXwXwXwXwXwXwXwXwXwXwXwXwXwXwXwXwXwXwXwXwXwX4X4X4X4XwXwXwXwXwXwXwXwX5X5X5X5X4X4X4X4X4X4X4X4XwXwXwXwX4X4X4X4XwXwXwXwX5X5X5X5X7X7X7X>X4X4X4X5X-X-X-X-X#X#X#X+X-X-X-X*X;X;X;X+X+X+X+X@X@X@X@X[.[.[.[.$X$X$X$X7X7X7X7X-X-X-X-X*X*X*X*X4X4X4X4XwXwXwXwX<X<X<X<XwXwXwXwX1X1X1X1X2X2X2X2XwXwXwXwX4X4X4X4XwXwXwXwXwXwXwXwX4X4X4X4XwXwXwXwX2X2X2X2X4X4X4X4X2X2X2X3X3X3X3XwXwXwXwX5X5X5X5XwXwXwXwX4X4X4X4XwXwXwXwXwXwXwXwXwXwXwXwXwXwXwXwXwXwXwXwXwXwXwXwXwXwXwXwXwXwXwXwXwXwXwXwXwXwXwXwXwXwXwXwXwXwXwXwXwXwXwXwXwXwXwXwXwXwXwXwXwXwXwXwXwXwXwXwXwXwXwXwXwXwXwXwXwXwXwXwXwXwXwXwXwXwXwXwXwXwXwXwXwXwXwXwXwXwXwXwXwXwXwXwXwXwXwXwXwXwXwXwXwXwXwXwXwXwXwXwXwXwXwXwXwXwXwXwXwXwXwXwXwXwX",
"wXwXwXwXwXwXwXwXwXwXwXwXwXwXwXwXwXwXwXwXwXwXwXwXwXwXwXwXwXwXwXwXwXwXwXwXwXwXwXwXwXwXwXwXwXwXwXwXwXwXwXwXwXwXwXwXwXwXwXwXwXwXwXwXwX4X4X4X4XwXwXwXwXwXwXwXwX5X5X5X5X4X4X4X4X4X4X4X4XwXwXwXwX4X4X4X4XwXwXwXwX5X5X5X5X7X7X7X>X4X4X4X5X-X-X-X-X#X#X#X+X*X-X-X*X;X;X;X+X+X+X+X@X@X@X@X[.[.[.[.$X$X$X$X7X7X7X7X-X-X-X-X*X*X*X*X4X4X4X4XwXwXwXwX<X<X<X<XwXwXwXwX1X1X1X1X2X2X2X2XwXwXwXwX4X4X4X4XwXwXwXwXwXwXwXwX4X4X4X4XwXwXwXwX2X2X2X2X4X4X4X4X2X2X2X3X3X3X3XwXwXwXwX5X5X5X5XwXwXwXwX4X4X4X4XwXwXwXwXwXwXwXwXwXwXwXwXwXwXwXwXwXwXwXwXwXwXwXwXwXwXwXwXwXwXwXwXwXwXwXwXwXwXwXwXwXwXwXwXwXwXwXwXwXwXwXwXwXwXwXwXwXwXwXwXwXwXwXwXwXwXwXwXwXwXwXwXwXwXwXwXwXwXwXwXwXwXwXwXwXwXwXwXwXwXwXwXwXwXwXwXwXwXwXwXwXwXwXwXwXwXwXwXwXwXwXwXwXwXwXwXwXwXwXwXwXwXwXwXwXwXwXwXwXwXwXwXwXwX",
"wXwXwXwXwXwXwXwXwXwXwXwXwXwXwXwXwXwXwXwXwXwXwXwXwXwXwXwXwXwXwXwXwXwXwXwXwXwXwXwXwXwXwXwXwXwXwXwXwXwXwXwXwXwXwXwXwXwXwXwXwXwXwXwXwX4X4X4X4XwXwXwXwXwXwXwXwX3X3X3X3XwXwXwXwXwXwXwXwXwXwXwXwXwXwXwXwXwXwXwXwX<X<X<X<X2X2X2X2X<X<X<X<X0X0X0X0X7X7X7X7X8X8X8X8X|.|.|.7X7X7X;X X X X XE E E E 8X8X8X8X;X;X;X;X2X2X2X2X3X3X3X3X2X2X2X2X3X3X3X3X1X1X1X1X4X4X4X4X<X<X<X<X<X<X<X<X<X<X<X<X2X2X2X3X3X3X3X3X4X4X4X4X4X4X4X4XwXwXwXwX1X1X1X1XwXwXwXwX4X4X4XwXwXwXwXwXwXwXwX3X3X3X3X3X3X3X3X5X5X5X5XwXwXwXwXwXwXwXwXwXwXwXwXwXwXwXwXwXwXwXwXwXwXwXwXwXwXwXwXwXwXwXwXwXwXwXwXwXwXwXwXwXwXwXwXwXwXwXwXwXwXwXwXwXwXwXwXwXwXwXwXwXwXwXwXwXwXwXwXwXwXwXwXwXwXwXwXwXwXwXwXwXwXwXwXwXwXwXwXwXwXwXwXwXwXwXwXwXwXwXwXwXwXwXwXwXwXwXwXwXwXwXwXwXwXwXwXwXwXwXwXwXwXwXwXwXwXwXwXwXwXwXwXwXwX",
"wXwXwXwXwXwXwXwXwXwXwXwXwXwXwXwXwXwXwXwXwXwXwXwXwXwXwXwXwXwXwXwXwXwXwXwXwXwXwXwXwXwXwXwXwXwXwXwXwXwXwXwXwXwXwXwXwXwXwXwXwXwXwXwXwX4X4X4X4XwXwXwXwXwXwXwXwX3X3X3X3XwXwXwXwXwXwXwXwXwXwXwXwXwXwXwXwXwXwXwXwX<X<X<X<X2X2X2X2X<X<X<X<X0X0X0X0X7X7X7X7X8X8X8X8X|.|.|.7X7X7X7X X X X XE E E E 8X8X8X8X;X;X;X;X2X2X2X2X3X3X3X3X2X2X2X2X3X3X3X3X1X1X1X1X4X4X4X4X<X<X<X<X<X<X<X<X<X<X<X<X2X2X2X2X3X3X3X3X4X4X4X4X4X4X4X4XwXwXwXwX1X1X1X1XwXwXwXwX4X4X4XwXwXwXwXwXwXwXwX3X3X3X3X3X3X3X3X5X5X5X5XwXwXwXwXwXwXwXwXwXwXwXwXwXwXwXwXwXwXwXwXwXwXwXwXwXwXwXwXwXwXwXwXwXwXwXwXwXwXwXwXwXwXwXwXwXwXwXwXwXwXwXwXwXwXwXwXwXwXwXwXwXwXwXwXwXwXwXwXwXwXwXwXwXwXwXwXwXwXwXwXwXwXwXwXwXwXwXwXwXwXwXwXwXwXwXwXwXwXwXwXwXwXwXwXwXwXwXwXwXwXwXwXwXwXwXwXwXwXwXwXwXwXwXwXwXwXwXwXwXwXwXwXwXwX",
"wXwXwXwXwXwXwXwXwXwXwXwXwXwXwXwXwXwXwXwXwXwXwXwXwXwXwXwXwXwXwXwXwXwXwXwXwXwXwXwXwXwXwXwXwXwXwXwXwXwXwXwXwXwXwXwXwXwXwXwXwXwXwXwXwX4X4X4X4XwXwXwXwXwXwXwXwX3X3X3X3XwXwXwXwXwXwXwXwXwXwXwXwXwXwXwXwXwXwXwXwX<X<X<X<X2X2X2X2X<X<X<X<X0X0X0X1X7X7X7X7X8X8X8X8X|.|.|.7X7X7X7X X X X XE E E E 7X8X7X7X;X;X;X;X2X2X2X2X3X3X3X3X2X2X2X2X3X3X3X3X1X1X1X1X4X4X4X4X<X<X<X<X<X<X<X<X<X<X<X<X2X2X2X2X3X3X3X3X4X4X4X4X4X4X4X4XwXwXwXwX1X1X1X1XwXwXwXwX4X4X4XwXwXwXwXwXwXwXwX3X3X3X3X3X3X3X3X5X5X5X5XwXwXwXwXwXwXwXwXwXwXwXwXwXwXwXwXwXwXwXwXwXwXwXwXwXwXwXwXwXwXwXwXwXwXwXwXwXwXwXwXwXwXwXwXwXwXwXwXwXwXwXwXwXwXwXwXwXwXwXwXwXwXwXwXwXwXwXwXwXwXwXwXwXwXwXwXwXwXwXwXwXwXwXwXwXwXwXwXwXwXwXwXwXwXwXwXwXwXwXwXwXwXwXwXwXwXwXwXwXwXwXwXwXwXwXwXwXwXwXwXwXwXwXwXwXwXwXwXwXwXwXwXwXwX",
"wXwXwXwXwXwXwXwXwXwXwXwXwXwXwXwXwXwXwXwXwXwXwXwXwXwXwXwXwXwXwXwXwXwXwXwXwXwXwXwXwXwXwXwXwXwXwXwXwXwXwXwXwXwXwXwXwXwXwXwXwXwXwXwXwX4X4X4X4XwXwXwXwXwXwXwXwX3X3X3X3XwXwXwXwXwXwXwXwXwXwXwXwXwXwXwXwXwXwXwXwX<X<X<X<X2X2X2X2X1X<X<X<X0X0X0X1X7X7X7X7X8X8X8X8X|.|.|.7X7X7X7X X X X XE E E E 7X7X7X7X;X;X;X;X1X2X2X2X3X3X3X3X2X2X2X2X3X3X3X3X1X1X1X1X4X4X4X4X<X<X<X<X<X<X<X<X<X<X<X<X2X2X2X2X3X3X3X3X4X4X4X4X4X4X4X4XwXwXwXwX2X1X1X1XwXwXwXwX4X4X4XwXwXwXwXwXwXwXwX3X3X3X3X3X3X3X3X5X5X5X5XwXwXwXwXwXwXwXwXwXwXwXwXwXwXwXwXwXwXwXwXwXwXwXwXwXwXwXwXwXwXwXwXwXwXwXwXwXwXwXwXwXwXwXwXwXwXwXwXwXwXwXwXwXwXwXwXwXwXwXwXwXwXwXwXwXwXwXwXwXwXwXwXwXwXwXwXwXwXwXwXwXwXwXwXwXwXwXwXwXwXwXwXwXwXwXwXwXwXwXwXwXwXwXwXwXwXwXwXwXwXwXwXwXwXwXwXwXwXwXwXwXwXwXwXwXwXwXwXwXwXwXwXwXwX",
"wXwXwXwXwXwXwXwXwXwXwXwXwXwXwXwXwXwXwXwXwXwXwXwXwXwXwXwXwXwXwXwXwXwXwXwXwXwXwXwXwXwXwXwXwXwXwXwXwXwXwXwXwXwXwXwXwXwXwXwXwXwXwXwXwX4X4X4X4XwXwXwXwX2X2X2X2XwXwXwXwXwXwXwXwX5X5X5X5XwXwXwXwX4X4X4X4X3X3X3X3XwXwXwXwX2X2X2X2X-X-X-X-X-X-X-X*X;X;X;X;X[.[.[.[.=X=X=X#X#X#X#XW W W W *X=X*X=XW W W W |.|.|.|.7X7X7X7X#X#X#X#X+X+X#X#XwXwXwXwXwXwXwXwX>X>X>X>X1X1X1X1XwXwX4X4X<X<X<X<X<X<X<X<X1X1X1X1X1X1X1X1X4X4X4X4X1X1X2X2X1X1X1X1X5X5X5X5X<X<X<X2X2X2X2XwXwXwXwX2X2X2X2XwXwXwXwXwXwXwXwXwXwXwXwX5X5X5X5X4X4X4X4XwXwXwXwXwXwXwXwXwXwXwXwXwXwXwXwXwXwXwXwXwXwXwXwXwXwXwXwXwXwXwXwXwXwXwXwXwXwXwXwXwXwXwXwXwXwXwXwXwXwXwXwXwXwXwXwXwXwXwXwXwXwXwXwXwXwXwXwXwXwXwXwXwXwXwXwXwXwXwXwXwXwXwXwXwXwXwXwXwXwXwXwXwXwXwXwXwXwXwXwXwXwXwXwXwXwXwXwXwXwXwXwXwXwXwXwXwXwXwXwXwXwX",
"wXwXwXwXwXwXwXwXwXwXwXwXwXwXwXwXwXwXwXwXwXwXwXwXwXwXwXwXwXwXwXwXwXwXwXwXwXwXwXwXwXwXwXwXwXwXwXwXwXwXwXwXwXwXwXwXwXwXwXwXwXwXwXwXwX4X4X4X4XwXwXwXwX2X2X2X2XwXwXwXwXwXwXwXwX5X5X5X5XwXwXwXwX4X4X4X4X3X3X3X3XwXwXwXwX2X2X2X2X-X-X-X-X-X-X-X*X;X;X;X;X[.[.[.[.=X=X=X#X#X#X#XW W W W *X*X=X=XW W W W [.|.|.|.7X7X7X7X#X#X#X#X+X+X#X#XwXwXwXwXwXwXwXwX>X>X>X>X1X1X1X1XwX4X4X4X<X<X<X<X<X<X<X<X1X1X1X1X1X1X1X1X4X4X4X4X1X1X2X2X1X1X1X1X5X5X5X5X<X<X<X2X2X2X2XwXwXwXwX2X2X2X2XwXwXwXwXwXwXwXwXwXwXwXwX5X5X5X5X4X4X4X4XwXwXwXwXwXwXwXwXwXwXwXwXwXwXwXwXwXwXwXwXwXwXwXwXwXwXwXwXwXwXwXwXwXwXwXwXwXwXwXwXwXwXwXwXwXwXwXwXwXwXwXwXwXwXwXwXwXwXwXwXwXwXwXwXwXwXwXwXwXwXwXwXwXwXwXwXwXwXwXwXwXwXwXwXwXwXwXwXwXwXwXwXwXwXwXwXwXwXwXwXwXwXwXwXwXwXwXwXwXwXwXwXwXwXwXwXwXwXwXwXwXwX",
"wXwXwXwXwXwXwXwXwXwXwXwXwXwXwXwXwXwXwXwXwXwXwXwXwXwXwXwXwXwXwXwXwXwXwXwXwXwXwXwXwXwXwXwXwXwXwXwXwXwXwXwXwXwXwXwXwXwXwXwXwXwXwXwXwX4X4X4X4XwXwXwXwX2X2X2X2XwXwXwXwXwXwXwXwX5X5X5X5XwXwXwXwX4X4X4X4X3X3X3X3XwXwXwXwX2X2X2X2X-X-X-X-X*X-X-X*X;X;X;X;X[.[.[.[.=X=X=X#X#X#X#XW W W W =X=X=X=XW W A A [.[.[.[.7X7X7X7X#X#X#X#X+X#X#X#XwXwXwXwXwXwXwXwX>X>X>X>X1X1X1X1XwXwX4X4X<X<X<X<X<X<X<X<X1X1X1X1X1X1X1X1X4X4X4X4X1X1X1X2X1X1X1X1X5X5X5X5X<X<X<X2X2X2X2XwXwXwXwX2X2X2X2XwXwXwXwXwXwXwXwXwXwXwXwX5X5X5X5X4X4X4X4XwXwXwXwXwXwXwXwXwXwXwXwXwXwXwXwXwXwXwXwXwXwXwXwXwXwXwXwXwXwXwXwXwXwXwXwXwXwXwXwXwXwXwXwXwXwXwXwXwXwXwXwXwXwXwXwXwXwXwXwXwXwXwXwXwXwXwXwXwXwXwXwXwXwXwXwXwXwXwXwXwXwXwXwXwXwXwXwXwXwXwXwXwXwXwXwXwXwXwXwXwXwXwXwXwXwXwXwXwXwXwXwXwXwXwXwXwXwXwXwXwXwX",
"wXwXwXwXwXwXwXwXwXwXwXwXwXwXwXwXwXwXwXwXwXwXwXwXwXwXwXwXwXwXwXwXwXwXwXwXwXwXwXwXwXwXwXwXwXwXwXwXwXwXwXwXwXwXwXwXwXwXwXwXwXwXwXwXwX4X4X4X4XwXwXwXwX2X2X2X2XwXwXwXwXwXwXwXwX5X5X5X5XwXwXwXwX4X4X4X4X3X3X3X3XwXwXwXwX2X2X2X2X-X-X-X-X*X-X-X*X;X;X;X;X[.[.[.[.=X=X=X#X#X#X#XW W W W =X=X=X=XW W A A [.[.[.[.7X7X7X7X#X#X#X$X+X+X#X#XwXwXwXwXwXwXwXwX>X>X>X>X1X1X1X1XwXwX4X4X>X<X<X<X<X<X<X<X1X1X1X1X1X1X1X1X4X4X4X4X1X1X1X2X1X1X1X1X5X5X5X5X<X<X<X2X2X2X2XwXwXwXwX2X2X2X2XwXwXwXwXwXwXwXwXwXwXwXwX5X5X5X5X4X4X4X4XwXwXwXwXwXwXwXwXwXwXwXwXwXwXwXwXwXwXwXwXwXwXwXwXwXwXwXwXwXwXwXwXwXwXwXwXwXwXwXwXwXwXwXwXwXwXwXwXwXwXwXwXwXwXwXwXwXwXwXwXwXwXwXwXwXwXwXwXwXwXwXwXwXwXwXwXwXwXwXwXwXwXwXwXwXwXwXwXwXwXwXwXwXwXwXwXwXwXwXwXwXwXwXwXwXwXwXwXwXwXwXwXwXwXwXwXwXwXwXwXwXwX",
"wXwXwXwXwXwXwXwXwXwXwXwXwXwXwXwXwXwXwXwXwXwXwXwXwXwXwXwXwXwXwXwXwXwXwXwXwXwXwXwXwXwXwXwXwXwXwXwXwXwXwXwXwXwXwXwXwXwXwXwXwXwXwXwXwXwXwXwXwXwXwXwXwX3X3X3X3X2X2X2X2X3X3X3X3XwXwXwXwXwXwXwXwX4X4X4X4X3X3X3X3XwXwXwXwXwXwXwXwX<X1X1X<X3X3X3X3X#X#X#X#X X X X X*X*X*X@X@X@X@XE E ! ! {.{.{.{.OXOXOXOX%X%X%X%X=X=X=X=X2X2X2X2X-X-X-X-X$X$X$X$X4X4X4X5X4X4X4X4XwXwXwXwX4X4X4X4X>X>X>X>X4X4X4X4XwXwXwXwX1X1X1X1X4X4X4X4X1X1X1X1X1X1X1X1X3X3X3X3X4X4X4XwXwXwX4XwXwXwXwXwXwXwXwX1X1X1X2XwXwXwXwX2X2X2X2XwXwXwXwX4X4X4X4XwXwXwXwXwXwXwXwXwXwXwXwXwXwXwXwXwXwXwXwXwXwXwXwXwXwXwXwXwXwXwXwXwXwXwXwXwXwXwXwXwXwXwXwXwXwXwXwXwXwXwXwXwXwXwXwXwXwXwXwXwXwXwXwXwXwXwXwXwXwXwXwXwXwXwXwXwXwXwXwXwXwXwXwXwXwXwXwXwXwXwXwXwXwXwXwXwXwXwXwXwXwXwXwXwXwXwXwXwXwXwXwXwXwXwXwXwXwXwXwXwXwX",
"wXwXwXwXwXwXwXwXwXwXwXwXwXwXwXwXwXwXwXwXwXwXwXwXwXwXwXwXwXwXwXwXwXwXwXwXwXwXwXwXwXwXwXwXwXwXwXwXwXwXwXwXwXwXwXwXwXwXwXwXwXwXwXwXwXwXwXwXwXwXwXwXwX3X3X3X3X2X2X2X2X3X3X3X3XwXwXwXwXwXwXwXwX4X4X4X4X3X3X3X3XwXwXwXwXwXwXwXwX<X<X1X<X2X3X3X3X#X#X#X#X X X X X*X*X*X@X@X@X@XE E E ! {.{.{.{.OXOXOXOX%X%X%X%X=X=X=X=X2X2X2X2X-X-X-X-X$X$X$X$X4X4X4X4X4X4X4X4XwXwXwXwX4X4X4X4X>X>X>X>X4X4X4X4XwXwXwXwX1X1X1X1X4X4X4X4X1X1X1X1X1X1X1X1X3X3X3X3X4X4X4XwXwXwX4XwXwXwXwXwXwXwXwX1X1X1X1XwXwXwXwX2X2X2X2XwXwXwXwX5X4X4X4XwXwXwXwXwXwXwXwXwXwXwXwXwXwXwXwXwXwXwXwXwXwXwXwXwXwXwXwXwXwXwXwXwXwXwXwXwXwXwXwXwXwXwXwXwXwXwXwXwXwXwXwXwXwXwXwXwXwXwXwXwXwXwXwXwXwXwXwXwXwXwXwXwXwXwXwXwXwXwXwXwXwXwXwXwXwXwXwXwXwXwXwXwXwXwXwXwXwXwXwXwXwXwXwXwXwXwXwXwXwXwXwXwXwXwXwXwXwXwXwXwXwX",
"wXwXwXwXwXwXwXwXwXwXwXwXwXwXwXwXwXwXwXwXwXwXwXwXwXwXwXwXwXwXwXwXwXwXwXwXwXwXwXwXwXwXwXwXwXwXwXwXwXwXwXwXwXwXwXwXwXwXwXwXwXwXwXwXwXwXwXwXwXwXwXwXwX3X3X3X3X2X2X2X2X3X3X3X3XwXwXwXwXwXwXwXwX4X4X4X4X3X3X3X3XwXwXwXwXwXwXwXwX<X<X1X<X3X3X3X3X#X#X#X#X X X X X*X*X*X#X@X#X#XE E ! ! {.{.{.{.OXOXOXOX%X%X%X%X;X;X=X-X2X2X2X2X-X-X-X-X$X$X$X$X4X4X4X4X4X4X4X4XwXwXwXwX4X4X4X4X>X>X>X>X4X4X4X4XwXwXwXwX1X1X1X1X4X4X4X4X1X1X1X1X1X1X1X1X3X3X3X3X4X4X4XwXwXwXwXwXwXwXwXwXwXwXwX1X1X1X1XwXwXwXwX2X2X2X2XwXwXwXwX4X4X4X4XwXwXwXwXwXwXwXwXwXwXwXwXwXwXwXwXwXwXwXwXwXwXwXwXwXwXwXwXwXwXwXwXwXwXwXwXwXwXwXwXwXwXwXwXwXwXwXwXwXwXwXwXwXwXwXwXwXwXwXwXwXwXwXwXwXwXwXwXwXwXwXwXwXwXwXwXwXwXwXwXwXwXwXwXwXwXwXwXwXwXwXwXwXwXwXwXwXwXwXwXwXwXwXwXwXwXwXwXwXwXwXwXwXwXwXwXwXwXwXwXwXwX",
"wXwXwXwXwXwXwXwXwXwXwXwXwXwXwXwXwXwXwXwXwXwXwXwXwXwXwXwXwXwXwXwXwXwXwXwXwXwXwXwXwXwXwXwXwXwXwXwXwXwXwXwXwXwXwXwXwXwXwXwXwXwXwXwXwXwXwXwXwXwXwXwXwX3X3X3X3X2X2X2X2X3X3X3X3XwXwXwXwXwXwXwXwX4X4X4X4X3X3X3X3XwXwXwXwXwXwXwXwX1X<X<X<X3X3X3X3X#X#X#X#X X X X X*X*X*X#X#X#X#XE E ! ! {.{.{.{.OXOXOXOX%X%X%X%X;X-X-X-X2X2X2X2X;X;X-X-X$X$X$X$X4X4X4X4X4X4X4X4XwXwXwXwX4X4X4X4X>X>X>X>X4X4X4X4XwXwXwXwX1X1X1X1X4X4X4X4X1X1X1X1X1X1X1X1X3X3X3X3X4X4X4XwXwXwXwXwXwXwXwXwXwXwXwX1X1X1X2XwXwXwXwX2X2X2X2XwXwXwXwX4X4X4X4XwXwXwXwXwXwXwXwXwXwXwXwXwXwXwXwXwXwXwXwXwXwXwXwXwXwXwXwXwXwXwXwXwXwXwXwXwXwXwXwXwXwXwXwXwXwXwXwXwXwXwXwXwXwXwXwXwXwXwXwXwXwXwXwXwXwXwXwXwXwXwXwXwXwXwXwXwXwXwXwXwXwXwXwXwXwXwXwXwXwXwXwXwXwXwXwXwXwXwXwXwXwXwXwXwXwXwXwXwXwXwXwXwXwXwXwXwXwXwXwXwXwX",
"wXwXwXwXwXwXwXwXwXwXwXwXwXwXwXwXwXwXwXwXwXwXwXwXwXwXwXwXwXwXwXwXwXwXwXwXwXwXwXwXwXwXwXwXwXwXwXwXwXwXwXwXwXwXwXwXwXwXwXwXwX4X4X4X4XwXwX4X4XwXwXwXwXwXwXwXwX2X2X2X2X2X2X2X2X3X3X3X3XwXwXwXwX4X4X4X4X3X3X3X3X1X1X1X1X1X1X1X1X2X2X2X2X7X7X7X7X@X@X@X#X=X=X=X=X'.'.'.|.|.|.|.].].].].].].].].Q Q Q Q W W W W %X%X%X%XoXoXoXoX*X*X*X*X4X4X5X5X2X2X2X2X5X5X5X5XwXwXwXwX4X4X4X4X4X4X4X4X7X7X7X7XwXwXwXwX1X1X1X1X1X1X1X1XwXwXwXwXwXwXwXwX4X4X4X4X1X1X1X1X1X1X1X<X<X<X<XwXwXwXwXwXwXwXwXwXwXwXwXwXwXwXwX2X2X2X2XwXwXwXwX3X3X3X3XwXwXwXwXwXwXwXwXwXwXwXwXwXwXwXwXwXwXwXwXwXwXwXwXwXwXwXwXwXwXwXwXwXwXwXwXwXwXwXwXwXwXwXwXwXwXwXwXwXwXwXwXwXwXwXwXwXwXwXwXwXwXwXwXwXwXwXwXwXwXwXwXwXwXwXwXwXwXwXwXwXwXwXwXwXwXwXwXwXwXwXwXwXwXwXwXwXwXwXwXwXwXwXwXwXwXwXwXwXwXwXwXwXwXwXwXwXwX",
"wXwXwXwXwXwXwXwXwXwXwXwXwXwXwXwXwXwXwXwXwXwXwXwXwXwXwXwXwXwXwXwXwXwXwXwXwXwXwXwXwXwXwXwXwXwXwXwXwXwXwXwXwXwXwXwXwXwXwXwXwX4X4X4X4XwXwXwXwXwXwXwXwXwXwXwXwX2X2X2X2X2X2X2X2X3X3X3X3XwXwXwXwX4X4X4X4X3X3X3X3X1X1X1X1X1X1X1X1X2X2X2X2X7X7X7X7X@X@X@X#X=X=X=X=X'.'.'.|.|.|.|.].].].].].].].].Q Q Q Q W W W W %X%X%X%XoXoXoXoX*X*X*X*X4X4X5X5X2X2X2X2X5X5X5X5XwXwXwXwX4X4X4X4X4X4X4X4X7X7X7X7XwXwXwXwX1X1X1X1X1X1X1X1XwXwXwXwXwXwXwXwX4X4X4X4X1X1X1X<X1X1X1X<X<X<X<XwXwXwXwXwXwXwXwXwXwXwXwXwXwXwXwX2X2X2X2XwXwXwXwX3X3X3X3XwXwXwXwXwXwXwXwXwXwXwXwXwXwXwXwXwXwXwXwXwXwXwXwXwXwXwXwXwXwXwXwXwXwXwXwXwXwXwXwXwXwXwXwXwXwXwXwXwXwXwXwXwXwXwXwXwXwXwXwXwXwXwXwXwXwXwXwXwXwXwXwXwXwXwXwXwXwXwXwXwXwXwXwXwXwXwXwXwXwXwXwXwXwXwXwXwXwXwXwXwXwXwXwXwXwXwXwXwXwXwXwXwXwXwXwXwXwX",
"wXwXwXwXwXwXwXwXwXwXwXwXwXwXwXwXwXwXwXwXwXwXwXwXwXwXwXwXwXwXwXwXwXwXwXwXwXwXwXwXwXwXwXwXwXwXwXwXwXwXwXwXwXwXwXwXwXwXwXwXwX4X4X4X4XwXwXwXwXwXwXwXwXwXwXwXwX2X2X2X2X2X2X2X2X3X3X3X3XwXwXwXwX4X4X4X4X3X3X3X3X1X1X1X1X1X1X1X1X2X2X2X2X7X7X7X7X@X#X@X#X=X=X=X=X'.'.'.|.|.|.|.].].].].].].].].Q Q Q Q W W W W %X%X%X%XXXXXoXoX*X*X*X*X5X5X5X5X2X2X2X2X5X5X5X5XwXwXwXwX4X4X4X4X4X4X4X4X7X7X7X7XwXwXwXwX1X1X1X1X1X1X1X1XwXwXwXwXwXwXwXwX4X4X4X4X1X1X1X<X1X1X<X<X<X<X<XwXwXwXwXwXwXwXwXwXwXwXwXwXwXwXwX2X2X2X2XwXwXwXwX3X3X3X3XwXwXwXwXwXwXwXwXwXwXwXwXwXwXwXwXwXwXwXwXwXwXwXwXwXwXwXwXwXwXwXwXwXwXwXwXwXwXwXwXwXwXwXwXwXwXwXwXwXwXwXwXwXwXwXwXwXwXwXwXwXwXwXwXwXwXwXwXwXwXwXwXwXwXwXwXwXwXwXwXwXwXwXwXwXwXwXwXwXwXwXwXwXwXwXwXwXwXwXwXwXwXwXwXwXwXwXwXwXwXwXwXwXwXwXwXwXwX",
"wXwXwXwXwXwXwXwXwXwXwXwXwXwXwXwXwXwXwXwXwXwXwXwXwXwXwXwXwXwXwXwXwXwXwXwXwXwXwXwXwXwXwXwXwXwXwXwXwXwXwXwXwXwXwXwXwXwXwXwXwX5X4X4X4XwXwXwXwXwXwXwXwXwXwXwXwX2X2X2X2X2X2X2X2X3X3X3X3XwXwXwXwX4X4X4X4X3X3X3X3X1X1X1X1X1X1X1X1X2X2X2X2X7X7X7X7X@X+X+X#X=X=X=X=X'.'.'.|.|.|.|.].].].].].].].].Q Q Q Q W W W W %X%X%X%XXXXXoXoX*X*X*X*X5X5X5X5X2X2X2X2X5X4X5X5XwXwXwXwX4X4X4X4X4X4X4X4X7X7X7X7XwXwXwXwX1X1X1X1X1X1X1X1XwXwXwXwXwXwXwXwX4X4X4X4X1X1X1X<X1X1X<X<X<X<X<XwXwXwXwXwXwXwXwXwXwXwXwXwXwXwXwX2X2X2X2XwXwXwXwX3X3X3X3XwXwXwXwXwXwXwXwXwXwXwXwXwXwXwXwXwXwXwXwXwXwXwXwXwXwXwXwXwXwXwXwXwXwXwXwXwXwXwXwXwXwXwXwXwXwXwXwXwXwXwXwXwXwXwXwXwXwXwXwXwXwXwXwXwXwXwXwXwXwXwXwXwXwXwXwXwXwXwXwXwXwXwXwXwXwXwXwXwXwXwXwXwXwXwXwXwXwXwXwXwXwXwXwXwXwXwXwXwXwXwXwXwXwXwXwXwXwX",
"wXwXwXwXwXwXwXwXwXwXwXwXwXwXwXwXwXwXwXwXwXwXwXwXwXwXwXwXwXwXwXwXwXwXwXwXwXwXwXwXwXwXwXwXwXwXwXwXwXwXwXwXwXwXwXwXwX4X4X4X4XwXwXwXwX5X5X5X5XwXwXwXwXwXwXwXwX4X4X4X4X2X2X2X2X4X4X4X4XwXwXwXwX5X5X5X5XwXwXwXwX<X<X<X<X1X1X1X1X-X-X-X-X+X+X+X+XoXoXoX X=X=X*X=XW W W ! ! ! ! W W W W V V V V {.{.{.{.M M M M Z Z Z Z @X@X@X@X+X+X+X+X7X7X7X7X X XXXXX2X2X2X2X+X+X+X+X4X4X4X4X1X1X1X1X<X<X<X<X<X<X<X<XwXwXwXwX4X4X4X4X1X1X1X1X4X4X4X4X4X4X4X4X3X3X3XwXwXwXwX4X4X4X4XwXwXwXwXwXwXwXwXwXwXwXwX<X<X<X<X4X4X4X4XwXwXwXwXwXwXwXwX3X3X3X3XwXwXwXwX4X4X4X4XwXwXwXwXwXwXwXwXwXwXwXwXwXwXwXwXwXwXwXwXwXwXwXwXwXwXwXwXwXwXwXwXwXwXwXwXwXwXwXwXwXwXwXwXwXwXwXwXwXwXwXwXwXwXwXwXwXwXwXwXwXwXwXwXwXwXwXwXwXwXwXwXwXwXwXwXwXwXwXwXwXwXwXwXwXwXwXwXwXwXwXwXwXwXwXwXwXwXwXwXwXwXwXwXwXwX",
"wXwXwXwXwXwXwXwXwXwXwXwXwXwXwXwXwXwXwXwXwXwXwXwXwXwXwXwXwXwXwXwXwXwXwXwXwXwXwXwXwXwXwXwXwXwXwXwXwXwXwXwXwXwXwXwXwX4X4X4X4XwXwXwXwX5X5X5X5XwXwXwXwXwXwXwXwX4X4X4X4X2X2X2X2X4X4X4X4XwXwXwXwX5X5X5X5XwXwXwXwX<X<X<X<X1X1X1X1X-X-X-X-X+X+X+X+XoXoXoX X=X=X*X=XW W W ! ! ! ! W W W W V V V V {.{.{.{.M M M M Z Z Z Z @X@X@X@X+X+X+X+X7X7X7X7X X XXXXX2X2X2X2X+X+X+X+X4X4X4X4X1X1X1X1X<X<X<X<X<X<X<X<XwXwXwXwX4X4X4X4X1X1X1X1X4X4X4X4X4X4X4X4X3X3X3XwXwXwXwX4X4X4X4XwXwXwXwXwXwXwXwXwXwXwXwX<X<X<X<X4X4X4X4XwXwXwXwXwXwXwXwX3X3X3X3XwXwXwXwX4X4X4X4XwXwXwXwXwXwXwXwXwXwXwXwXwXwXwXwXwXwXwXwXwXwXwXwXwXwXwXwXwXwXwXwXwXwXwXwXwXwXwXwXwXwXwXwXwXwXwXwXwXwXwXwXwXwXwXwXwXwXwXwXwXwXwXwXwXwXwXwXwXwXwXwXwXwXwXwXwXwXwXwXwXwXwXwXwXwXwXwXwXwXwXwXwXwXwXwXwXwXwXwXwXwXwXwXwXwX",
"wXwXwXwXwXwXwXwXwXwXwXwXwXwXwXwXwXwXwXwXwXwXwXwXwXwXwXwXwXwXwXwXwXwXwXwXwXwXwXwXwXwXwXwXwXwXwXwXwXwXwXwXwXwXwXwXwX4X4X4X4XwXwXwXwX5X5X5X5XwXwXwXwXwXwXwXwX4X4X4X4X2X2X2X2X4X4X4X4XwXwXwXwX5X5X5X5XwXwXwXwX<X<X<X<X1X1X1X1X-X-X-X-X+X+X+X+XoX X X X=X*X*X=XW W W ! ! ! ! W W W W V V V V {.{.{.{.M M M M Z Z Z Z @X@X@X@X+X+X+X+X7X7X7X7XXXXXXXXX2X2X3X3X+X+X+X+X4X4X4X4X1X1X1X1X<X<X<X<X<X<X<X<XwXwXwXwX4X4XwXwX1X1X1X1X4X4X4X4X4X4X4X4X3X2X3XwXwXwXwX4X4X4X4XwXwXwXwXwXwXwXwXwXwXwXwX<X<X<X<X4X4X4X4XwXwXwXwXwXwXwXwX3X3X3X3XwXwXwXwX4X4X4X4XwXwXwXwXwXwXwXwXwXwXwXwXwXwXwXwXwXwXwXwXwXwXwXwXwXwXwXwXwXwXwXwXwXwXwXwXwXwXwXwXwXwXwXwXwXwXwXwXwXwXwXwXwXwXwXwXwXwXwXwXwXwXwXwXwXwXwXwXwXwXwXwXwXwXwXwXwXwXwXwXwXwXwXwXwXwXwXwXwXwXwXwXwXwXwXwXwXwXwXwXwXwXwXwXwXwX",
"wXwXwXwXwXwXwXwXwXwXwXwXwXwXwXwXwXwXwXwXwXwXwXwXwXwXwXwXwXwXwXwXwXwXwXwXwXwXwXwXwXwXwXwXwXwXwXwXwXwXwXwXwXwXwXwXwX4X4X4X4XwXwXwXwX5X5X5X5XwXwXwXwXwXwXwXwX4X4X4X4X2X2X2X2X4X4X4X4XwXwXwXwX5X5X5X5XwXwXwXwX<X<X<X<X1X1X1X1X-X-X-X-X+X+X+X+X X X X X=X*X=X=XW W W ! ! ! ! W W W W V V V V {.{.{.{.M M M M Z Z Z Z @X@X@X@X+X+X+X+X8X7X>X>XXXXXXXXX2X2X3X3X+X+X+X+X4X4X4X4X1X1X1X1X<X<X<X<X<X<X<X<XwXwXwXwX4XwXwXwX1X1X1X1X4X4X4X4X4X4X4X4X2X3X3XwXwXwXwX4X4X4X4XwXwXwXwXwXwXwXwXwXwXwXwX<X<X<X<X4X4X4X4XwXwXwXwXwXwXwXwX3X3X3X3XwXwXwXwX4X4X4X4XwXwXwXwXwXwXwXwXwXwXwXwXwXwXwXwXwXwXwXwXwXwXwXwXwXwXwXwXwXwXwXwXwXwXwXwXwXwXwXwXwXwXwXwXwXwXwXwXwXwXwXwXwXwXwXwXwXwXwXwXwXwXwXwXwXwXwXwXwXwXwXwXwXwXwXwXwXwXwXwXwXwXwXwXwXwXwXwXwXwXwXwXwXwXwXwXwXwXwXwXwXwXwXwXwXwX",
"wXwXwXwXwXwXwXwXwXwXwXwXwXwXwXwXwXwXwXwXwXwXwXwXwXwXwXwXwXwX4X4X4X4X4X4X4X4XwXwXwXwXwXwXwXwXwXwXwX5X5X5X5X5X5X5X5X5X5X5X5X5X5X5X5XwXwXwXwX3X3X3X3X2X2X2X2X1X1X1X1X4X4X4X4X4X4X4X4XwXwXwXwXwXwXwXwX1X1X1X1X2X2X2X2XwXwXwXwX2X2X2X2XXXXXXXXX;X;X;X;X|.|.|.|.Z Z Z B B B V ! ! ! ! C C C C =.=.=.*.M M a.a.n n n n ! ! ! ! -X-X-X-X[.[.[.[.2X2X2X0X0X0X0X0X7X7X7X7X5X5X5X5X4X4X4X4X4X4X4X4X<X<X<X<X3X3X3X3X<X<X<X<XwXwXwXwX1X1X1X1XwXwXwXwXwXwXwX>X>X>X>X4X4X4X4X4X4X4X4X4X4X4X4X2X2X2X2X4X4X4X4X4X4X4X4X1X1X1X1X4X4X4X4X1X1X1X1X2X1X1X1XwXwXwXwXwXwXwXwXwXwXwXwXwXwXwXwX3X3X3X3X3X3X3X3X3X3X3X3X5X5X5X5X4X4X4X4XwXwXwXwXwXwXwXwXwXwXwXwXwXwXwXwXwXwXwXwXwXwXwXwXwXwXwXwXwXwXwXwXwXwXwXwXwXwXwXwXwXwXwXwXwXwXwXwXwXwXwXwXwXwXwXwXwXwXwXwXwXwXwXwXwXwXwXwXwXwXwXwXwXwX",
"wXwXwXwXwXwXwXwXwXwXwXwXwXwXwXwXwXwXwXwXwXwXwXwXwXwXwXwXwXwX4X4X4X4X4X4X4X4XwXwXwXwXwXwXwXwXwXwXwX5X5X5X5X5X5X5X5X5X5X5X5X5X5X5X5XwXwXwXwX3X3X3X3X2X2X2X2X1X1X1X1X4X4X4X4X4X4X4X4XwXwXwXwXwXwXwXwX1X1X1X1X2X2X2X2XwXwXwXwX2X2X2X2XXXXXXXXX;X;X;X;X|.|.|.|.Z Z Z B B B B ! ! ! ! C C C C =.=.*.*.M M a.a.n n n n ! ! ! ! -X-X-X-X[.[.[.[.2X2X2X2X0X0X0X0X7X7X7X7X5X5X5X5X4X4X4X4X4X4X4X4X<X<X<X<X3X3X3X3X<X<X<X<XwXwXwXwX1X1X1X1XwXwXwXwXwXwXwX>X>X>X>X4X4X4X4X4X4X4X4X4X4X4X4X2X2X2X2X4X4X4X4X4X4X4X4X1X1X1X1X4X4X4X4X1X1X1X1X2X1X1X1XwXwXwXwXwXwXwXwXwXwXwXwXwXwXwXwX3X3X3X3X3X3X3X3X3X3X3X3X5X5X5X5X4X4X4X4XwXwXwXwXwXwXwXwXwXwXwXwXwXwXwXwXwXwXwXwXwXwXwXwXwXwXwXwXwXwXwXwXwXwXwXwXwXwXwXwXwXwXwXwXwXwXwXwXwXwXwXwXwXwXwXwXwXwXwXwXwXwXwXwXwXwXwXwXwXwXwXwXwXwX",
"wXwXwXwXwXwXwXwXwXwXwXwXwXwXwXwXwXwXwXwXwXwXwXwXwXwXwXwXwXwX4X4X4X4X4X4X4X4XwXwXwXwXwXwXwXwXwXwXwX5X5X5X5X5X5X5X5X5X5X5X5X5X5X5X5XwXwXwXwX3X3X3X3X2X2X2X2X1X1X1X1X4X4X4X4X4X4X4X5XwXwXwXwXwXwXwXwX1X1X1X1X2X2X2X2XwXwXwXwX2X2X2X2XXXXXXXXX;X;X;X;X|.|.|. XZ Z Z B B B B ! ! ! ! Z C C C =.=.=.=.M M i.a.i.i.M M ! ! ! ! -X-X-X-X[.[.[.[.2X2X2X2X0X0X0X0X7X7X7X7X5X5X5X5X4X4X4X4X4X4X4X4X<X<X<X<X3X3X3X3X<X<X<X<XwXwXwXwX1X1X1X1XwXwXwXwXwXwXwX>X>X>X>X4X4X4X4X4X4X4X4X4X4X4X4X2X2X2X2X4X4X4X4X4X4X4X4X1X1X1X1X4X4X4X4X1X1X1X1X1X1X1X1XwXwXwXwXwXwXwXwXwXwXwXwXwXwXwXwX3X3X3X3X3X3X3X3X3X3X3X3X5X5X5X5X4X4X4X4XwXwXwXwXwXwXwXwXwXwXwXwXwXwXwXwXwXwXwXwXwXwXwXwXwXwXwXwXwXwXwXwXwXwXwXwXwXwXwXwXwXwXwXwXwXwXwXwXwXwXwXwXwXwXwXwXwXwXwXwXwXwXwXwXwXwXwXwXwXwXwXwXwXwX",
"wXwXwXwXwXwXwXwXwXwXwXwXwXwXwXwXwXwXwXwXwXwXwXwXwXwXwXwXwXwX4X4X4X4X4X4X4X4XwXwXwXwXwXwXwXwXwXwXwX5X5X5X5X5X5X5X5X5X5X5X5X5X5X5X5XwXwXwXwX3X3X3X3X2X2X2X2X1X1X1X1X4X4X4X4X4X4X4X4XwXwXwXwXwXwXwXwX1X1X1X1X2X2X2X2XwXwXwXwX2X2X2X2XXXXXXXXX;X;X;X;X|.|.|.|.W W Z B B B B ! ! ! ! Z C C C =.=.=.=.n M i.i.i.i.M M ! ! ! ! *X-X-X-X[.[.[.[.2X2X2X2X0X0X0X0X7X7X7X7X5X5X5X5X4X4X4X4X4X4X4X4X<X<X<X<X3X3X3X3X<X<X<X<XwXwXwXwX1X1X1X1XwXwXwXwXwXwXwX>X>X>X>X4X4X4X4X4X4X4X4X4X4X4X4X2X2X2X2X4X4X4X4X4X4X4X4X1X1X1X1X4X4X4X4X1X1X1X1X1X2X1X1XwXwXwXwXwXwXwXwXwXwXwXwXwXwXwXwX3X3X3X3X3X3X3X3X3X3X3X3X5X5X5X5X4X4X4X4XwXwXwXwXwXwXwXwXwXwXwXwXwXwXwXwXwXwXwXwXwXwXwXwXwXwXwXwXwXwXwXwXwXwXwXwXwXwXwXwXwXwXwXwXwXwXwXwXwXwXwXwXwXwXwXwXwXwXwXwXwXwXwXwXwXwXwXwXwXwXwXwXwXwX",
"wXwXwXwXwXwXwXwXwXwXwXwXwXwXwXwXwXwXwXwXwXwXwXwXwXwXwXwXwXwX4X4XwXwX3X3X3X3X2X2X2X2X2X2X2XwXwXwXwX4X4X4X4X2X2X2X2XwXwXwXwX4X4X4X4XwXwXwXwX1X1X1X1XwXwXwXwXwXwXwXwXwXwXwXwX;X;X;X;XwXwXwXwXwXwXwXwX>X>X>X>X>X>X>X>XwXwXwXwX*X*X*X*X}. X X XoXoXoX X#X#X#X#X X X XZ Z Z Z Q Q Q Q T T Z Z *.*.&.&.i.i.i.i.a.a.a.a.i.i.i.i.oXoXoX@X[.[.[.[.XXXXoXoX2X2X2X2X7X7X7X7XXXXXXXXX*X*X*X*X#X#X#X#X*X*X*X*X2X2X2X2X4X4X4X4X<X<X<X<XwXwXwXwX4X4X4X4XwXwXwX4X4X4X4X4X4X4X4X7X7X7X7X5X5X5X5X-X-X-X-X<X<X<X<X<X<X<X<X7X7X7X7X7X7X7X7X4X4X4X4X>X>X>X>X<X<X<X<X2X2X2X2XwXwXwXwXwXwXwXwX2X2X2X2XwXwXwXwX<X<X<X<X1X1X1X1XwXwXwXwX3X3X3X3XwXwXwXwXwXwXwXwXwXwXwXwXwXwXwXwXwXwXwXwXwXwXwXwXwXwXwXwXwXwXwXwXwXwXwXwXwXwXwXwXwXwXwXwXwXwXwXwXwXwXwXwXwXwXwXwXwXwXwXwXwXwXwXwXwXwXwXwXwXwX",
"wXwXwXwXwXwXwXwXwXwXwXwXwXwXwXwXwXwXwXwXwXwXwXwXwXwXwXwXwXwX4X4XwXwX3X3X3X3X2X2X2X2X2X2X2XwXwXwXwX4X4X4X4X2X2X2X2XwXwXwXwX4X4X4X4XwXwXwXwX1X1X1X1XwXwXwXwXwXwXwXwXwXwXwXwX;X;X;X;XwXwXwXwXwXwXwXwX>X>X>X>X>X>X>X>XwXwXwXwX*X*X*X*X}. X X XoXoXoX X#X#X#X#X X X XZ Z Z Z Q Q Q Q T T Z Z *.*.&.&.i.i.p.i.a.a.a.a.i.i.i.i.oXoXoXoX[.[.[.[.XXXXoXoX0X2X2X2X7X7X7X7XXXXXXXXX*X*X*X*X#X#X#X#X*X*X*X*X2X2X2X2X4X4X4X4X<X<X<X<XwXwXwXwX4X4X4X4XwXwXwX4X4X4X4X4X4X4X4X7X7X7X7X5X5X5X5X-X-X-X-X<X<X<X<X<X<X<X<X;X7X7X7X7X7X7X7X4X4X4X4X>X>X>X>X<X<X<X<X2X2X2X2XwXwXwXwXwXwXwXwX2X2X2X2XwXwXwXwX<X<X<X<X1X1X1X1XwXwXwXwX3X3X3X3XwXwXwXwXwXwXwXwXwXwXwXwXwXwXwXwXwXwXwXwXwXwXwXwXwXwXwXwXwXwXwXwXwXwXwXwXwXwXwXwXwXwXwXwXwXwXwXwXwXwXwXwXwXwXwXwXwXwXwXwXwXwXwXwXwXwXwXwXwXwX",
"wXwXwXwXwXwXwXwXwXwXwXwXwXwXwXwXwXwXwXwXwXwXwXwXwXwXwXwXwXwXwXwXwXwX3X3X3X3X2X2X2X2X2X2X2XwXwXwXwX4X4X4X4X2X2X2X2XwXwXwXwX5X4X4X4XwXwXwXwX1X1X1X1XwXwXwXwXwXwXwXwXwXwXwXwX>X;X;X;XwXwXwXwXwXwXwXwX>X>X>X>X>X>X>X>XwXwXwXwX*X*X*X*X X X X XoXoXoX X#X#X#X#X X X XZ Z Z Z Q Q Q Q T T T T *.*.*.&.p.p.p.p.a.a.a.a.i.i.i.i.oXoXoXoX[.[.[.[.XXXXXXoX0X0X2X2X7X7X7X7XXXXXXXXX*X*X=X=X#X#X#X#X*X*X*X*X2X2X2X2X4X4X4X4X<X<X<X<XwXwXwXwX4X4X4X4XwXwXwX4X4X4X4X4X4X4X4X7X7X7X7X5X5X5X5X-X-X-X-X>X<X>X<X<X<X<X>X;X;X;X7X7X7X7X7X4X4X4X4X>X>X>X>X<X<X<X<X2X2X2X2XwXwXwXwXwXwXwXwX2X2X2X2XwXwXwXwX<X<X<X<X1X1X1X1XwXwXwXwX3X3X3X3XwXwXwXwXwXwXwXwXwXwXwXwXwXwXwXwXwXwXwXwXwXwXwXwXwXwXwXwXwXwXwXwXwXwXwXwXwXwXwXwXwXwXwXwXwXwXwXwXwXwXwXwXwXwXwXwXwXwXwXwXwXwXwXwXwXwXwXwXwXwX",
"wXwXwXwXwXwXwXwXwXwXwXwXwXwXwXwXwXwXwXwXwXwXwXwXwXwXwXwXwXwXwXwXwXwX3X3X3X3X2X2X2X2X2X2X2XwXwXwXwX4X4X4X4X2X2X2X2XwXwXwXwX5X4X4X4XwXwXwXwX1X1X1X1XwXwXwXwXwXwXwXwXwXwXwXwX>X;X;X;XwXwXwXwXwXwXwXwX>X>X>X>X>X>X>X>XwXwXwXwX*X*X*X*X}. X X XoXoXoX X@X#X#X#X X X XZ Z Z Z Q Q Q Q T T T T *.*.*.*.p.p.p.p.a.a.a.a.i.i.i.i.oXoXoXoX[.[.[.[.XXXXXXXX0X0X2X2X7X7X7X7XXXXXXXXX*X*X=X=X#X#X#X#X*X*X*X*X2X2X2X2X5X4X4X4X<X<X<X<XwXwXwXwX4X4X4X4XwXwXwX4X4X4X4X4X4X4X4X7X7X7X7X5X5X5X5X-X-X-X-X>X>X>X<X<X<X<X>X-X-X;X;X7X7X7X7X4X4X4X4X>X>X>X>X<X<X<X<X2X2X2X2XwXwXwXwXwXwXwXwX2X2X2X2XwXwXwXwX<X<X<X<X1X1X1X1XwXwXwXwX3X3X3X3XwXwXwXwXwXwXwXwXwXwXwXwXwXwXwXwXwXwXwXwXwXwXwXwXwXwXwXwXwXwXwXwXwXwXwXwXwXwXwXwXwXwXwXwXwXwXwXwXwXwXwXwXwXwXwXwXwXwXwXwXwXwXwXwXwXwXwXwXwXwX",
"wXwXwXwXwXwXwXwXwXwXwXwXwXwXwXwXwXwXwXwXwXwX4X4X4X4X4X4X4X4X2X2X2X2X2X2X2X2X4X4X4X4X4X4X4X<X<X<X<X4X4X4X4X<X<X<X<X4X4X4X4X<X<X<X<XwXwXwXwXwXwXwXwXwXwXwXwXwXwXwXwX$X$X$X$X$X$X$X$X3X3X3X2XwXwXwXwX>X>X;X;XwXwXwXwXwXwXwXwXwXwXwXwX[.[.[.[.! ! ! ! Z Z Z Z [.[.[.C C C C +.+.*.*.i.i.i.i.n n n n =.=.=.=.*.*.*.*.i.i.i.i.W W W W |.|.|.|.[.[.[.[.7X7X7X7X7X7X7X7X7X7X7X7X7X7X7X7X7X7X7X7X1X1X1X1X3X3X3X3X3X3X3X3XwXwXwXwX2X2X2X2XwXwXwXwX2X2X2X4X4X4X4X-X*X*X-X-X-X-X-X<X<X<X<X;X;X;X;X;X;X;X;X5X5X3X3X4X4X4X4X*X*X*X*XwXwXwXwXwXwXwXwXwXwXwXwX<X<X<X<XwXwXwXwX*X*X*X*X5X5X5X5X>X>X>X>X3X3X3X3X>X>X>X>XwXwXwXwXwXwXwXwX4X4X4X4XwXwXwXwXwXwXwXwXwXwXwXwXwXwXwXwXwXwXwXwXwXwXwXwXwXwXwXwXwXwXwXwXwXwXwXwXwXwXwXwXwXwXwXwXwXwXwXwXwXwXwXwXwXwXwXwXwXwXwXwXwXwXwXwXwXwX",
"wXwXwXwXwXwXwXwXwXwXwXwXwXwXwXwXwXwXwXwXwXwX4X4X4X4X4X4X4X4X2X2X2X2X2X2X2X2X4X4X4X4X4X4X4X<X<X<X<X4X4X4XwX<X<X<X<X4X4X4X4X<X<X<X<XwXwXwXwXwXwXwXwXwXwXwXwXwXwXwXwX*X$X$X$X$X$X*X$X3X3X3X2XwXwXwXwX>X>X>X;XwXwXwXwXwXwXwXwXwXwXwXwX[.[.[.[.! ! ! ! Z Z Z Z [.[.[.C C C C +.+.*.*.i.i.i.i.n n n n =.=.=.=.*.*.*.*.i.i.i.i.W W W W |.|.|.|.[.[.[.[.7X7X7X7X7X7X7X7X7X7X7X7X7X7X7X7X7X7X7X7X1X1X1X1X3X3X3X3X3X3X3X3XwXwXwXwX2X2X2X2XwXwXwXwX2X2X2X4X4X4X4X-X-X-X-X-X-X-X-X<X<X<X<X;X;X;X;X;X;X;X7X5X5X5X3X4X4X4X4X*X*X*X*XwXwXwXwXwXwXwXwXwXwXwXwX<X<X<X<XwXwXwXwX*X*X*X*X3X5X5X5X>X>X>X>X3X3X3X3X>X>X>X>XwXwXwXwXwXwXwXwX4X4X4X4XwXwXwXwXwXwXwXwXwXwXwXwXwXwXwXwXwXwXwXwXwXwXwXwXwXwXwXwXwXwXwXwXwXwXwXwXwXwXwXwXwXwXwXwXwXwXwXwXwXwXwXwXwXwXwXwXwXwXwXwXwXwXwXwXwXwX",
"wXwXwXwXwXwXwXwXwXwXwXwXwXwXwXwXwXwXwXwXwXwX4X4X4X4X4X4X4X4X2X2X2X2X2X2X2X2X4X4X4X4X4X4X4X<X<X<X<X4X4X4XwX<X<X<X<X4X4X4X4X<X<X<X<XwXwXwXwXwXwXwXwXwXwXwXwXwXwXwXwX*X*X*X*X$X$X*X$X3X3X3X2XwXwXwXwX>X>X>X>XwXwXwXwXwXwXwXwXwXwXwXwX[.[.[.[.! ! ! ! Z Z Z W [.[.[.C C C C +.*.*.*.i.i.i.i.n n n n =.=.=.=.*.*.*.*.i.i.i.i.W W W W |.|.|.|.[.[.[.[.7X7X7X7X8X7X7X7X7X7X7X7X7X7X7X7X7X7X7X7X1X1X1X1X3X3X3X3X3X3X3X3XwXwXwXwX2X2X2X2XwXwXwXwX2X2X2X4X4X4X4X-X-X-X-X-X-X-X-X<X<X<X<X7X;X;X;X7X;X;X7X5X5X5X5X4X4X4X4X*X*X*X*XwXwXwXwXwXwXwXwXwXwXwXwX<X<X<X<XwXwXwXwX*X*X*X*X5X5X5X5X>X>X>X>X3X3X3X3X>X>X>X>XwXwXwXwXwXwXwXwX4X4X4X4XwXwXwXwXwXwXwXwXwXwXwXwXwXwXwXwXwXwXwXwXwXwXwXwXwXwXwXwXwXwXwXwXwXwXwXwXwXwXwXwXwXwXwXwXwXwXwXwXwXwXwXwXwXwXwXwXwXwXwXwXwXwXwXwXwXwX",
"wXwXwXwXwXwXwXwXwXwXwXwXwXwXwXwXwXwXwXwXwXwX4X4X4X4X4X4X4X4X2X2X2X2X2X2X2X2X4X4X4X4X4X4X4X<X<X<X<X4X4X4XwX<X<X<X<X4X4X4X4X<X<X<X<XwXwXwXwXwXwXwXwXwXwXwXwXwXwXwXwX*X*X*X*X$X$X$X$X3X3X3X3XwXwXwXwX>X>X>X>XwXwXwXwXwXwXwXwXwXwXwXwX[.[.[.[.! ! ! ! Z Z Z W [.[.[.C C C C +.+.*.*.i.i.i.i.n n n n =.=.=.=.*.*.*.*.i.i.i.i.W W W W |.|.|.|.[.[.[.[.7X7X7X7X8X7X7X7X7X7X7X7X7X7X7X7X7X7X7X7X1X1X1X1X3X3X3X3X3X3X3X3XwXwXwXwX2X2X2X2XwXwXwXwX2X2X2X4X4X4X4X-X-X-X-X-X-X-X-X<X<X<X<X7X;X;X;X7X7X7X7X5X5X5X5X4X4X4X4X*X*X*X*XwXwXwXwXwXwXwXwXwXwXwXwX<X<X<X<XwXwXwXwX*X*X*X*X5X5X5X5X>X>X>X>X3X3X3X3X>X>X>X>XwXwXwXwXwXwXwXwX4X4X4X4XwXwXwXwXwXwXwXwXwXwXwXwXwXwXwXwXwXwXwXwXwXwXwXwXwXwXwXwXwXwXwXwXwXwXwXwXwXwXwXwXwXwXwXwXwXwXwXwXwXwXwXwXwXwXwXwXwXwXwXwXwXwXwXwXwXwX",
"wXwXwXwXwXwXwXwXwXwXwXwXwXwXwXwXwXwXwXwXwXwXwXwXwXwX3X3X3X3X4X4X4X4X1X1X1X1X<X<X<X>X>X>X>XwXwXwXwX7X7X7X7X-X-X-X-X-X-X-X-X>X>X>X>XwXwXwXwX4X4X4X4X>X>X>X>X*X*X*X*X$X$X$X$X*X*X*X*X4X4X4X4X<X<X<X<X2X2X2X2X#X#X#X#X1X1X1X1X2X2X2X2X X X X X[.[.[.[.V V V V T T T *.&.&.&.=.=.=.=.=.=.=.=.*.&.&.&.` ` ` ` -.-.-.-.p.p.p.p.B B B B M M M M  X}.}.}.*X*X*X*X=X=X=X=X7X7X7X7XXXXXXXXX<X<X<X<XwXwXwXwX-X-X-X*X2X2X3X3X-X-X-X-X2X2X2X2X2X2X2X2X#X#X#X<X<X<X<X8X8X8X8X5X5X5X5XXXXXXX+X;X;X;X;X+X+X+X#X<X8X8X8X<X<X<X<X5X5X5X5X4X4X4X4X>X>X>X>XwXwXwXwXwXwXwXwXwXwXwXwX4X4X4X4X*X*X*X*XwXwXwXwXwXwXwXwXwXwXwXwX<X<X<X<XwXwXwXwX3X3X3X3XwXwXwXwXwXwXwXwXwXwXwXwXwXwXwXwXwXwXwXwXwXwXwXwXwXwXwXwXwXwXwXwXwXwXwXwXwXwXwXwXwXwXwXwXwXwXwXwXwXwXwXwXwXwXwXwXwXwXwXwXwXwXwXwXwXwX",
"wXwXwXwXwXwXwXwXwXwXwXwXwXwXwXwXwXwXwXwXwXwXwXwXwXwX3X3X3X3X4X4X4X4X1X1X1X1X<X<X<X>X>X>X>XwXwXwXwX7X7X7X7X-X-X-X-X-X-X-X-X>X>X>X>XwXwXwXwX4X4X4X4X>X>X>X>X*X*X*X*X$X$X$X$X*X*X*X*X4X4X4X4X<X<X<X<X2X2X2X2X#X#X#X#X1X1X1X1X2X2X2X2X X X X X[.[.[.[.V V V V T T T *.*.&.&.=.=.=.=.=.=.=.=.*.*.&.&.` ` ` ` -.-.-.-.p.p.p.p.B B B B M M M M  X X}.}.*X*X*X*X=X=X=X=X7X7X7X7XXXXXXXXX<X<X<X<XwXwXwXwX-X-X-X-X2X2X3X3X-X-X-X-X2X2X2X2X2X2X2X2X#X#X#X<X<X<X<X8X8X8X8X5X5X5X5X+XXXXX+X;X;X;X;X+X+X+X#X<X8X8X8X<X<X<X<X5X5X5X5X4X4X4X4X>X>X>X>XwXwXwXwXwXwXwXwXwXwXwXwX4X4X4X4X*X*X*X*XwXwXwXwXwXwXwXwXwXwXwXwX<X<X<X<XwXwXwXwX3X3X3X3XwXwXwXwXwXwXwXwXwXwXwXwXwXwXwXwXwXwXwXwXwXwXwXwXwXwXwXwXwXwXwXwXwXwXwXwXwXwXwXwXwXwXwXwXwXwXwXwXwXwXwXwXwXwXwXwXwXwXwXwXwXwXwXwXwXwX",
"wXwXwXwXwXwXwXwXwXwXwXwXwXwXwXwXwXwXwXwXwXwXwXwXwXwX3X3X3X3X4X4X4X4X1X1X1X1X<X<X<X>X>X>X>XwXwXwXwX7X7X7X7X-X-X-X-X-X-X-X-X>X>X>X>XwXwXwXwX4X4X4X4X>X>X>X>X*X*X*X*X$X$X$X$X*X*X*X*X4X4X4X4X<X<X<X<X2X2X2X2X#X#X#X#X1X1X1X1X2X2X2X2X X X X X[.[.[.[.V V V V T T T *.*.*.*.=.=.=.=.=.=.=.=.*.*.*.*.` ` ` ` -.-.-.-.p.p.-.-.B B B B m m M M  X X X X*X*X*X*X%X%X=X=X7X7X7X7XXXXXXXXX<X<X<X<XwXwXwXwX-X-X-X-X2X2X2X3X-X-X-X-X2X2X2X2X2X2X2X2X#X#X#X<X<X<X<X8X8X8X8X5X5X5X5X+XXXXXXX;X;X;X;X+X+X#X#X<X8X8X8X<X<X<X<X5X5X5X5X4X4X4X4X>X>X>X>XwXwXwXwXwXwXwXwXwXwXwXwX4X4X4X4X$X*X*X*XwXwXwXwXwXwXwXwXwXwXwXwX<X<X<X<XwXwXwXwX3X3X3X3XwXwXwXwXwXwXwXwXwXwXwXwXwXwXwXwXwXwXwXwXwXwXwXwXwXwXwXwXwXwXwXwXwXwXwXwXwXwXwXwXwXwXwXwXwXwXwXwXwXwXwXwXwXwXwXwXwXwXwXwXwXwXwXwXwXwX",
"wXwXwXwXwXwXwXwXwXwXwXwXwXwXwXwXwXwXwXwXwXwXwXwXwXwX3X3X3X3X4X4X4X4X1X1X1X1X<X<X<X>X>X>X>XwXwXwXwX7X7X7X7X-X-X-X-X-X-X-X-X>X>X>X>XwXwXwXwX4X4X4X4X>X>X>X>X*X*X*X*X$X$X$X$X*X*X*X*X4X4X4X4X<X<X<X<X2X2X2X2X#X#X#X#X1X1X1X1X2X2X2X2X X X X X[.[.[.[.V V V V T T T *.*.*.*.=.=.=.=.=.=.=.=.*.*.*.*.` ` ` ` -.-.-.-.-.-.-.-.M B B B B M M M  X X X X=X=X*X*X%X=X=X=X7X7X7X7X+X+XXXXX<X<X<X<XwXwXwXwX-X-X-X-X2X2X2X3X-X-X-X-X2X2X2X2X2X2X2X2X#X#X#X<X<X<X<X8X8X8X8X5X5X5X5X+XXXXXXX;X;X;X;X+X+X#X#X<X8X8X8X<X<X<X<X5X5X5X5X4X4X4X4X>X>X>X>XwXwXwXwXwXwXwXwXwXwXwXwX4X4X4X4X$X$X*X*XwXwXwXwXwXwXwXwXwXwXwXwX<X<X<X<XwXwXwXwX3X3X3X3XwXwXwXwXwXwXwXwXwXwXwXwXwXwXwXwXwXwXwXwXwXwXwXwXwXwXwXwXwXwXwXwXwXwXwXwXwXwXwXwXwXwXwXwXwXwXwXwXwXwXwXwXwXwXwXwXwXwXwXwXwXwXwXwXwXwX",
"wXwXwXwXwXwXwXwXwXwXwXwXwXwXwXwXwXwXwXwXwXwXwXwXwXwX3X3X3X3X1X1X1X1XwXwXwXwX4X4X4X4X4X4X4XwXwXwX4X$X*X*X*X2X2X2X2X#X#X#X#X*X*X*X*X4X4X4X4X#X#X#X#X+X+X+X+X3X3X3X5X{.{.{.{.&X&X&X&X8X8X8X8X X X X X9X9X9X9X+X+X+X+X<X<X<X<X7X7X;X-X7X7X7X7XOXOXOXOXC C C C *.*.*.B B B B +.+.+.+.=.=.=.=.@.@.@.@.' ' ' ' ' ' ' ' @.@.@.@.a.a.a.a.i i i i M M M M [.[.[.[.W W W W  X X X XW W W W -X*X*X*XXXXXXXXX*X*X*X*X5X5X5X5X-X-X-X-X+X+X+X+X5X5X5X5X+X+X+X-X-X-X-X7X7X7X7X#X#X#X#X*X=X=X=X8X8X8X8X*X*X*X*XXXXX+X+X-X-X-X-X+X+X+X+X5X5X5X5X7X7X7X7X{.{.{.{.%X%X%X%X=X=X=X$X3X3X3X3X7X7X7X7X%X%X%X%X{.{.{.{.0X0X0X0XwXwXwXwX<X<X<X<X3X3X3X3XwXwXwXwXwXwXwXwXwXwXwXwXwXwXwXwXwXwXwXwXwXwXwXwXwXwXwXwXwXwXwXwXwXwXwXwXwXwXwXwXwXwXwXwXwXwXwXwXwXwXwXwXwXwXwXwXwXwXwXwXwXwXwXwXwXwX",
"wXwXwXwXwXwXwXwXwXwXwXwXwXwXwXwXwXwXwXwXwXwXwXwXwXwX3X3X3X3X1X1X1X1XwXwXwXwX4X4X4X4X4X4X4XwXwXwX4X$X$X*X*X2X2X2X2X#X#X#X#X*X*X*X*X4X4X4X4X#X#X#X#X+X+X+X+X3X3X3X3X{.{.{.[.&X&X&X&X8X8X8X8X X X X X9X9X9X9X+X+X+X+X<X<X<X<X7X7X7X-X7X;X7X7XOXOXOXOXC C C C *.*.*.B B B B +.+.+.+.=.=.=.=.@.@.@.@.' ' ' ' ' ' ' ' @.@.@.@.a.a.a.a.i i i i M M M M [.[.[.[.W W W W  X X X XW W W W *X*X*X*XXXXXXXXX*X*X*X*X5X5X5X5X-X-X-X-X+X+X+X+X5X5X5X5X+X+X+X-X-X-X-X7X7X7X7X#X#X#X#X*X=X=X=X8X8X8X8X*X*X*X*XXXXX+X+X-X-X-X-X+X+X+X+X5X5X5X5X7X7X7X7X{.{.{.{.%X%X%X%X=X=X=X$X3X3X3X3X7X7X7X7X%X%X%X%X{.{.{.{.0X0X0X0XwXwXwXwX<X<X<X<X3X3X3X3XwXwXwXwXwXwXwXwXwXwXwXwXwXwXwXwXwXwXwXwXwXwXwXwXwXwXwXwXwXwXwXwXwXwXwXwXwXwXwXwXwXwXwXwXwXwXwXwXwXwXwXwXwXwXwXwXwXwXwXwXwXwXwXwXwXwX",
"wXwXwXwXwXwXwXwXwXwXwXwXwXwXwXwXwXwXwXwXwXwXwXwXwXwX3X3X3X3X1X1X1X1XwXwXwXwX4X4X4X4X4X4X4XwXwXwXwX*X*X*X*X2X2X2X2X#X#X#X#X*X*X*X*X4X4X4X4X#X#X#X#X+X+X+X+X3X3X3X3X{.[.[.[.&X&X&XOX8X8X8X8X X X X X9X9X9X9X+X+X+X+X<X<X<X<X7X7X7X7X7X7X7X7XOXOXOXOXC C C C *.*.*.B B B B +.+.+.+.=.=.=.=.@.@.@.@.' ' ' ' ) ) ' ' *.@.@.@.a.a.a.a.i i i i M M M M [.[.[.[.W W W W  X X X XW W W W -X-X*X*XXXXXXXXX*X*X*X*X5X5X5X5X-X-X-X-X+X+X+X+X5X5X5X5X+X+X+X-X-X-X-X7X7X7X7X#X#X#X#X*X=X=X=X8X8X8X8X*X*X*X=XoXXXXXXX-X-X-X-X+X+X+X+X5X5X5X5X7X7X7X7X{.{.{.{.%X%X%X%X=X=X$X$X3X3X3X3X7X7X7X7X%X%X%X%X{.{.{.{.0X0X0X0XwXwXwXwX<X<X<X<X3X3X3X3XwXwXwXwXwXwXwXwXwXwXwXwXwXwXwXwXwXwXwXwXwXwXwXwXwXwXwXwXwXwXwXwXwXwXwXwXwXwXwXwXwXwXwXwXwXwXwXwXwXwXwXwXwXwXwXwXwXwXwXwXwXwXwXwXwXwX",
"wXwXwXwXwXwXwXwXwXwXwXwXwXwXwXwXwXwXwXwXwXwXwXwXwXwXwXwXwXwX4X4X4X4X4X4X4X4X;X;X;X*X*X*X*X4X4X4X4X7X7X7X7X8X8X8X8X5X5X5X5X-X-X-X-X#X#X#X#X0X0X0X0X4X4X4X4X-X-X-X-X*X*X*X*XQ Q Q Q oXoXoX@X+X+X+X+X;X;X;X;X7X7X7X7X<X<X<X<X;X;X;X;X;X-X;X;XZ Z Z Z i.i.i.i.s.s.s.B B B B ) ) ) ) _ _ _ _ ' ' ' ' ' ' ' ' { { { { { { { { *.*.*.*.*.*.*.*.=.=.=.=.m m m m }.}.}.}. X X X X#X#X#X#X'.'.'.'.oXoXoXoX[.[.[.[.;X;X;X;X$X$X$X$X9X9X9X9X}.}.}.}.$X$X=X8X8X8X8X$X$X$X$X}.}.}.}.2X0X0X0X#X#X+X#X-X-X-X*X%X$X$X$X*X*X*X*X5X5X5X5XXXXXXXXX*X*X*X*X%X&X&X&X[.[.[.[.oXoX XXX4X4X4X4X0X0X0X0X=X=X=X;X=X=X=X=X9X9X9X9XwXwXwXwXwXwXwXwXwXwXwXwXwXwXwXwXwXwXwXwXwXwXwXwXwXwXwXwXwXwXwXwXwXwXwXwXwXwXwXwXwXwXwXwXwXwXwXwXwXwXwXwXwXwXwXwXwXwXwXwXwXwXwXwXwXwXwXwXwXwXwXwXwXwXwXwXwXwX",
"wXwXwXwXwXwXwXwXwXwXwXwXwXwXwXwXwXwXwXwXwXwXwXwXwXwXwXwXwXwX4X4X4X4X4X4X4X4X;X;X;X*X*X*X*X4X4X4X4X7X7X7X7X8X8X8X8X5X5X5X5X-X-X-X-X#X#X$X$X0X0X0X0X4X4X4X4X-X-X-X-X*X*X*X*XQ Q Q Q @X@X@X@X+X+X+X+X;X;X;X;X7X7X7X7X<X<X<X<X;X;X;X;X;X;X;X;XZ Z Z Z =.=.=.i.s.s.s.B B B B ) ) ) ) _ _ _ _ ' ' ' ' ' ' ' ' { #.#.#.{ { { { #.*.@.@.*.*.i i =.=.=.=.m m m m |.|.|.|. X X X X@X@X@X@X'.'.'.'.oXoXoXoX[.[.[.[.;X;X;X;X$X$X$X$X9X9X9X9X}.}.}.}.$X$X$X8X8X8X8X$X$X$X$X}.}.}.}.0X0X0X0X#X#X#X#X-X-X-X-X$X$X$X$X*X*X*X*X5X5X5X5XXXXXXXXX*X*X*X*X&X&X&X&X[.[.[.[.oXXXXXXX4X4X4X4X0X0X0X0X=X=X=X=X=X=X=X=X9X9X9X9XwXwXwXwXwXwXwXwXwXwXwXwXwXwXwXwXwXwXwXwXwXwXwXwXwXwXwXwXwXwXwXwXwXwXwXwXwXwXwXwXwXwXwXwXwXwXwXwXwXwXwXwXwXwXwXwXwXwXwXwXwXwXwXwXwXwXwXwXwXwXwXwXwXwXwXwXwXwX",
"wXwXwXwXwXwXwXwXwXwXwXwXwXwXwXwXwXwXwXwXwXwXwXwXwXwXwXwXwXwX4X4X4X4X4X4X4X4X;X;X;X*X*X*X*X4X4X4X4X7X7X7X7X8X8X8X8X5X5X5X5X-X-X-X-X#X#X#X#X0X0X0X0X4X4X4X4X-X-X-X-X*X*X*X*XQ Q Q Q @X@X@X@X+X+X+X+X;X;X7X;X7X7X7X7X<X<X<X<X;X;X;X;X;X;X;X;XZ Z Z Z =.=.=.i.s.s.s.B B B B ) ) ) ) _ _ _ _ ' ' ' ' ' ' ' ' { { #.#.{ { { { #.@.@.*.i *.i i =.=.=.=.m m m m |.|.|.|. X X X X@X@X@X@X'.'.'.'.oXoXoXoX[.[.[.[.;X;X;X;X$X$X$X$X9X9X9X9X}.}.}.}.$X$X$X8X8X8X8X$X$X$X$X}.}.}.}.0X0X0X0X#X#X#X#X-X-X-X*X%X$X$X$X*X*X*X*X5X5X5X5XXXXXXXXX*X*X*X*X&X&X&X&X[.[.[.[.XXXXXXXX4X4X4X4X0X0X0X0X=X=X=X=X=X=X=X=X9X9X9X9XwXwXwXwXwXwXwXwXwXwXwXwXwXwXwXwXwXwXwXwXwXwXwXwXwXwXwXwXwXwXwXwXwXwXwXwXwXwXwXwXwXwXwXwXwXwXwXwXwXwXwXwXwXwXwXwXwXwXwXwXwXwXwXwXwXwXwXwXwXwXwXwXwXwXwXwXwXwX",
"wXwXwXwXwXwXwXwXwXwXwXwXwXwXwXwXwXwXwXwXwXwXwXwXwXwXwXwXwXwX4X4X4X4X4X4X4X4X7X>X>X-X*X*X*X4X4X4X4X7X7X7X7X8X8X8X8X5X5X5X5X-X-X-X-X#X#X#X#X0X0X0X0X4X4X4X4X-X-X-X-X*X*X*X*XQ Q Q Q @X@X@X@X+X+X+X+X;X7X7X7X7X8X8X>X<X<X<X<X;X;X;X;X;X;X;X;XZ Z Z Z =.=.=.=.s.s.s.B B B B ) ) ) ) _ ) ) _ ' ' ' ] ' ' ' ' { { #.#.{ { { { #.#.*.*.i i i i =.=.=.=.m m m m |.|.|.|. X X X X@X@X@X@X'.'.'.'.oXoXoXoX[.[.[.[.;X;X;X;X$X$X$X$X9X9X9X9X}.}.}.}.$X$X$X8X8X8X8X$X$X$X$X}.|.}.}.0X0X0X0X+X#X#X#X-X-X-X-X$X$X$X$X*X*X*X*X5X5X5X5XXXXXXXXX*X*X*X*X%X%X%X%X[.[.[.[.XXXXXXXX4X4X4X4X0X0X0X0X=X=X=X=X=X=X=X=X9X9X9X9XwXwXwXwXwXwXwXwXwXwXwXwXwXwXwXwXwXwXwXwXwXwXwXwXwXwXwXwXwXwXwXwXwXwXwXwXwXwXwXwXwXwXwXwXwXwXwXwXwXwXwXwXwXwXwXwXwXwXwXwXwXwXwXwXwXwXwXwXwXwXwXwXwXwXwXwXwXwX",
"wXwXwXwXwXwXwXwXwXwXwXwXwXwXwXwXwXwXwXwXwXwXwXwXwXwX3X3X3X3XwXwXwXwX4X4X4X4X4X4X4X7X7X7X>X7X7X7X7X X X X X@X@X@X@XoXoXoXoX-X-X-X-XXXXXXXXX7X7X7X7X-X-X-X-X$X$X$X$X=X=X*X*X+X@X@X@X XoXoX X+X+X+X+X4XwXwXwX$X$X$X$XwXwXwXwX>X>X>X>X#X#X#X#XW W W W *.*.*.*.*.*.*.i.i.i.n [ [ [ [ ' ) ) ) { { { { ] ] ] ] ' ] ' ' { { { { ' ' ' ' [ [ [ ` *.*.*.*.+.+.+.+.V V V V ! ! ! ! ! ! ! ! [.[.[.[.|.|.|.|.[.[.[.[.*X*X*X*X|.|.|.|.*X*X*X*X8X8X8X8X X X X;X;X;X;X8X8X8X8X-X-X-X-XoXoXoXoX7X7X7X7X7X7X7X7X*X*X*X*X8X8X8X8X-X-X-X-X2X2X2X2X<X<X8X<X8X8X9X9X3X3X3X3XwXwXwXwX3X3X3X3X4X4X4X4X#X#X#X#X+X+X+X+X>X>X>X>XwXwXwXwX4X4X4X4X3X3X3X3XwXwXwXwXwXwXwXwXwXwXwXwXwXwXwXwXwXwXwXwXwXwXwXwXwXwXwXwXwXwXwXwXwXwXwXwXwXwXwXwXwXwXwXwXwXwXwXwXwXwXwXwXwXwXwXwXwXwXwXwXwXwXwXwXwXwX",
"wXwXwXwXwXwXwXwXwXwXwXwXwXwXwXwXwXwXwXwXwXwXwXwXwXwX3X3X3X3XwXwXwXwX4X4X4X4X4X4X4X7X7X7X7X7X7X7X7X X X X X+X+X+X@XoXoXoXoX-X-X-X-XXXoXoX X7X7X7X7X-X;X;X;X$X$X$X$X=X=X*X*X+X@X@X@X X X XXX+X+X+X+X4X4X4X4X$X$X$X$XwXwXwXwX>X>X>X>X#X#X#X#XW W W W *.*.*.*.*.*.*.n n n i.[ [ [ [ ' ' ) ) { { { { ] ] ] ] ] ] ] ] { { { { ] ] ' ' ` [ [ [ *.*.*.*.+.+.+.+.V V V V ! ! ! ! ! ! ! ! [.[.[.[.|.|.|.|.[.[.[.[.*X*X*X*X|.|.|.|.*X*X*X*X8X8X8X8X X X X;X;X;X;X8X8X8X8X-X-X-X*XoXoXoXoX7X7X7X7X7X7X7X7X*X*X*X*X8X8X8X8X-X-X-X-X2X2X2X2X<X<X8X<X8X8X8X8X3X3X3X3XwXwXwXwX3X3X3X3X4X4X4X4X#X#X#X#X+X+X+X+X>X>X>X>XwXwXwXwX4X4X4X4X3X3X3X3XwXwXwXwXwXwXwXwXwXwXwXwXwXwXwXwXwXwXwXwXwXwXwXwXwXwXwXwXwXwXwXwXwXwXwXwXwXwXwXwXwXwXwXwXwXwXwXwXwXwXwXwXwXwXwXwXwXwXwXwXwXwXwXwXwXwX",
"wXwXwXwXwXwXwXwXwXwXwXwXwXwXwXwXwXwXwXwXwXwXwXwXwXwX3X3X3X3XwXwXwXwX4X4X4X4X4X4X4X7X7X7X7X7X7X7X7X X X X X+X+X+X@XoXoXoXoX-X-X-X-XoXoXoX X7X7X7X7X-X;X;X;X$X$X$X$X=X=X*X=X+X@X+X@X X X XXX+X+X+X+X4X4X4X4X$X$X$X$XwXwXwXwX>X>X>X>X#X#X#X#XW W W W *.*.*.*.*.*.*.n n n i.[ [ [ [ ' ) ) ) ' { { { ] ] ] ] ] ] ] ] { { { { ] ] ' ' ` [ [ [ *.*.*.*.+.+.+.+.V V V V ! ! ! ! ! ! ! ! [.[.[.[.|.|.|.|.[.[.[.[.*X*X*X*X|.|.|.|.*X*X*X*X8X8X8X8X X X X;X;X;X;X8X8X8X8X-X-X-X*XoXoXoXoX7X7X7X7X7X7X7X7X*X*X*X*X8X8X8X8X-X-X-X-X2X2X2X2X<X8X8X8X8X8X8X8X3X3X3X3XwXwXwXwX3X3X3X3X4X4X4X4X#X#X#X#X+X+X+X+X>X>X>X>XwXwXwXwX4X4X4X4X3X3X3X3XwXwXwXwXwXwXwXwXwXwXwXwXwXwXwXwXwXwXwXwXwXwXwXwXwXwXwXwXwXwXwXwXwXwXwXwXwXwXwXwXwXwXwXwXwXwXwXwXwXwXwXwXwXwXwXwXwXwXwXwXwXwXwXwXwXwX",
"wXwXwXwXwXwXwXwXwXwXwXwXwXwXwXwXwXwXwXwXwXwXwXwXwXwX3X3X3X3XwXwXwXwX4X4X4X4X4X4X4X7X7X7X7X7X7X7X7X X X X X@X+X+X@XoXoXoXoX-X-X-X-X XoXoX X7X7X7X7X-X-X-X-X$X$X$X$X=X=X=X*X+X+X+X+XXX X XXX+X+X+X+X4X4X4X4X$X$X$X$XwXwXwXwX>X>X>X>X#X#X#X#XW W W W *.*.*.*.*.*.*.n n n n [ [ [ [ ' ' ) ) ' ' { { ] ] ] ] ] ] ] ] { { { { ] ] ] ] ` ` [ [ *.*.*.*.+.+.+.+.V V V V ! ! ! ! ! ! ! ! [.[.[.[.|.|.|.|.[.[.[.[.*X*X*X*X|.|.}.}.*X*X*X*X8X8X8X8X X X X;X;X;X;X8X8X8X8X-X-X-X-XoX@X@XoX7X7X7X7X7X7X7X7X*X*X*X*X8X8X8X8X-X-X-X-X2X2X2X2X<X<X<X8X8X8X8X8X3X3X3X3XwXwXwXwX3X3X3X3X4X4X4X4X#X#X#X#X+X#X#X+X>X>X>X>XwXwXwXwX5X4X4X4X3X3X3X3XwXwXwXwXwXwXwXwXwXwXwXwXwXwXwXwXwXwXwXwXwXwXwXwXwXwXwXwXwXwXwXwXwXwXwXwXwXwXwXwXwXwXwXwXwXwXwXwXwXwXwXwXwXwXwXwXwXwXwXwXwXwXwXwXwXwX",
"wXwXwXwXwXwXwXwXwXwXwXwXwXwXwXwXwXwXwXwXwXwXwXwXwXwX3X3X3X3XwXwXwXwX7X7X7X7X*X*X*X-X-X-X-X=X=X=X=X9X9X9X9X;X;X;X;XoXoXoXoX9X9X9X9X'.].].].@X@X@X@X*X*X*X*X'.'.'.'.*X*X*X*X[.[.[.[.E R R E ;X;X;X;X#X#X#X#X4X4X4X4XXXXXXXXX-X-X-X-X'.'.'.'.W W W W *.*.*.*.@.@.@._ _ ) ) #.#.@.@.{ { { { ....;.;.X.X.X.X.} } } } $.$.$.$.} } { { ) ) ) ) ` ` _ _ m m m m B B B B M M n n n n n n T T T T {.{.{.{.V V V V C C C C }.}.}.}.A A A A E E E E {.{.{.C C C C Z Z Z Z W W W W E E E E *X*X*X*X[.[.[.[. X X X X;X;X;X;X-X*X*X-X*X*X*X*X5X5X5X5X;X;X;X;X4X4X4X4X4X4X4X4X4X4X4X4X*X*X*X*X4XwX4XwX<X<X<X<X-X-X-X-XwXwXwXwX1X1X1X1X4X4X4X4XwXwXwXwXwXwXwXwXwXwXwXwXwXwXwXwXwXwXwXwXwXwXwXwXwXwXwXwXwXwXwXwXwXwXwXwXwXwXwXwXwXwXwXwXwXwXwXwXwXwXwXwXwXwXwXwXwXwXwXwXwXwXwXwXwXwX",
"wXwXwXwXwXwXwXwXwXwXwXwXwXwXwXwXwXwXwXwXwXwXwXwXwXwX3X3X3X3XwXwXwXwX7X7X7X7X*X*X*X-X-X-X*X$X=X=X=X9X9X9X9X;X;X;X;XoXoXoXoX9X9X9X9X'.'.'.'.@X@X@X@X-X*X*X*X'.'.'.'.*X*X*X=X[.[.[.[.E E E E ;X;X;X;X#X#X#X#X4X4X4X4XXXXXXXXX-X-X-X-X'.'.'.'.W W W W *.*.*.*.@.@.@.) ) ) ) @.@.@.@.{ { { { X.X.;.;.X.X.;.;.} } } } $.$.$.$.{ } { { ) ) ) ) ` ` ` ` m m m m B B B B n n n n n n n n T T T T {.{.{.{.V V V V C C C C }.}.}.}.A A A A E E E E {.{.{.C C C C Z Z Z Z W W W W E E E E *X*X*X*X[.[.[.[. X X X X;X;X;X;X-X-X-X-X*X*X*X*X5X5X5X5X;X;X;X;X4X4X4X4X4X4X4X4X4X4X4X4X*X*X*X*XwXwXwX4X<X<X<X<X-X-X-X-XwXwXwXwX1X1X1X1X4X4X4X4XwXwXwXwXwXwXwXwXwXwXwXwXwXwXwXwXwXwXwXwXwXwXwXwXwXwXwXwXwXwXwXwXwXwXwXwXwXwXwXwXwXwXwXwXwXwXwXwXwXwXwXwXwXwXwXwXwXwXwXwXwXwXwXwXwXwX",
"wXwXwXwXwXwXwXwXwXwXwXwXwXwXwXwXwXwXwXwXwXwXwXwXwXwX3X3X3X3XwXwXwXwX7X7X7X7X*X*X*X-X-X-X*X$X=X=X=X9X9X9X9X;X;X;X;XoXoXoXoX9X9X9X9X'.'.'.'.@X@X@X@X*X*X*X*X'.'.'.'.*X*X*X=X[.[.[.[.E E E E ;X;X;X;X#X#X#X#X4X4X4X4XXXXXXXXX-X-X-X-X'.'.'.'.W W W W *.*.*.*.@.@.@.) ) ) ) @.@.@.@.{ { { { X.X.;.;.X.X.;.;.} } } } $.$.$.$.} } { { ) ) ) ) ` ` ` ` m m m m B B B B n n n n n n n n T T T T {.{.{.{.V V V V C C C C }.}.}.}.A A A A '.E E E {.{.{.C C C C Z Z Z Z W W W W E E E E *X*X*X*X[.[.[.[. X X X X;X;X;X;X-X-X-X-X*X*X*X*X5X5X5X5X;X;X;X;X4X4X4X4X4X4X4X4X4X4X4X4X*X*X*X*XwXwXwXwX<X<X<X<X-X-X-X-XwXwXwXwX1X1X1X1X4X4X4X4XwXwXwXwXwXwXwXwXwXwXwXwXwXwXwXwXwXwXwXwXwXwXwXwXwXwXwXwXwXwXwXwXwXwXwXwXwXwXwXwXwXwXwXwXwXwXwXwXwXwXwXwXwXwXwXwXwXwXwXwXwXwXwXwXwXwX",
"wXwXwXwXwXwXwXwXwXwXwXwXwXwXwXwXwXwXwXwXwXwXwXwXwXwX3X3X3X3XwXwXwXwX7X7X7X7X*X*X*X-X*X*X-X=X=X=X=X9X9X9X9X;X;X;X;XoXoXoXoX9X9X9X9X'.'.'.'.@X@X@X@X*X*X*X*X'.'.'.'.*X*X*X*X[.[.[.[.E E E E ;X;X7X;X#X#X#X#X4X4X4X4XXXXXXXXX-X-X-X-X'.'.'.'.W W W W *.*.*.*.@.@.@.) ) ) ) @.@.@.@.{ { { { X.X.X.X.X.;.;.;.} } } } $.$.$.$.} { { { ) ) ) ) ` ` ` ` m m m m B B B B n n n n n n n n T T T T {.{.{.{.V V V V C C C C }.}.}.}.A A A A E E E E {.{.{.C C C C Z Z Z Z W W W W E E E E *X*X*X*X[.[.[.[. X X X X;X;X;X;X-X-X-X-X*X*X*X*X5X5X5X5X;X;X;X;X4X4X4X4X4X4X4X4X4X4X4X4X*X*X*X*XwXwXwX4X<X<X<X<X-X-X-X-XwXwXwXwX1X1X1X1X4X4X4X4XwXwXwXwXwXwXwXwXwXwXwXwXwXwXwXwXwXwXwXwXwXwXwXwXwXwXwXwXwXwXwXwXwXwXwXwXwXwXwXwXwXwXwXwXwXwXwXwXwXwXwXwXwXwXwXwXwXwXwXwXwXwXwXwXwXwX",
"wXwXwXwXwXwXwXwXwXwXwXwXwXwXwXwXwXwXwXwXwXwXwXwXwXwXwXwXwXwX1X2X2X2X>X>X>X>X2X2X2X4X4X4X4X2X2X2X2X8X8X8X8X8X8X8X8X9X9X9X9X#X#X#X#X'.'.].].[.[.{.{.@X@X@X@X! ! ! ! ! ! ! !  X X X XW W W W Z Z Z Z ].].].].XXXXXXXX}.}.}.}.*X*X*X*XE E E E M M M M *.*.*.*.{ { { [ [ [ [ #.#.{ { { { } } ;.1.;.;.1.1.1.1.o.o.o.o.X.X.X.X.$.$.$.$.} } } } { { { { ) ) ) ) @.@.@.@.) ) ) ) +.+.+.+.s.s.s.s.=.=.=.=.a.a.B B W W W W E E E E W W W W m m m m s.s.s.-.-.-.=.! ! ! ! W W W W =X=X=X=X7X7X7X7XoXoXoXoX;X;X;X;XoXoXoXoX7X7X7X7X#X#X#X#X7X7X7X7X5X5X5X5X<X<X<X<X$X$X$X$X;X;X;X;X4X4X4X4X4X4X4X4X4X4X4X4X2X2X2X2XwXwXwXwX2X2X2X2X4X4X4X4XwXwXwXwXwXwXwXwXwXwXwXwXwXwXwXwXwXwXwXwXwXwXwXwXwXwXwXwXwXwXwXwXwXwXwXwXwXwXwXwXwXwXwXwXwXwXwXwXwXwXwXwXwXwXwXwXwXwXwXwXwXwXwXwXwXwX",
"wXwXwXwXwXwXwXwXwXwXwXwXwXwXwXwXwXwXwXwXwXwXwXwXwXwXwXwXwXwX2X2X2X2X>X>X>X>X2X2X2X4X4X4X4X2X2X2X2X8X8X8X8X8X8X8X8X9X9X9X9X#X#X#X#X'.].].].{.{.{.{.@X@X@X@X! ! ! ! ! ! ! !  X X X XW W W W Z Z Z Z ].].].].XXXXXXXX}.}.}.}.*X*X*X*XE E E E B B B B +.*.*.*.{ { { [ [ [ [ #.#.{ { { { { { 1.1.1.;.1.1.1.1.o.o.o.o.X.X.o.o.$.$.$.$.} } } } { { { ' ) ) ) ) @.@.@.@.) ) ) ) +.+.+.+.s.s.s.s.=.=.=.=.s.s.s.s.W W W W E E E E W W W W m m m m s.s.s.p.p.p.p.{.! ! ! W W W W *X=X=X=X7X7X7X7XoXoXoXoX;X;X;X;XoXoX@X@X7X7X7X7X#X#X#X#X7X7X7X7X5X5X5X4X<X1X<X<X$X$X*X*X>X;X;X;X4X4X4X4X4X4X4X4X4X4X4X4X2X2X2X2XwXwXwXwX2X2X2X2X4X4X4X4XwXwXwXwXwXwXwXwXwXwXwXwXwXwXwXwXwXwXwXwXwXwXwXwXwXwXwXwXwXwXwXwXwXwXwXwXwXwXwXwXwXwXwXwXwXwXwXwXwXwXwXwXwXwXwXwXwXwXwXwXwXwXwXwXwXwX",
"wXwXwXwXwXwXwXwXwXwXwXwXwXwXwXwXwXwXwXwXwXwXwXwXwXwXwXwXwXwX2X2X2X2X>X>X>X>X2X2X2X4X4X4X4X2X2X2X2X8X8X8X8X8X8X8X8X9X9X9X9X#X#X#X#X'.].].].{.{.{.{.@X@X@X@X! ! ! ! ! ! ! !  X X X XW W W W Z Z Z Z ].].].'.XXXXXXXX}.}.}.}.*X*X*X*XE E E E B B B B +.+.+.*.{ { { [ [ [ [ #.#.#.#.{ { { { 1.1.1.1.1.1.1.1.o.o.o.o.X.o.o.o.$.$.$.$.} } } } { { { { ) ) ) ) @.@.@.@.) ) ) ) +.+.+.+.V V s.s.=.=.=.=.s.s.s.s.W W W W E E E E W W W W m m m m s.s.s.p.p.p.p.{.! ! ! W W W W *X=X=X=X7X7X7X7XoXoXoXoX;X;X;X;XoX@XoX@X7X7X7X7X#X#X#X#X7X7X7X7X5X5X5X5X<X1X<X<X$X$X*X*X;X;X;X;X4X4X4X4X4X4X4X4X4X4X4X4X2X2X2X2XwXwXwXwX2X2X2X2X4X4X4X4XwXwXwXwXwXwXwXwXwXwXwXwXwXwXwXwXwXwXwXwXwXwXwXwXwXwXwXwXwXwXwXwXwXwXwXwXwXwXwXwXwXwXwXwXwXwXwXwXwXwXwXwXwXwXwXwXwXwXwXwXwXwXwXwXwXwX",
"wXwXwXwXwXwXwXwXwXwXwXwXwXwXwXwXwXwXwXwXwXwXwXwXwXwXwXwXwXwX2X2X2X2X>X>X>X>X2X2X2X4X4X4X4X2X2X2X2X8X8X8X8X8X8X8X8X9X9X9X9X#X#X#X#X].].].'.{.{.{.{.@X@X@X@X! ! ! ! ! ! ! !  X X X XW W W W Z Z Z Z ].].].'.XXXXXXXX}.}.}.}.*X*X*X*XE E E E B B B B +.+.+.*.{ { { [ [ [ [ #.#.#.#.} } { { 1.1.1.1.1.1.1.1.;.;.o.o.X.X.o.o.$.$.$.$.} } } } ' { { ' ) ) ) ) @.@.@.@.) ) ) ) +.+.+.+.V V s.V =.=.=.=.a.a.s.s.W W W W E E E E W W W W m m m m s.s.s.p.-.p.p.! ! ! ! W W W W *X=X=X=X7X7X7X7XoXoXoXoX;X;X;X;XoXoXoXoX7X7X7X7X#X#X#X#X7X7X7X7X5X5X5X5X<X1X<X<X$X$X$X$X;X;X;X;X4X4X4X4X4X4X4X4X4X4X4X4X2X2X2X2XwXwXwXwX2X2X2X2X4X4X4X4XwXwXwXwXwXwXwXwXwXwXwXwXwXwXwXwXwXwXwXwXwXwXwXwXwXwXwXwXwXwXwXwXwXwXwXwXwXwXwXwXwXwXwXwXwXwXwXwXwXwXwXwXwXwXwXwXwXwXwXwXwXwXwXwXwXwX",
"wXwXwXwXwXwXwXwXwXwXwXwXwXwXwXwXwXwXwXwXwXwXwXwXwXwX5X5X5X5X2X2X2X2XwXwXwXwX<X<X<X7X7X7X7X5X5X5X5X XXXXX X X X X X|.|.|.|. X X X XW W W W V V V V B B B B B B B B M M M m B B B B s.s.s.s.B B B B n n n n A W W W >X>X>X>XA A A A +X+X+X+Xm m m m =.=.=.-.{ { { ' ' ' ' | | | | 1.1.1.1.3.3.5.4.5.5.5.5.3.3.3.3.4.2.5.5.6.6.1.1.6.6.6.6.} } } } [ [ [ [ ) ) ) ) ) ) ) ) _ _ _ _ ` ` ` ` [ [ O.O.*.*.*.*.a.a.a.a.i i i i =.=.=.i *.*.*.*.s.s.s.a.p.a.a.M m m m ! E E E ].].].].A A A A ;X;X;X;X*X*X*X*X+X+X+X+X*X*X*X*X3X2X2X3X=X*X*X*X-X-X-X-X4X4X4X4X>X>X>X7X8X<X<X<X4X4X4X4X2X2X2X2X4X4X4X4X4X4X4X4XwXwXwXwX2X2X2X2XwXwXwXwXwXwXwXwXwXwXwXwXwXwXwXwXwXwXwXwXwXwXwXwXwXwXwXwXwXwXwXwXwXwXwXwXwXwXwXwXwXwXwXwXwXwXwXwXwXwXwXwXwXwXwXwXwXwXwXwXwXwXwXwXwXwXwXwXwXwX",
"wXwXwXwXwXwXwXwXwXwXwXwXwXwXwXwXwXwXwXwXwXwXwXwXwXwX5X5X5X5X2X2X2X2XwXwXwXwX<X<X<X;X;X;X7X5X5X5X5XXXXXXX X X X X X|.|.|.|. X X X XW W W W V V V V B B B B B B B B m m m m B B B B s.s.s.s.B B B B n n n n A W W W >X>X>X>XA A A A +X+X+X+XM m m M -.-.-.-.{ { { ] ] ] ' | | | | 1.1.6.6.2.2.2.2.5.5.5.5.3.3.3.3.4.4.4.4.1.1.1.1.6.6.6.6.} } } } [ [ [ [ ) ) ) ) ' ' ' ' _ _ _ _ ` ` ` ` [ [ [ [ *.*.*.*.a.a.a.a.i i i i i i =.=.=.=.=.*.s.s.s.a.p.p.a.m m m m ! ! ! E ].].].].A A A A ;X;X;X;X*X*X*X*X+X+X+X+X*X*X*X*X3X3X3X3X=X*X*X*X-X-X-X-X4XwX4X4X7X7X7X7X8X<X<X8X5X5X5X4X2X2X2X2X4X4X4X4X4X4X4X4XwXwXwXwX2X2X2X2XwXwXwXwXwXwXwXwXwXwXwXwXwXwXwXwXwXwXwXwXwXwXwXwXwXwXwXwXwXwXwXwXwXwXwXwXwXwXwXwXwXwXwXwXwXwXwXwXwXwXwXwXwXwXwXwXwXwXwXwXwXwXwXwXwXwXwXwXwXwX",
"wXwXwXwXwXwXwXwXwXwXwXwXwXwXwXwXwXwXwXwXwXwXwXwXwXwX5X5X5X5X2X2X2X2XwXwXwXwX<X<X<X;X;X;X7X5X5X5X5XoX XXX X X X X X|.|.|.|. X X X XW W W W V V V V B B B B B B B B m m m m B B B B s.s.s.s.B B B B n n n n A W W W >X>X>X>XA A A A +X+X+X+XM m M M -.-.-.-.{ { { ] ] ] ] | | | | 1.1.6.6.2.2.2.2.5.5.5.5.3.3.3.3.4.4.4.4.1.1.1.1.6.6.6.6.} } } } [ [ [ [ ) ) ) ) ' ' ' ) _ _ _ _ ` ` ` [ [ [ [ [ *.*.*.*.a.a.a.a.i i i i i =.=.=.=.=.*.*.s.s.s.a.p.p.a.m m m m ! ! ! E ].].].].A A A A ;X;X;X;X*X*X*X*X+X+X+X+X*X*X*X*X3X3X3X3X*X*X*X*X-X-X-X-X4XwXwX4X7X7X7X7X8X8X<X8X4X5X5X4X2X2X2X2X4X4X4X4X4X4X4X4XwXwXwXwX2X2X2X2XwXwXwXwXwXwXwXwXwXwXwXwXwXwXwXwXwXwXwXwXwXwXwXwXwXwXwXwXwXwXwXwXwXwXwXwXwXwXwXwXwXwXwXwXwXwXwXwXwXwXwXwXwXwXwXwXwXwXwXwXwXwXwXwXwXwXwXwXwXwX",
"wXwXwXwXwXwXwXwXwXwXwXwXwXwXwXwXwXwXwXwXwXwXwXwXwXwX5X5X5X5X2X2X2X2XwXwXwXwX<X<X<X7X;X;X;X5X5X5X5XoXoXoX X X X X X|.|.|.|. X X X XW W W W V V V V B B B B B B B B m m m m B B B B s.s.s.s.B B B B n n n n W W W W >X>X>X>XA A A A +X+X+X+XM M M M -.-.-.-.{ { { ] ] ] ] | | | | 1.1.6.6.2.2.2.2.5.5.5.5.3.3.3.3.3.3.4.4.1.1.1.1.6.6.6.6.} } } } [ [ [ [ ) ) ) ) ) ) ) ) _ _ _ _ ` ` ` ` [ [ [ [ *.*.*.*.a.a.a.a.i i i i *.=.=.=.=.=.*.=.s.s.s.a.p.p.p.m m m m ! ! ! ! ].].].].A A Z Z ;X;X;X;X*X*X*X*X+X+X+X+X*X*X*X*X3X3X3X3X*X$X$X*X-X-X-X-X4X4X4X4X7X7X7X7X8X8X8X8X5X5X5X5X2X2X2X2X4X4X4X4X4X4X4X4XwXwXwXwX2X2X2X2XwXwXwXwXwXwXwXwXwXwXwXwXwXwXwXwXwXwXwXwXwXwXwXwXwXwXwXwXwXwXwXwXwXwXwXwXwXwXwXwXwXwXwXwXwXwXwXwXwXwXwXwXwXwXwXwXwXwXwXwXwXwXwXwXwXwXwXwXwXwX",
"wXwXwXwXwXwXwXwXwXwXwXwXwXwXwXwXwXwXwXwXwXwXwXwXwXwXwXwXwXwX3X3X3X3X2X2X2X2X-X-X-X4X4X4X4X5X5X5X5X%X%X%X%X7X7X7X7X! ! ! ! ;X;X;X;XoXoXoXoXC C C C i.i.i.i.i.i.i.i.=.=.=.=.a.a.a.a.O.O.O.O.*.@.@.*.*.*.*.*.M M M M Z Z Z Z XXXXXXXXA A A A m m m m -.-.-.-.} } } | | | | 1.1.;.;.;.;.;.$.2.2.2.2.e.e.e.e.w.w.w.w.5.5.8.8.3.3.3.3.6.4.4.4.$.$.$.$.$.$.$.$.%.%.$.$.{ { { { ) ) ) ) ) ) ) ) O.O.@.@.' ' ' ' *.*.*.*.i i i =.O.O.O.O.O.O.O.O.=.=.=.O.O.O.O.M M M M C C C C V V V V %X%X%X%X! ! ! ! W E E E  X X X X7X7X7X7X}.}.}.}.$X$X$X$X-X-X-X-X#X#X#X#X$X$X$X$X5X5X5X5X2X2X2X2X4X4X4X4X;X;X7X7X4X4X4X4XwXwXwXwX3X3X3X3XwXwXwXwX4X4X4XwXwXwXwXwXwXwXwXwXwXwXwX3X3X3X3X5X5X5X5XwXwXwXwX4X4X4X4XwXwXwXwXwXwXwXwXwXwXwXwXwXwXwXwXwXwXwXwXwXwXwXwXwXwXwXwXwXwXwXwXwXwXwX",
"wXwXwXwXwXwXwXwXwXwXwXwXwXwXwXwXwXwXwXwXwXwXwXwXwXwXwXwXwXwX3X3X3X3X2X2X2X2X-X-X-X4X4X4X4X5X5X5X5X#X#X#X#X7X7X7X7X! ! ! ! ;X;X;X;XoXoXoXoXC C C C i.i.i.i.i.i.i.i.=.=.=.=.a.a.a.a.O.O.O.O.*.@.@.*.*.*.+.+.M M M B Z Z Z Z XXXXXXXXA A A A m m m m -.-.-.-.} } } ......| 1.1.1.;.;.;.;.;.3.3.3.3.e.e.e.e.w.w.w.w.5.5.5.5.2.2.2.3.6.6.6.6.......$.$.$.$.$.%.%.%.$.{ { { { ' ' ' ) ) ) ) ) O.O.O.O.' ' ' ' *.*.*.*.i i =.=.O.O.O.O.O.O.O.O.=.=.=.O.O.O.O.M M M M C C C C V V V V %X%X%X%X! ! ! ! R E E E  X X X X7X7X7X7X}.}.}.}.$X$X$X$X-X-X-X-X#X+X+X+X$X$X$X$X5X5X5X5X2X2X2X2X4X4X4X4X7X7X7X7X4X5X5X5XwXwXwXwX3X3X3X3XwXwXwXwX4X4X4XwXwXwXwXwXwXwXwXwXwXwXwX3X3X3X3X5X5X5X5XwXwXwXwX4X4X4X4XwXwXwXwXwXwXwXwXwXwXwXwXwXwXwXwXwXwXwXwXwXwXwXwXwXwXwXwXwXwXwXwXwXwXwX",
"wXwXwXwXwXwXwXwXwXwXwXwXwXwXwXwXwXwXwXwXwXwXwXwXwXwXwXwXwXwX3X3X3X3X2X2X2X2X-X-X-X4X4X4X4X5X5X5X5X#X#X#X#X7X7X7X7X! ! ! ! ;X;X;X;XoXoXoXoXC C C C i.i.i.i.i.i.i.i.=.=.=.=.a.a.a.a.O.O.O.O.*.@.@.*.*.*.&.&.M M M B Z Z Z Z XXXXXXXXA A A A m m m m -.-.-.-.} } } ......| 1.1.1.1.;.;.;.;.3.3.3.3.e.e.e.e.w.w.w.w.5.5.5.5.2.2.2.2.6.6.6.6.........$.$.$.$.%.%.%.$.{ { { { ) ' ) ) ) ) ) ) O.O.O.O.' ' ' ' *.*.*.*.i i =.=.O.O.O.O.O.O.O.O.=.=.=.O.O.O.O.M M M M C C C C V V V V %X%X%X%X! ! ! ! R E R E  X X X X7X7X7X7X}.}.}.}.$X$X$X$X-X-X-X-X#X+X+X#X$X$X$X$X5X5X5X5X2X2X2X2X4X4X4X4X7X7X7X7X4X5X4X5XwXwXwXwX3X3X3X3XwXwXwXwX4X4X4XwXwXwXwXwXwXwXwXwXwXwXwX3X3X3X3X5X5X5X5XwXwXwXwX4X4X4X4XwXwXwXwXwXwXwXwXwXwXwXwXwXwXwXwXwXwXwXwXwXwXwXwXwXwXwXwXwXwXwXwXwXwXwX",
"wXwXwXwXwXwXwXwXwXwXwXwXwXwXwXwXwXwXwXwXwXwXwXwXwXwXwXwXwXwX3X3X3X3X2X2X2X2X-X-X-X4X4X4X4X5X5X5X5X#X#X#X#X7X7X7X7X! ! ! ! ;X;X;X;XoXoXoXoXC C C C i.i.i.i.i.i.i.i.=.=.=.=.a.a.a.a.O.O.O.O.*.*.*.*.*.&.&.*.B M M B Z Z Z Z XXXXXXXXA A A A m m m m -.-.-.-.} } } ........1.;.1.1.;.;.;.;.3.3.3.3.e.e.e.e.w.w.w.w.5.5.5.5.2.2.2.2.4.4.6.6.........$.$.$.$.%.%.%.%.{ { { { ) ' ' ' ) ) ) ) O.O.O.O.' ' ' ' *.&.*.*.i i i i O.O.O.O.O.O.O.O.=.=.=.O.O.O.O.M M M M C C C C V V V V %X%X%X%X! ! ! ! E R R R  X X X X7X7X7X7X}.}.}.}.$X$X$X$X-X-X-X-X#X+X+X+X%X$X$X$X5X5X5X5X2X2X2X2X4X4X4X4X7X-X;X;X5X4X4X5XwXwXwXwX3X3X3X3XwXwXwXwX4X4X4XwXwXwXwXwXwXwXwXwXwXwXwX3X3X3X3X5X5X5X5XwXwXwXwX4X4X4X4XwXwXwXwXwXwXwXwXwXwXwXwXwXwXwXwXwXwXwXwXwXwXwXwXwXwXwXwXwXwXwXwXwXwXwX",
"wXwXwXwXwXwXwXwXwXwXwXwXwXwXwXwXwXwXwXwXwXwX3X3X3X3X1X1X1X1X>X>X>X>XwXwXwXwXwXwXwX*X*X*X*X8X8X8X8XXXXXXXXX-X-X-X-XoXoXoXoX|.|.|.|.A A A Z Q Q Q Q i.i.i.i.a.a.a.a.*.*.*.+.O.O._ O.*.*.*.*.*.*.*.*.+.+.+.+.&.&.&.*.i i i i m m m m i i i i m m m m @.@.@.@.1.1.1.2.2.2.2.3.3.3.3.1.1.1.1.4.4.4.4.x.x.x.x.y.y.y.y.u.u.u.u.w.w.w.w.8.5.5.8.6.6.6.6.7.7.7.7.1.1.1.1.................| | | | | | | | $.$.$.$.#.#.#.#.` [ [ [ ' ' ' ' ' ' ' ' O.O.O.*.*.*.*.*.*.*.+.M M M M W W W W ! ].].].W W W W Z Z Z Z ].[.[.].'.'.'.'.0X0X0X0X3X2X2X2X-X-X-X-X5X5X5X5X0X1X1X1X-X-X-X-X5X5X5X5X-X-X-X-X1X1X1X1X5X4X4X5X<X8X8X<X1X1X1X1X2X2X2X2XwXwXwXwXwXwXwX2X2X2X2XwXwXwXwX<X<X<X<XwXwXwXwXwXwXwXwX2X2X2X2X5X5X5X5XwXwXwXwXwXwXwXwXwXwXwXwXwXwXwXwXwXwXwXwXwXwXwXwXwXwXwXwXwXwXwX",
"wXwXwXwXwXwXwXwXwXwXwXwXwXwXwXwXwXwXwXwXwXwX3X3X3X3X1X1X1X1X>X>X>X>XwXwXwXwXwXwXwX*X*X*X*X8X8X8X8XXXXXXXXX-X-X-X-XoXoXoXoX|.|.|.|.W Z A A Q Q Q Q i.i.i.i.a.a.a.a.*.*.*.*.O._ _ O.*.*.*.*.*.*.*.*.+.+.+.+.*.*.*.*.i i i i m M M m i i i i m m m m @.@.@.@.1.1.1.2.2.2.2.2.2.2.4.1.1.1.1.4.4.4.4.x.x.D.D.y.y.y.y.x.x.x.u.w.w.w.w.8.8.5.8.6.6.6.6.7.7.7.7.1.1.1.1.................| | | | | | | | $.$.$.$.#.#.#.#.` ` ` [ ' ' ' ' ' ' ' ' O.O.O.*.*.*.*.*.+.+.*.M M M M W W W W ! ].].].W W W W Z Z Z Z ].[.[.[.'.'.'.'.0X0X0X0X2X2X2X2X-X-X-X-X5X5X5X5X0X1X1X1X-X-X-X-X5X5X5X5X-X-X-X-X1X1X1X1X4X5X5X5X<X<X<X<X1X1X1X1X2X2X2X2XwXwXwXwXwXwXwX2X2X2X2XwXwXwXwX<X<X<X<XwXwXwXwXwXwXwXwX2X2X2X2X5X5X5X5XwXwXwXwXwXwXwXwXwXwXwXwXwXwXwXwXwXwXwXwXwXwXwXwXwXwXwXwXwXwXwX",
"wXwXwXwXwXwXwXwXwXwXwXwXwXwXwXwXwXwXwXwXwXwX3X3X3X3X1X1X1X1X>X>X>X>XwXwXwXwXwXwXwX*X*X*X*X8X8X8X8XXXXXXXXX-X-X-X-XoXoXoXoX|.|.|.|.W A A A Q Q Q Q i.i.i.i.a.a.a.a.+.*.*.*.O._ _ O.*.*.*.*.*.*.*.*.+.+.+.+.*.*.*.*.n i i i m M M m i i i i m m m m @.@.@.@.1.1.1.2.2.2.2.2.2.2.4.1.1.1.1.4.4.4.4.x.x.x.D.y.y.y.y.x.D.x.x.w.w.w.w.8.8.5.5.6.6.6.6.7.7.7.7.1.1.1.1.................| | | | | | | | $.$.$.$.#.#.#.#.` ` ` [ ' ' ' ' ' ' ' ' O.O.O.*.*.*.*.*.*.*.&.M M M M W W W W ! ].].].W W W W Z Z Z Z ].[.[.[.'.'.'.'.0X0X0X0X3X2X2X2X-X-X-X-X5X5X5X5X0X1X1X1X-X-X-X-X5X5X5X5X-X-X-X-X1X1X1X1X4X5X5X5X<X<X<X<X1X1X1X1X2X2X2X2XwXwXwXwXwXwXwX2X2X2X2XwXwXwXwX<X<X<X<XwXwXwXwXwXwXwXwX2X2X2X2X5X5X5X5XwXwXwXwXwXwXwXwXwXwXwXwXwXwXwXwXwXwXwXwXwXwXwXwXwXwXwXwXwXwXwX",
"wXwXwXwXwXwXwXwXwXwXwXwXwXwXwXwXwXwXwXwXwXwX3X3X3X3X1X1X1X1X>X>X>X>XwXwXwXwXwXwXwX*X*X*X*X8X8X8X8XXXXXXXXX-X-X-X-X@XoXoXoX|.|.|.|.W W A A Q Q Q Q i.i.i.i.a.a.a.a.*.*.*.*._ _ _ O.*.*.*.*.*.*.*.*.+.+.+.+.&.*.*.*.n n i i m M M m i i i i m m m m @.@.@.@.1.1.1.2.2.2.2.2.2.4.4.1.1.1.1.4.4.4.4.x.x.D.D.y.y.y.y.D.D.D.D.w.w.w.w.8.8.8.5.6.6.6.6.7.7.7.7.1.1.1.1.................| | | | | | | | $.$.$.$.#.#.#.#.` [ [ [ ' ' ' ' ' ' ' ' O.O.O.*.*.*.*.*.*.*.*.B B M M W W W W ! ].].].W W W W Z Z Z Z [.[.[.[.'.].'.'.0X0X0X0X3X2X2X2X-X-X-X-X5X5X5X5X1X1X1X1X-X-X-X-X5X5X5X5X-X-X-X-X1X1X1X1X4X5X5X4X<X<X<X<X1X1X1X1X2X2X2X2XwXwXwXwXwXwXwX2X2X2X2XwXwXwXwX<X<X<X<XwXwXwXwXwXwXwXwX2X2X2X2X5X5X5X5XwXwXwXwXwXwXwXwXwXwXwXwXwXwXwXwXwXwXwXwXwXwXwXwXwXwXwXwXwXwXwX",
"wXwXwXwXwXwXwXwXwXwXwXwXwXwXwXwXwXwX5X5X5X5XwXwXwXwXwXwXwXwXwXwXwXwX<X<X<X<XwXwXwX$X$X$X$X4X4X4X4X0X0X1X1X|.|.|.|.8X8X8X8X%X%X%X%XW W W W T T T T +.+.+.+.+.+.+.+.@.@.@.#.) ) ) ) ) ) ) ) ] ] ] ] ] ] ] ] ' ' ' ) _ _ _ _ i i i i =.=.=.-.[ [ [ [ { { { { 3.3.3.5.5.5.5.8.8.8.8.4.4.4.4.k.k.k.k.D.D.D.D.F.F.F.F.D.D.D.D.u.u.x.x.y.y.e.e.w.w.w.w.w.w.w.w.4.4.4.4.4.4.4.4.2.2.2.2.;.;.;.;.7.7.7.4.2.2.2.2.......| { { { { *.%.%.%.) ) ) ) ) ) ) ) ) ) ) *.*.*.*.B B B B W Q Q Q W W W W B B B B  X X X X[.[.[.[.'.'.'.'. X X X X0X0X0X0X8X8X8X8X0X2X2X2X$X$X$X$X*X*X*X*X$X$X$X$X4X4X4X4X5X5X5X5X*X$X*X*X-X-X-X-X>X>X>X>X1X1X1X1X1X1X1X1X1X1X1X<X<X<X<X1X1X1X1XwXwXwXwXwXwXwXwX<X<X<X<X1X1X1X1XwXwXwXwX5X5X5X5XwXwXwXwXwXwXwXwXwXwXwXwXwXwXwXwXwXwXwXwXwXwXwXwXwXwXwX",
"wXwXwXwXwXwXwXwXwXwXwXwXwXwXwXwXwXwX5X5X5X5XwXwXwXwXwXwXwXwXwXwXwXwX<X<X<X<XwXwXwX$X$X$X$X5X5X5X5X1X1X1X1X|.|.|.|.8X8X8X8X%X%X%X%XW W W W T T T T +.+.+.+.+.+.+.*.#.@.@.@.) ) ) ) ) ) ) ) ] ] ] ] ] ] ] ] ' ' ' ) ) ) ) ) i i i i -.-.-.-._ _ _ _ { { { { 3.3.3.5.5.5.5.8.8.8.8.4.4.4.4.k.k.l.k.D.D.D.D.F.F.F.F.D.D.D.D.u.u.x.x.e.e.e.e.w.w.w.w.w.w.w.w.4.4.4.4.4.4.4.4.2.2.2.2.;.;.;.;.4.4.4.4.2.2.2.2.........{ { { { %.%.%.%.) ) ) ) ' ) ) ) ) ` ) *.*.*.*.B B B B Q Q Q T W W W W B B B B  X X XOX[.[.[.[.E '.'.'. X X X X0X0X0X0X8X7X7X7X2X2X2X0X$X$X$X$X*X*X*X*X$X$X$X$X4X4X4X4X5X5X5X5X*X*X*X*X-X-X-X-X>X>X>X>X1X1X1X1X1X1X1X1X1X1X1X<X<X<X<X1X1X1X1XwXwXwXwXwXwXwXwX<X<X<X<X1X1X1X1XwXwXwXwX5X5X5X5XwXwXwXwXwXwXwXwXwXwXwXwXwXwXwXwXwXwXwXwXwXwXwXwXwXwXwX",
"wXwXwXwXwXwXwXwXwXwXwXwXwXwXwXwXwXwX5X5X5X5XwXwXwXwXwXwXwXwXwXwXwXwX<X<X<X<XwXwXwX$X$X$X$X5X5X5X5X1X1X1X1X|.|.|.|.8X8X8X8X%X%X%X%XW W W W T T T T +.+.+.+.+.*.+.*.@.@.@.@.) ) ) ) ) ) ) ) ] ] ] ] ] ] ] ] ' ' ' ) ) ) ) ) i i i i -.-.-.-._ _ _ _ { { { { 3.3.3.5.5.5.5.8.8.8.8.4.4.4.4.k.k.l.k.D.D.x.x.F.F.F.F.D.D.D.D.u.u.u.u.e.e.e.e.w.w.w.w.w.w.w.w.4.4.4.4.4.4.4.4.2.2.2.2.;.;.;.;.4.4.4.4.2.2.2.2.........{ { { { *.%.%.%.) ) ) ) ) ) ) ` ` ` ) *.*.*.&.B B B B Q Q Q T W W W W B B B B  X X XOX[.[.[.[.E '.'.'. X X X X0X0X0X0X8X7X7X7X2X2X2X0X$X$X$X$X*X*X*X*X%X$X$X$X4X4X4X4X5X5X5X5X*X*X*X$X-X-X-X-X>X>X>X>X1X1X1X1X1X1X1X1X1X1X1X<X<X<X<X1X1X1X1XwXwXwXwXwXwXwXwX<X<X<X<X1X1X1X1XwXwXwXwX5X5X5X5XwXwXwXwXwXwXwXwXwXwXwXwXwXwXwXwXwXwXwXwXwXwXwXwXwXwXwX",
"wXwXwXwXwXwXwXwXwXwXwXwXwXwXwXwXwXwX5X5X5X5XwXwXwXwXwXwXwXwXwXwXwXwX<X<X<X<XwXwXwX$X$X$X$X5X4X4X4X1X1X1X1X|.|.|.|.8X8X8X8X%X%X%X%XW W W W T T T T +.+.+.+.+.+.+.*.@.@.@.@.) ) ) ) ) ) ) ) ] ] ] ] ] ] ] ] ) ' ' ) ) ) ) ) i i i i -.-.-.-._ [ [ [ { { { { 3.3.3.5.5.5.5.8.8.8.8.4.4.4.4.k.k.k.k.D.D.D.x.F.F.F.F.D.D.D.D.u.u.u.u.e.e.e.e.w.w.w.w.w.w.w.w.4.4.4.4.4.4.4.4.2.2.2.2.;.;.;.;.4.4.4.4.2.2.2.2.........{ { { { %.%.%.%.) ) ) ) ) ) ) ` ` ) ) *.&.&.&.B B B B Q Q Q Q W W W W B B B B OX X X X[.[.[.[.'.'.'.'. X X X X0X0X0X0X8X8X7X7X2X2X2X2X=X=X=X$X*X*X*X*X$X$X#X#X4X5X5X4X5X5X5X5X*X$X$X$X-X-X-X-X>X>X>X>X1X2X1X1X1X1X1X1X1X1X1X<X<X<X<X1X1X1X1XwXwXwXwXwXwXwXwX<X<X<X<X1X1X1X1XwXwXwXwX5X5X5X5XwXwXwXwXwXwXwXwXwXwXwXwXwXwXwXwXwXwXwXwXwXwXwXwXwXwXwX",
"wXwXwXwXwXwXwXwXwXwXwXwXwXwXwXwXwXwX3X3X3X3XwXwXwXwXwXwXwXwXwXwXwXwX0X0X0X0X3X3X3X-X-X-X;X-X-X-X-X*X*X*X*X*X*X*X*X*X*X*X*X7X7X7X7X].].].].V V V V i.i.i.i.O.O.O.O.' ' ' ' ) ' ' ' { { { { ] ] ] ] ] ] ] ] ] ] ] ] { { { [ #.#.#.#.@.@.@.#.........%.%.%.%.w.w.w.x.u.u.x.x.x.x.x.e.e.e.e.u.u.u.u.K.K.K.K.F.F.F.F.F.F.F.F.F.F.J.J.H.H.H.H.e.e.u.u.D.D.x.x.u.u.x.x.x.x.x.x.w.w.w.w.5.5.5.5.w.w.w.w.3.3.3.3.6.6.6.6.1.1.1.1.#.#.#.#.{ { { { #.#.#.{ { { { ` ` ` ` =.=.=.=.-.-.-.-.p.p.p.p.n n n n C C C C ].].].].A A A A #X#X#X#X#X#X#X#X[.[.[.[.+X+X+X@X*X=X*X=X7X7X7X7X+X+X+X+X7X7X7X7X4X4X4X4X$X$X$X$X>X<X<X>X4X4X4X4XwXwXwXwX>X>X>X4X4X4X4X4X4X4X4X7X7X7X7X1X1X1X1X4X4X4X4X<X<X<X<X3X3X3X3X2X2X2X2XwXwX4X4XwXwXwXwXwXwXwXwXwXwXwXwXwXwXwXwXwXwXwXwXwXwXwXwXwXwXwX",
"wXwXwXwXwXwXwXwXwXwXwXwXwXwXwXwXwXwX3X3X3X3XwXwXwXwXwXwXwXwXwXwXwXwX0X0X9X0X3X3X3X-X-X-X-X-X-X-X-X*X*X*X*X*X*X*X*X*X*X*X*X;X7X7X;X'.'.'.].V V V V i.i.i.n _ _ _ O.' ' ' ' ' ' ' ' { { { { ] ] ] ] } ] ] ] ] ] ] } { { { { #.#.#.#.@.#.#.#.........$.$.$.%.w.w.w.x.x.x.x.x.x.D.x.e.e.e.e.e.e.u.u.K.K.K.K.F.F.F.F.F.F.F.F.J.J.J.J.H.H.H.H.e.e.e.e.D.x.x.x.u.u.u.x.x.x.x.x.w.w.w.w.5.5.5.5.w.w.w.w.3.3.3.3.6.6.6.6.1.1.1.1.#.#.#.#.| | { { #.#.#.{ { { { ` ` ` ` =.=.=.=.-.-.=.-.p.p.p.p.n n n n C C C C ].].].].A A A A #X+X+X+X#X#X#X#X[.[.[.[.+X+X+X+X=X=X=X=X7X7X7X7X+X+X+X+X7X7X7X7X4X4X4X4X$X$X$X$X<X<X<X>X4X4X4X4XwXwXwXwX>X>X>X4X4X4X4X4X4X4X4X7X7X7X7X1X1X1X1X4X4X4X4X<X<X<X<X3X3X3X3X2X2X2X2XwXwXwXwXwXwXwXwXwXwXwXwXwXwXwXwXwXwXwXwXwXwXwXwXwXwXwXwXwXwXwX",
"wXwXwXwXwXwXwXwXwXwXwXwXwXwXwXwXwXwX3X3X3X3XwXwXwXwXwXwXwXwXwXwXwXwX0X0X9X0X3X3X3X-X-X-X-X-X-X-X-X*X*X*X*X*X*X*X-X-X*X*X*X;X;X7X;X'.].'.].V V V V i.i.i.n _ _ _ O.' ' ' ' ' ' ' ' { { { { ] ] ] ] } } ] ] ] ] ] } { { { { #.#.#.#.@.#.#.#.........$.$.$.%.w.w.w.x.x.x.u.u.x.D.D.e.e.e.e.e.e.u.u.K.K.K.K.F.F.F.F.F.F.F.F.J.J.J.J.H.H.H.H.e.k.e.e.D.x.x.x.u.u.u.u.x.x.x.x.w.w.w.w.5.5.5.5.w.w.w.w.3.3.3.3.6.6.6.6.1.1.1.1.#.#.#.#.{ | { { #.#.#.} { { { ` ` ` ` =.=.=.=.-.-.-.-.p.p.p.p.n n n n C C C C ].].].].A A A A #X#X+X+X#X#X#X#X[.[.[.[.@X+X+X+X=X=X=X=X7X7X7X7X+X+X+X+X7X7X7X7X4X4X4X4X$X$X$X$X<X<X<X<X4X4X4X4XwXwXwXwX>X>X>X4X4X4X4X4X4X4X4X7X7X7X7X1X1X1X1X4X4X4X4X<X<X<X<X3X3X3X3X2X2X2X2XwXwXwXwXwXwXwXwXwXwXwXwXwXwXwXwXwXwXwXwXwXwXwXwXwXwXwXwXwXwXwX",
"wXwXwXwXwXwXwXwXwXwXwXwXwXwXwXwXwXwX3X3X3X3XwXwXwXwXwXwXwXwXwXwXwXwX0X0X9X9X3X3X3X-X-X-X-X-X-X-X-X*X*X*X*X*X*X-X*X-X*X*X*X;X7X7X7X].].].].V V V V i.i.i.n _ O._ O.' ' ' ' ' ' ' ' { { { { ] ] ] ] ] ] ] ] ] ] ] } { { { { #.#.#.#.#.#.#.#.........%.$.$.$.w.w.w.u.u.u.u.u.u.D.D.e.e.e.e.u.u.u.u.K.K.K.K.F.F.F.F.F.F.F.F.J.J.J.J.H.H.H.H.k.k.k.k.x.x.x.x.u.u.u.u.x.x.x.x.w.w.w.w.8.5.5.5.w.w.w.w.3.3.3.3.4.6.6.4.1.1.6.1.#.#.#.#.{ { { { #.#.#.} { { { ` ` ` ` =.=.=.=.-.-.-.-.p.p.p.p.n n n n C C C C ].].].].Z A A A #X#X#X+X#X#X#X#X[.[.[.[.@X+X+X+X=X=X=X=X>X7X7X7X+X+X+X+X7X7X7X7X4X4X4X4X$X$X*X$X<X<X>X<X4X4X4X4XwXwXwXwX>X>X>X4X4X4X4X4X4X4X4X7X7X7X7X1X1X1X1X4X4X4X4X<X<X<X<X3X3X3X3X2X2X2X2XwXwXwXwXwXwXwXwXwXwXwXwXwXwXwXwXwXwXwXwXwXwXwXwXwXwXwXwXwXwXwX",
"wXwXwXwXwXwXwXwXwXwXwXwXwXwXwXwXwXwX2X2X2X2XwXwXwXwXwXwXwXwX1X1X1X1X&X&X&X&X7X7X7X*X*X*X*X$X$X$X$X-X-X-X-X5X5X5X5X[.[.[.[.R E E E R R R R B B B B i i i i O.O.O._ @.@.@.#.{ { { { ] ] ] ] | | | | X.X.X.X.X.X.X.X.$.$.$.$.;.;.;.;.$.$.$.$.1.1.1.1.6.6.6.6.D.D.D.D.D.D.D.u.D.D.D.G.G.G.G.F.F.F.F.K.K.K.K.P.P.P.P.P.P.P.P.K.K.L.L.Y.Y.Y.Y.J.J.J.J.J.H.H.H.D.D.D.D.D.D.D.D.D.D.D.D.e.e.e.e.w.w.w.w.e.e.e.e.w.w.w.w.1.1.1.1.6.6.1.1.| | | | } } } #.#.#.#.) ) ) ) +.+.+.+.=.=.=.=.O.O.O.O.=.=.=.=.B B B B B B B B ].].].].! ! ! E  X X X X[.[.[.[.+X+X+X+X2X2X1X1X1X1X1X1X>X>X>X>X>X>X>X>X<X<X<X<X+X+X+X+XwXwXwXwX4X4X4X4X*X*X*X*X-X-X-X<X<X<X<X-X-X-X-X$X$X$X$X*X*X*X*X X X X X2X2X2X2XwXwXwXwX5X5X5X5XwXwXwXwXwXwXwXwXwXwXwXwXwXwXwXwXwXwXwXwXwXwXwXwXwXwXwXwXwXwXwX",
"wXwXwXwXwXwXwXwXwXwXwXwXwXwXwXwXwXwX2X2X2X2XwXwXwXwXwXwXwXwX1X1X1X1X&X&X&X&X7X7X7X*X*X*X*X$X$X$X$X-X-X-X-X5X5X5X5X[.[.[.[.E E E E W R R R B B B B =.=.=.i O.O.O._ @.@.@.@.' { { { ] ] ] ] | X.| X.X.X.X.X.X.X.X.X.$.$.$.$.;.;.;.;.$.$.$.$.1.1.1.1.6.6.6.6.D.D.D.D.D.D.D.u.u.x.x.G.G.G.G.F.F.F.F.K.K.K.K.P.P.P.P.P.P.P.P.K.K.K.L.Y.Y.L.L.J.J.J.J.J.J.J.J.D.D.D.D.D.D.D.D.D.D.D.D.u.u.u.e.w.w.w.w.e.e.e.e.w.w.w.w.1.1.1.1.1.1.1.1.| | | | { { { #.#.#.| ' ' ' ' +.+.+.+.*.*.*.=.O.O.O.O.=.=.=.=.B B B B B B B B ].].].].! ! ! !  X X X X[.[.[.|.+X+X+X+X0X0X0X0X1X1X1X1X>X>X7X>X>X>X>X>X<X<X<X<X+X+X+X+XwXwXwXwX4X4X4X4X*X*X*X*X-X-X-X<X<X<X<X-X-X-X-X$X$X$X*X*X*X*X*X X X X X2X2X2X2XwXwXwXwX5X5X5X5XwXwXwXwXwXwXwXwXwXwXwXwXwXwXwXwXwXwXwXwXwXwXwXwXwXwXwXwXwXwXwX",
"wXwXwXwXwXwXwXwXwXwXwXwXwXwXwXwXwXwX2X2X2X2XwXwXwXwXwXwXwXwX1X1X1X1X&X&X&X&X7X7X7X*X*X*X*X$X$X$X$X-X-X-X-X5X5X5X5X[.[.[.[.E E E E W R R R B B B B =.=.=.i O.O.O.O.@.@.@.#.{ { { { ] ] ] ] | X.X.X.X.X.X.X.X.X.X.X.$.$.$.$.;.;.;.;.$.$.$.$.1.1.1.1.6.6.6.6.D.D.D.D.D.D.D.u.u.x.x.G.G.G.G.F.F.F.F.K.K.K.K.P.P.P.P.P.P.P.P.K.K.K.L.Y.Y.L.L.J.J.J.J.J.J.J.J.D.D.D.D.D.D.D.D.D.D.D.D.u.u.u.u.w.w.w.w.e.e.e.e.w.w.w.w.1.1.1.1.1.1.1.1.| | | | { { { #.#.#.| ' ' ' ' +.+.+.+.*.*.*.=.O.O.O.O.=.=.=.=.B B B B B B B B ].].].].E ! ! !  X X X X[.[.|.|.+X+X+X+X0X0X0X0X1X1X1X1X>X7X7X>X>X>X>X>X<X<X<X<X@X+X+X+XwXwXwXwX4X4X4X4X*X*X*X*X-X-X-X<X<X<X<X-X-X-X-X$X$X$X*X*X*X*X*X X X X X2X2X2X2XwXwXwXwX5X5X5X5XwXwXwXwXwXwXwXwXwXwXwXwXwXwXwXwXwXwXwXwXwXwXwXwXwXwXwXwXwXwXwX",
"wXwXwXwXwXwXwXwXwXwXwXwXwXwXwXwXwXwX2X2X2X2XwXwXwXwXwXwXwXwX1X1X1X1X&X&X&X&X7X7X7X*X*X*X*X$X$X$X$X-X-X-X-X5X5X5X5X[.[.[.[.E E E E R R R R B B B B =.i i i O.O.O.O.@.@.#.#.{ { ' { ] ] ] ] | | X.| o.X.X.X.X.X.X.X.$.$.$.$.;.;.;.;.$.$.$.$.1.1.1.1.6.6.6.6.x.D.D.D.D.D.D.u.u.u.x.G.G.G.G.F.F.F.F.K.K.K.K.P.P.P.P.P.P.P.P.K.K.L.L.Y.L.L.L.J.J.J.J.H.J.H.H.D.D.D.D.D.D.D.D.D.D.D.D.u.u.u.u.w.w.w.w.e.e.e.e.w.w.w.w.1.1.1.1.6.1.6.6.| | | | { { { #.#.#.#.' ) ) ' +.+.+.+.*.*.*.*.O.O.O.O.=.=.=.=.B B B B B B B B ].].].].! ! ! !  X X X X[.[.[.[.+X+X+X+X0X0X0X0X1X1X1X1X>X7X7X>X>X>X>X>X<X<X<X9X@X+X+X+XwXwXwXwX4X4X4X4X*X*X*X*X-X-X-X<X<X<X<X-X-X-X;X=X$X$X$X*X*X*X*X X X X X2X2X2X2XwXwXwXwX5X5X5X5XwXwXwXwXwXwXwXwXwXwXwXwXwXwXwXwXwXwXwXwXwXwXwXwXwXwXwXwXwXwXwX",
"wXwXwXwXwXwXwXwXwXwXwXwXwXwXwXwXwXwX2X2X2X2X>X<X<X<XwXwXwXwX1X1X1X1X&X&X&X&XoXoXoX8X<X<X<X2X2X2X2XwXwXwXwX<X<X<X<XXXXXXXXX%X%X%X%XoXoXoXoXa.a.a.a.M M M M n n n n O.@.@.@.' ' ' ' ] ] ] ] | | | | o.o.o.o.2.2.2.2.3.3.3.3.3.3.3.3.4.4.4.4.5.5.5.5.w.w.w.w.u.u.u.F.F.F.F.K.K.K.K.F.F.F.F.K.K.K.K.K.K.K.K.P.P.P.P.P.P.P.P.Q.Q.Q.Q.W.W.W.W.Y.Y.Y.Y.Y.Y.Y.Y.K.K.K.K.K.K.K.K.F.F.F.F.D.D.D.D.u.u.u.u.w.w.w.w.u.u.u.u.e.e.e.e.1.1.1.1.$.$.;.;.$.$.$.$.$.$.$.} { { { _ _ _ _ _ _ _ _ p.p.p.=.*.*.*.*.B B B B M M M M B B B B B B B B [.[.[.[.=X=X=X;X;X;X;X;X7X7X7X7X2X2X2X2XXXXXXXXX}.}.}.}.=X=X=X=X X X X X;X;X;X;X4X4X4X4X*X*X*X*X-X*X*X2X2X2X2XwXwXwXwX$X$X%X%X=X=X=X=X=X=X=X=X-X-X-X-X2X2X2X2XwXwXwXwX5X5X5X5XwXwXwXwXwXwXwXwXwXwXwXwXwXwXwXwXwXwXwXwXwXwXwXwXwXwXwX",
"wXwXwXwXwXwXwXwXwXwXwXwXwXwXwXwXwXwX2X2X2X2X>X<X<X<XwXwXwXwX1X1X<X<X&X&X&X&XoXoXoX8X8X8X8X2X2X2X2XwXwXwXwX<X<X<X<XXXXXXXXX%X%X%X%XoXoXoXoXa.a.a.a.M M M a.n n n n O.@.@.O.) ) ) ' ] ] ] ] | | | | o.o.o.o.2.2.2.2.3.3.3.3.3.3.3.3.4.4.4.4.5.5.5.5.w.w.w.w.u.u.u.F.F.F.F.K.K.K.K.F.F.F.F.K.K.K.K.K.K.K.K.P.P.P.P.P.P.P.P.Q.Q.Q.Q.W.W.W.W.Y.Y.Y.Y.L.Y.Y.Y.K.K.K.K.K.K.K.K.F.F.F.F.D.D.D.D.u.u.u.u.w.w.e.y.u.u.u.u.e.e.e.e.1.1.1.1.$.$.$.$.$.$.$.$.$.$.$.{ { { { _ _ _ _ _ _ _ _ p.i.=.=.*.=.=.=.B B B s.M M M M B B B M B B B B [.[.[.[.-X*X*X*X;X;X;X;X7X7X7X7X2X2X2X2XXXXXXXXX}.}.}.}.=X=X=X=X X X X X;X;X;X;X4X4X4X4X*X*X*X*X-X-X-X2X2X2X2XwXwXwXwX$X$X%X%X=X=X=X=X=X=X=X=X-X-X-X-X2X2X2X2XwXwXwXwX5X5X5X5XwXwXwXwXwXwXwXwXwXwXwXwXwXwXwXwXwXwXwXwXwXwXwXwXwXwXwX",
"wXwXwXwXwXwXwXwXwXwXwXwXwXwXwXwXwXwX2X2X2X2X>X<X<X<XwXwXwXwX1X1X<X<X&X&X&X&XoXoXoX8X8X8X8X2X2X2X2XwXwXwXwX<X<X<X<XXXXXXXXX%X%X%X%XoXoXoXoXa.a.a.a.M M M a.n n n n O.@.@.O.) ) ) ' ] ] ] ] | | | | o.o.o.o.2.2.2.2.3.3.3.3.3.3.3.3.4.4.4.4.5.5.5.5.w.w.w.w.u.u.u.F.F.F.F.K.K.K.K.F.F.F.F.K.K.K.K.K.K.K.K.P.P.P.P.P.P.P.P.Q.Q.Q.Q.W.W.W.W.Y.Y.Y.Y.L.L.Y.Y.K.K.K.K.K.K.K.K.F.F.F.F.D.D.D.D.u.u.u.u.w.w.e.e.u.u.u.u.e.e.e.e.1.1.1.1.$.$.$.$.$.$.$.$.$.$.$.{ { { { _ _ _ _ _ _ _ _ p.i.=.=.*.=.=.=.B B B s.M M M M B B B B B B B B [.[.[.[.-X*X*X*X;X;X;X;X7X7X7X7X2X2X2X2XXXXXXXXX}.}.}.}.=X=X=X=X X X X X;X;X;X;X4X4X4X4X*X*X*X*X-X-X-X2X2X2X2XwXwXwXwX$X$X%X%X=X=X=X=X=X=X=X=X-X-X-X-X2X2X2X2XwXwXwXwX5X5X5X5XwXwXwXwXwXwXwXwXwXwXwXwXwXwXwXwXwXwXwXwXwXwXwXwXwXwXwX",
"wXwXwXwXwXwXwXwXwXwXwXwXwXwXwXwXwXwX2X2X2X2X<X<X<X<XwXwXwXwX1X1X<X<X&X&X&X&XoXoXoX8X8X8X8X2X2X2X2XwXwXwXwX<X<X<X<XXXXXXXXX%X%X%X%XoXoXoXoXa.a.a.a.M a.a.a.n n n n @.@.@.O.) ) ) ' ] ] ] ] | | | | o.o.o.o.2.2.2.2.3.3.3.3.3.3.3.5.5.4.4.4.5.5.5.5.w.w.w.w.u.u.u.F.F.F.F.K.K.K.K.F.F.F.F.K.K.K.K.K.K.K.K.P.P.P.P.P.P.P.P.Q.Q.Q.Q.W.W.W.W.Y.Y.Y.Y.L.L.L.L.K.K.K.K.K.K.K.K.F.F.F.F.D.D.D.D.u.u.u.u.w.e.e.e.u.u.u.u.e.e.e.e.1.1.1.1.$.$.$.$.$.$.$.$.$.$.$.{ { { { _ _ _ _ _ _ _ _ p.p.p.=.*.=.=.*.B B B s.M M M M B B B B B B B B [.[.[.[.-X*X*X*X;X;X;X;X7X7X7X7X3X2X2X2XXXXXXXXX}.}.}.}.=X=X=X=X X X X X;X;X;X;X4X4X4X4X*X*X*X*X-X-X-X2X2X2X2XwXwXwXwX$X%X%X%X=X=X=X=X=X=X=X=X-X-X-X-X2X2X2X2XwXwXwXwX5X5X5X5XwXwXwXwXwXwXwXwXwXwXwXwXwXwXwXwXwXwXwXwXwXwXwXwXwXwXwX",
"wXwXwXwXwXwXwXwXwXwXwXwXwXwXwXwXwXwX2X2X2X2XwXwXwXwX;X;X;X;X7X7X7X7X*X*X*X*X7X7X7X1X1X1X1X4X4X4X4X$X$X$X$X#X#X#X#X+X+X+X+X[.[.[.|.{.{.{.{.-.-.-.-.s.s.s.s.V V V V +.+.+.+.) ) ) ) | | | | } } } | 3.3.3.3.3.3.3.3.5.5.5.5.w.w.w.e.x.x.x.x.u.u.u.u.D.D.D.D.F.F.F.K.K.K.K.K.K.K.K.K.K.K.K.~.~.~.~.K.K.K.K.P.P.P.P.^.^.^.^.(.(.(.(.Q.Q.Q.Q.(.(.(.(.Q.Q.Q.Q.K.K.K.K.L.L.L.L.K.K.K.K.K.K.K.K.F.F.F.F.D.D.D.D.u.u.u.u.u.u.u.u.4.4.4.8.1.1.1.1.7.6.6.o.o.o.o.....| ..#.#.#.#.) ) ) ) ` ` ` ` +.+.+.+.*.*.*.*.+.+.+.+.M M M M {.{.{.{.'.].'.'.|.|.|.|.'.'.'.'.$X$X$X$X*X*X*X*X+X+X+X+X}.}.}.}.! ! ! ! C C C C =X*X*X*X$X$X$X$X*X*X*X*X4X4X4X7X7X7X7X<X<X<X<XwXwXwXwX4X4X4X4X4X4X4X4X<X<X<X<X<X<X<X<XwXwXwXwX3X3X3X3XwXwXwXwXwXwXwXwXwXwXwXwXwXwXwXwXwXwXwXwXwXwXwXwXwXwXwX",
"wXwXwXwXwXwXwXwXwXwXwXwXwXwXwXwXwXwX2X2X3X3XwXwXwXwX;X;X;X;X7X7X7X7X*X*X-X-X7X7X7X2X2X2X1X4X4X4X4X$X$X$X$X#X#X#X#X+X+X+X+X|.|.|.|.{.{.{.{.-.p.p.-.s.s.s.V V V V V +.+.+.+.) ) ) ) | | | | } } } } 3.2.2.3.3.3.3.3.5.5.5.5.w.w.w.e.x.x.x.x.u.u.u.u.D.D.D.D.F.F.F.K.K.K.K.K.K.K.K.K.K.K.K.~.~.~.~.K.K.K.P.P.P.P.P.^.^.^.^.(.(.(.(.Q.Q.Q.Q.(.(.(.(.Q.Q.Q.Q.K.K.K.K.L.L.L.P.K.K.K.K.K.K.K.K.F.F.F.F.D.D.D.D.u.u.u.u.e.e.e.e.8.8.8.8.1.1.1.1.6.6.6.;.;.;.o.| | | | #.%.%.%.) ) ) _ ` ` ` ` +.+.+.+.*.*.*.*.+.+.+.+.M M M M ! {.{.{.].].].'.|.|.|.|.E '.'.'.$X$X$X$X*X*X*X*X+X+X+X+X}.}.}.}.! ! ! ! C C C T =X=X=X=X=X$X$X$X*X*X*X*X4X4X4X7X7X7X7X<X<X<X<XwXwXwXwX4X4X4X4X4X4X4X4X<X<X<X<X1X<X1X<XwXwXwXwX3X3X3X3XwXwXwXwXwXwXwXwXwXwXwXwXwXwXwXwXwXwXwXwXwXwXwXwXwXwXwX",
"wXwXwXwXwXwXwXwXwXwXwXwXwXwXwXwXwXwX2X2X2X3XwXwXwXwX;X;X;X;X>X>X7X;X*X*X*X*X7X7X7X2X2X2X1X4X4X4X4X$X$X$X$X#X#X#X#X+X+X+X+X|.|.|.|.{.{.{.{.p.p.p.p.s.s.s.V V V V V +.+.+.+.) ) ) ) | | | | } } } } 2.2.2.3.3.3.3.3.5.5.5.5.w.w.w.w.x.x.x.x.u.u.u.u.D.D.D.D.F.F.F.P.P.K.K.K.K.K.K.K.K.K.K.~.~.~.~.K.K.K.P.P.P.P.P.^.^.^.^.(.(.(.(.Q.Q.Q.Q.(.(.(.(.Q.Q.Q.Q.K.K.K.K.L.L.L.L.K.K.K.K.K.K.K.K.F.F.F.F.D.D.D.D.u.u.u.u.e.e.e.e.8.8.8.8.1.1.1.1.6.6.6.;.;.;.;...| | | %.%.%.%._ ) ) _ ` ` ` ` +.+.+.+.*.*.*.*.+.+.+.+.M M M M ! {.{.{.].].].].|.|.|.|.E '.'.'.$X$X$X$X*X*X*X*X+X+X+X+X}.}.}.}.! ! ! ! C C C T =X=X=X=X=X$X$X$X*X*X*X*X4X4X4X7X7X7X7X<X<X<X<XwXwXwXwX4X4X4X4X4X4X4X4X<X<X<X<X<X<X<X<XwXwXwXwX3X3X3X3XwXwXwXwXwXwXwXwXwXwXwXwXwXwXwXwXwXwXwXwXwXwXwXwXwXwXwX",
"wXwXwXwXwXwXwXwXwXwXwXwXwXwXwXwXwXwX2X2X2X2XwXwXwXwX;X;X;X;X>X>X;X;X*X*X*X*X7X7X7X1X2X2X1X4X4X4X4X$X$X$X$X#X#X#X#X+X+X+X+X[.|.|.[.{.{.{.{.p.p.p.p.s.s.s.s.V V V V +.+.+.+.) ) ) ) | | | | } } } } 3.2.2.3.3.3.3.3.5.5.5.5.w.w.w.w.x.x.x.x.u.u.u.u.D.D.D.D.F.F.F.P.P.K.K.K.K.K.K.K.K.K.K.~.~.~.~.K.K.P.P.P.P.P.P.^.^.^.^.(.(.(.(.Q.Q.Q.Q.(.(.(.(.Q.Q.Q.Q.K.K.K.K.L.L.L.L.K.K.K.K.K.K.K.K.F.F.F.F.D.D.D.D.u.u.u.u.u.u.e.e.8.8.8.8.1.1.1.1.6.6.6.;.;.;.;.......| %.%.%.%._ ) ) ) ` ` ` ` +.+.+.+.*.*.*.*.+.+.+.+.M M B M ! {.! {.].].].].|.|.|.|.E '.'.E %X$X#X#X*X*X*X*X+X+X+X+X}.}.}.}.! ! ! ! C C C C =X*X*X=X=X$X$X$X*X*X*X*X4X4X4X7X7X7X7X<X<X<X<XwXwXwXwX4X4X4X4X4X4X4X4X<X<X<X<X<X<X<X<XwXwXwXwX3X3X3X3XwXwXwXwXwXwXwXwXwXwXwXwXwXwXwXwXwXwXwXwXwXwXwXwXwXwXwX",
"wXwXwXwXwXwXwXwXwXwXwXwXwXwXwXwXwXwXwXwXwXwX1X1X1X1X1X1X1X1X<X<X>X>X4X4X4X4X1X1X1X3X3X3X3XwXwXwXwX2X2X2X2XwXwXwXwX*X*X*X*X{.{.{.{.s.s.s.s.C C C C V V V V V V V V a.a.a.a.) ) ) ) #.#.#.#.X.....X.o.o.o.o.5.5.5.5.y.y.y.y.D.x.x.x.D.D.D.D.F.F.F.F.K.K.K.K.K.K.K.P.P.P.P.K.K.K.K.P.P.P.P.P.P.P.P.^.^.^.^.P.P.P.P.Q.Q.Q.Q._._._._.cXcXcXcX(.zXzXzX(.(.(.(.(.(.(.(.L.L.L.L.K.K.K.K.P.P.P.P.F.F.F.F.F.D.F.F.D.D.D.D.x.x.u.u.e.e.e.e.2.2.2.2.6.6.6.2.2.2.1.1.1.1.1.| | | | { [ [ [ ) ) ) ) [ O.O.O.` _ _ _ *.*.*.*.*.*.*.*.C C C C B B B B #X#X#X#X XoXoX X'.'.'.'.XXXXXXXX[.[.[.[.|.|.|.|.|.|.|.|.[.[.[.[.;X-X-X-X+XXXXXXX+X+X+X+X4X4X5X1X1X1X1XwXwXwXwX4X4X4X4X1X1X1X1X4X4X4X4X<X<X<X<X1X1X1X1X2X2X2X2X2X2X2X2X5X5X5X5X4X4X4X4XwXwXwXwX4X4X4X4XwXwXwXwXwXwXwXwXwXwXwX",
"wXwXwXwXwXwXwXwXwXwXwXwXwXwXwXwXwXwXwXwXwXwX1X1X1X1X1X1X1X1X>X>X<X<X4X4X4X4X1X1X1X3X3X3X3XwXwXwXwX2X2X2X2XwXwXwXwX*X*X*X*X{.{.{.{.s.s.s.s.C C C C V V V V V V V V a.a.a.M ) ) ) ) #.#.#.#.| ....X.o.o.o.o.5.5.5.5.y.y.y.y.x.x.x.x.D.D.D.D.F.F.F.F.K.K.K.K.K.K.K.P.P.P.P.K.K.K.K.P.P.P.P.P.P.P.P.^.^.^.^.P.P.P.P.Q.Q.Q.Q._._._._.cXcXcXcXzX(.zXzX(.(.(.(.^.^.^.^.P.P.P.L.K.K.K.K.P.P.P.P.J.J.F.F.F.F.F.F.D.D.D.D.x.u.u.u.e.e.e.e.2.2.4.4.6.6.6.1.1.1.1.1.1.1.1.| | | | { [ { { ) ) ) ) O.O.O.[ ` O._ _ *.*.*.*.*.*.*.*.C C C C B B B B #X#X#X#XoXXXXXXX'.'.'.'.XXXXXXXX[.[.[.[.|.|.|.|.|.|.|.|.[.[.[.[.-X-X-X-X+X+X+X+X+X+X+X+X5X5X5X1X1X1X1XwXwXwXwX4X4X4X4X2X2X1X1X4X4X4X4X<X<X<X<X1X1X1X1X2X2X2X2X2X2X2X2X5X5X5X5X4X4X4X4XwXwXwXwX4X4X4X4XwXwXwXwXwXwXwXwXwXwXwX",
"wXwXwXwXwXwXwXwXwXwXwXwXwXwXwXwXwXwXwXwXwXwX1X1X1X1X1X1X1X1X>X>X<X<X4X4X4X4X1X1X1X2X3X3X3XwXwXwXwX2X2X2X2XwXwXwXwX*X*X*X*X{.{.{.{.s.s.s.s.C C T C V V V V V V V V a.a.a.M ) ) ) ) #.#.#.#.| ....X.o.o.o.o.5.5.5.5.y.y.y.y.D.x.x.x.D.D.D.D.F.F.F.F.K.K.K.K.K.K.K.P.P.P.P.K.K.K.K.P.P.P.P.P.P.P.P.^.^.^.^.P.P.P.P.Q.Q.Q.Q._._._._.cXcXcXcX(.(.zXzX(.(.(.(.^.^.^.^.P.P.P.P.K.K.K.K.P.P.P.P.J.J.J.J.F.F.F.F.D.D.D.D.u.u.u.u.e.e.e.e.2.2.4.4.6.6.6.1.1.1.1.1.1.1.1.| | | | { [ { { ) ) ) ) O.O.O.O.` O._ O.*.*.*.*.*.*.*.*.C C C C B B B B #X#X#X#XoXXXXXXX'.'.'.'.XXXXXXXX[.[.[.[.|.|.|.|.|.|.|.|.[.[.[.[.-X-X-X-X+X+X+X+X+X+X+X+X5X5X5X1X1X1X1XwXwXwXwX4X4X4XwX2X1X1X1X4X4X4X4X<X<X<X<X1X1X1X1X2X2X2X2X2X2X2X2X5X5X5X5X4X4X4X4XwXwXwXwX4X4X4X4XwXwXwXwXwXwXwXwXwXwXwX",
"wXwXwXwXwXwXwXwXwXwXwXwXwXwXwXwXwXwXwXwXwXwX1X1X2X1X1X1X1X1X>X>X<X<X4X4X4X4X1X1X1X3X3X3X3XwXwXwXwX2X2X2X2XwXwXwXwX*X*X*X*X{.{.{.{.s.s.s.s.C C T C V V V C V V V V a.M M M ) ) ) ) #.#.#.#.| | | X.o.o.o.o.5.5.5.5.y.y.y.y.D.D.D.x.D.D.D.D.F.F.F.F.K.K.K.K.K.K.K.P.P.P.P.K.K.K.K.P.P.P.P.P.P.P.P.^.^.^.^.P.P.P.P.Q.Q.Q.Q._._._._.cXcXcXcX(.zXzXzX(.(.(.(.^.^.^.^.P.P.P.L.K.K.K.K.P.P.P.P.J.J.J.J.D.D.F.F.D.D.D.D.u.u.u.u.e.e.e.e.2.2.4.4.6.6.6.1.1.1.1.1.;.;.;.| | | | { [ { { ) ) ) ) O.O.O.O.` O.O.O.*.*.*.*.&.&.&.*.C C C C B B B B #X#X#X#XoXXXXXXX'.'.'.'.XXXXXXXX[.[.[.[.|.|.|.|.|.|.|.|.[.[.[.[.-X-X-X-X+X+X+X+X+X+X+X+X5X4X5X1X1X1X1XwXwXwXwX4X4X4X4X1X1X1X1X4X4X4X4X<X<X<X<X1X1X1X1X2X2X2X2X2X2X2X2X5X5X5X5X4X4X4X4XwXwXwXwX4X4X4X4XwXwXwXwXwXwXwXwXwXwXwX",
"wXwXwXwXwXwXwXwXwXwXwXwXwXwXwXwXwXwXwXwXwXwXwXwXwXwX<X<X<X<XwXwXwXwX>X>X>X>X*X*X*X*X*X*X*X4X4X4X4X1X1X1X2X#X#X#X#X}.}.}.}.*X*X*X=X&X&X&X&XW Z W Z @X@X@X@XB B B B i i i i &.&.&.*.) ) ) ) ......X.4.4.4.6.w.w.w.w.x.x.x.D.D.D.D.D.F.F.F.F.F.F.F.F.K.P.K.K.P.P.P.P.P.P.P.P.P.P.P.P.P.P.P././././././././.^.^.^.^./.).).).(.(.(.(.xXxXxXxXnXnXnXnXzXzXzXzX(.(.(.(.^.^.^.^.K.K.P.P.Q.Q.P.P.P.P.P.P.F.F.F.F.J.J.J.J.H.H.H.H.F.D.D.D.e.e.e.e.k.k.k.5.5.5.5.2.2.2.2.2.6.6.6.| | | | { { { { ) ) ) ) _ _ _ _ -.-.-.-.V V V V =.&.&.&.m m m m Z Z Z Z E E E E A A A A R R R R $X$X$X$XR R R E E E E E  X X X X8X8X8X8X XXXXXXX5X5X5X5X9X9X9X<X<X<X<X-X-X-X-X1X1X1X1XwXwXwXwX2X2X2X2X>X>X>X>X<X<X<X<X<X<X<X<XwXwXwXwX2X2X2X2XwXwXwXwXwXwXwXwX5X5X5X5X4X4X4X4XwXwXwXwXwXwXwX",
"wXwXwXwXwXwXwXwXwXwXwXwXwXwXwXwXwXwXwXwXwXwXwXwXwXwX<X<X<X<XwXwXwXwX>X>X>X>X*X*X*X-X*X*X*X4X4X4X4X1X1X1X1X#X#X#X#X}.}.}.}.*X*X*X=X&XoXoXoXZ Z Z Z @X@X@X@XB B B B +.+.+.+.*.*.&.*.) ) ) ) ......X.4.4.6.6.w.w.8.8.x.x.x.x.D.D.D.D.F.F.F.F.F.F.F.F.K.P.P.P.P.P.P.P.P.P.P.P.P.P.P.P.P.P.P././././././.^.^.^.^.^.^.).).).).(.(.(.(.xXxXxXxXnXnXnXnXzXzXzXzX(.(.(.(.^.^.^.^.P.K.K.P.P.P.Q.Q.P.P.P.P.F.F.F.F.J.J.J.J.H.H.H.H.F.F.D.D.e.e.w.e.k.k.k.5.5.5.5.2.2.2.2.6.6.6.6.} } } | { { { { ) ) ) ) _ _ _ _ *.*.*.*.V V V V *.*.*.i m m m m A A A A E E E E A A A A R R R R $X=X=X=XE E E E E E E E  X X X X8X8X8X8XXXXXXXXX5X5X5X5X9X9X9X<X<X<X<X-X-X-X-X1X1X1X1XwXwXwXwX2X2X3X2X>X>X>X>X<X<X<X<X<X<X<X<XwXwXwXwX2X2X2X2XwXwXwXwXwXwXwXwX5X5X5X5X4X4X4X4XwXwXwXwXwXwXwX",
"wXwXwXwXwXwXwXwXwXwXwXwXwXwXwXwXwXwXwXwXwXwXwXwXwXwX<X<X<X<XwXwXwXwX>X>X>X>X*X*X*X*X*X*X*X4X4X4X4X1X1X1X1X#X#X#X#X}.}.}.}.*X*X*X=XoXoXoXoXZ Z Z Z @X@X@X@XB B B B i +.+.i *.*.*.*.) ) ) ) ......X.4.4.4.6.w.8.8.8.x.x.x.x.D.D.D.D.F.F.F.F.F.F.F.F.K.P.K.P.P.P.P.P.P.P.P.P.P.P.P.P.P.P.P././././././.^.^.^.^.^.^././.).).(.(.(.(.xXxXxXxXnXnXnXnXzXzXzXzX(.(.(.(.^.^.^.^.P.K.K.K.P.Q.Q.Q.P.P.P.P.F.F.J.J.J.J.F.J.H.H.H.H.F.F.D.F.e.w.w.e.k.k.k.5.5.5.5.2.2.2.2.6.6.6.6.} } } | { { { { ) ) ) ) _ _ _ _ *.*.*.*.V V V V *.*.*.&.m m m m A A A A E E E E A A A A R R R R %X=X=X=XE E E R E E E E  X X X X8X8X8X8XXXXXXXXX5X5X5X5X9X9X9X<X<X<X<X-X-X-X-X1X1X1X1XwXwXwXwX3X2X3X3X>X>X>X>X<X<X<X<X<X<X<X<XwXwXwXwX2X2X2X2XwXwXwXwXwXwXwXwX5X5X5X5X4X4X4X4XwXwXwXwXwXwXwX",
"wXwXwXwXwXwXwXwXwXwXwXwXwXwXwXwXwXwXwXwXwXwXwXwXwXwX<X<X<X<XwXwXwXwX>X>X>X>X*X*X*X*X*X*X*X4X4X4X4X1X1X1X2X#X#X#X#X}.}.}.}.*X*X*X*XoXoXoXoXZ Z Z Z @X@X@X@XB B B B i i i i *.*.*.*.) ) ) ) ......X.4.4.6.6.w.8.8.8.x.x.x.x.D.D.D.D.F.F.F.F.F.F.F.F.K.K.K.K.P.P.P.P.P.P.P.P.P.P.P.P.P.P.P./././.^./././.^.^.^.^.^././.).).(.(.(.(.cXcXcXxXnXnXnXnXzXzXzXzX(.(.(.(.^.^.^.^.K.K.K.K.P.P.Q.Q.P.P.P.P.F.F.F.J.J.J.J.J.H.H.H.H.F.F.F.F.e.e.e.e.k.k.k.5.5.5.5.2.2.2.2.6.6.6.6.} } } | { { { { ) ) ) ) _ _ _ _ *.*.*.*.V V V V *.*.*.*.m m m m A A A A E E E E A A A A R E E R =X=X=X=XE R R R E E E E  X X X X8X8X8X8X XXXXXXX5X5X5X5X9X9X9X<X<X<X<X-X-X-X-X1X1X1X1XwXwXwXwX3X3X2X2X>X>X>X>X<X<X<X<X<X<X1X1XwXwXwXwX2X2X2X2XwXwXwXwXwXwXwXwX5X5X5X5X4X4X4X4XwXwXwXwXwXwXwX",
"wXwXwXwXwXwXwXwXwXwXwXwXwXwXwXwXwXwXwXwXwXwX4X4X4X4XwXwXwXwX>X>X>X>XwXwXwXwX<X<X<X<X<X<X<X<X<X<X<XwXwXwXwX2X2X2X2XwXwXwXwX}.}.}.}.=X=X=X=X#X#X#X#X*X*X*X*XZ Z Z Z m m m m i i i *.) ) ) ) | | | | 4.4.4.4.w.w.w.w.D.D.D.D.D.D.D.D.F.F.F.F.K.K.K.K.K.K.K.K.^.^.^.P.P.P.P.P.P.P.P.~.~.P.P././././././././.^.^.^.^.).).).).bXvXxXxXnXnXBXBXBXBXCXCXCXCXCXCXxXxXxXxXQ.Q.Q.Q.P.P.P.P.~.~.^.^.L.L.P.P.Q.Q.Q.Q.K.K.K.K.J.J.J.K.F.F.F.F.D.D.D.D.e.e.e.w.w.w.w.5.5.5.5.8.8.8.8.;.;.;.;.o.o.o.o.{ { { { ) ) ) ) ` ` ` ` *.*.*.*.O.O.O.O.&.i i i C C C C V V V V |.|.|.|.[.|.|.|.C s.s.s.Z Z Z Z W R R R *X*X*X*X7X7X;X;X;X;X;X;XXXXXXXXX7X7X7X4X4X4X4XwXwXwXwX1X1X1X1XwXwXwXwXwXwXwXwX>X>X>X>XwXwXwXwX<X<X<X<XwXwXwXwXwXwXwXwXwXwXwXwXwXwXwXwX3X3X3X3X4X4X4X4XwXwXwXwXwXwXwX",
"wXwXwXwXwXwXwXwXwXwXwXwXwXwXwXwXwXwXwXwXwXwX4X4X4X4XwXwXwXwX>X>X>X>XwXwXwXwX<X<X<X<X<X<X<X<X<X<X<XwXwXwXwX2X2X2X2XwXwXwXwX}.}.}.}.*X*X*X=X#X#X#X#X*X*X*X*XZ Z Z Z m m m m *.i i *.) ) ) ) | | | | 4.4.4.4.w.w.w.w.D.D.D.D.D.D.D.D.F.F.F.F.K.K.K.K.K.K.K.K.^.^.^.P.P.P.P.P.P.P.P.^.~.~.~././././././././.^.^.^.^._._._.).xXxXxXxXnXnXnXnXBXBXCXCXmXmXmXmXxXxXxXxXQ.Q.Q.Q.P.P.P.P.~.~.^.^.P.P.P.P.P.P.Q.Q.K.K.K.K.K.J.J.K.F.F.F.F.D.D.D.D.e.e.e.w.e.w.w.5.5.5.5.8.8.8.8.;.;.;.;.o.o.o.o.{ { { { ) ) ) ) ` ` ` ` *.*.*.*.O.O.O.O.=.*.*.&.C C C C V V V V |.|.|.|.[.|.|.[.s.s.s.C Z Z Z Z W W W W *X*X*X*X7X7X7X7X;X;X;X;XXXXXXXXX7X7X7X4X4X4X4XwXwXwXwX1X1X1X1XwXwXwXwXwXwXwXwX>X>X>X>XwXwXwXwX<X<X<X<XwXwXwXwXwXwXwXwXwXwXwXwXwXwXwXwX3X3X3X3X4X4X4X4XwXwXwXwXwXwXwX",
"wXwXwXwXwXwXwXwXwXwXwXwXwXwXwXwXwXwXwXwXwXwX4X4X4X4XwXwXwXwX>X>X>X>XwXwXwXwX<X<X<X<X<X<X<X<X<X<X<XwXwXwXwX2X2X2X2XwXwXwXwX}.}.}.}.*X=X*X=X#X#X#X#X*X*X*X*XZ Z Z Z m m m m i i i *.) ) ) ) | | | | 4.4.4.4.w.w.w.w.D.D.D.D.D.D.D.D.F.F.F.F.K.K.K.K.K.K.K.K.^.^.^.P.P.P.P.P.P.P.P.~.~.~.~././././././././.^.^.^.^._._.).).xXxXxXxXnXnXBXBXBXBXCXCXCXmXmXmXxXxXxXxXQ.Q.Q.Q.P.P.P.P.~.~.^.^.P.P.P.P.P.P.P.Q.K.K.K.K.K.K.K.K.F.F.F.F.D.D.D.D.e.e.e.w.e.w.w.5.5.5.5.8.8.8.8.;.;.;.;.o.o.o.o.{ { { { ) ) ) ) ` ` ` ` *.*.*.*.O.O.O.O.=.*.*.&.C C C C V V V V |.|.|.|.[.|.|.[.s.s.s.C Z Z Z Z W W W W *X*X*X*X7X7X7X7X;X;X;X;XXXXXXXXX7X7X7X4X4X4X4XwXwXwXwX1X1X1X1XwXwXwXwXwXwXwXwX>X>X>X>XwXwXwXwX<X<X<X<XwXwXwXwXwXwXwXwXwXwXwXwXwXwXwXwX3X3X3X3X4X4X4X4XwXwXwXwXwXwXwX",
"wXwXwXwXwXwXwXwXwXwXwXwXwXwXwXwXwXwXwXwXwXwX4X4X4X4XwXwXwXwX>X>X>X>XwXwXwXwX<X<X<X<X<X<X<X<X<X<X<XwXwXwXwX2X2X2X2XwXwXwXwX}.}.}.}.=X=X=X=X#X#X#X#X*X*X*X*XZ Z Z Z m m m m +.i i i ) ) ) ) | | | | 4.4.4.4.w.w.w.w.D.D.D.D.D.D.D.D.F.F.F.F.K.K.K.K.K.K.K.K.^.^.^.P.P.P.P.P.P.P.P.^.^.~.~././././././././.^.^.^.^._._._._.xXxXbXxXBXBXBXBXCXBXBXBXCXCXmXmXxXxXxXxXQ.Q.Q.Q.P.P.P.P.^.^.^.^.P.P.P.P.P.Q.Q.Q.K.K.K.K.K.K.J.J.F.F.F.F.D.D.D.D.e.e.e.e.e.e.w.5.5.5.5.8.8.8.8.;.;.;.;.o.o.o.o.{ { { { ) ) ) ) ` ` ` ` *.*.*.*.O.O.O.O.*.*.*.*.C C C C V V V V |.|.|.|.[.|.|.|.s.s.s.s.Z Z Z Z W W W W *X*X*X*X7X7X7X7X;X;X;X;XXXXXXXXX7X7X7X4X4X4X4XwXwXwXwX1X1X1X1XwXwXwXwXwXwXwXwX>X>X>X>XwXwXwXwX<X<X<X<XwXwXwXwXwXwXwXwXwXwXwXwXwXwXwXwX3X3X3X3X4X4X4X4XwXwXwXwXwXwXwX",
"wXwXwXwXwXwXwXwXwXwXwXwXwXwXwXwXwXwXwXwXwXwXwXwXwXwX4X4X4X4XwXwXwXwXwXwXwXwX$X$X$X7X7X7X7X%X%X%X%X<X<X<X<X$X$X$X$X4X4X4X4X<X<X<X<X-X-X-X-X$X$X$X$X+X+X+X+XV V V V m m m m +.+.+.+.+.+.+.+.$.$.$.$.2.2.2.2.e.e.e.e.F.F.F.F.F.F.F.F.P.P.P.P.Q.Q.Q.Q.P.P.P.P.^.^.^.^.^.^.^././././././././././././.^.^.^.^.^.^.^.^.cXcXnXcXmXmXmXmXBXBXBXBXMXMXMXMXCXCXCXCXnXnXnXnX).).).).^.^.^.^.P.P.P.P.Q.Q.Q.Q.P.P.P.P.Y.Y.Y.Y.T.T.T.T.K.K.K.K.D.D.D.D.x.x.x.x.x.x.x.w.w.w.w.5.5.5.5.2.2.2.2.4.4.4.4.o.o.o.o.[ [ [ [ #.#.@.@.' ' ' ' #.#.#.#.O.O.O.O.` ` ` ` n n n n Q Q Q Q Q Q Q Q @.*.*.*.a.a.a.a.! ! ! ! A A A A |.|.|.|.8X7X7X8X7X7X7X7X1X1X1X1X1X1X1X3X2X3X3XwXwXwXwX1X1X1X1X4X4X4X4X<X<X<X<X4X4X4X4X7X7X7X7X7X7X7X7X7X7X7X7X4X4X4X4X1X1X1X1XwXwXwXwXwXwXwXwXwXwXwXwXwXwXwX",
"wXwXwXwXwXwXwXwXwXwXwXwXwXwXwXwXwXwXwXwXwXwXwXwXwXwX4X4X4X4XwXwXwXwXwXwXwXwX$X$X$X7X7X7X7X%X%X%X%X9X9X9X<X*X$X$X$X4X4X4X4X<X<X<X<X-X-X-X-X$X$X$X$X+X+X+X+XV V V V m m m m +.+.+.+.+.+.+.+.$.$.$.$.4.4.2.2.e.e.e.e.F.F.F.F.F.F.F.F.K.K.K.K.Q.Q.Q.Q.P.P.P.P.^.^.^.^.^.^.^././././././././././././.^.^.^.^.^.^.^.^.cXcXcXcXmXmXmXmXBXBXnXnXMXMXMXMXCXCXCXCXnXnXnXnX).).).).^.^.^.^.P.P.P.P.Q.Q.Q.Q.P.P.P.P.Y.Y.L.L.W.T.T.T.K.K.K.K.D.D.D.D.x.x.x.x.x.x.x.w.w.w.w.5.5.5.5.2.2.2.2.4.4.4.2.X.X.o.o.[ [ [ [ @.@.@.%.' ' ' ' #.#.#.#.O.O.O.O.` O.O.O.i.n n n Q Q Q Q Q Q Q Q *.@.@.@.a.a.a.M ! ! ! ! A A A A |.|.|.|.8X8X8X8X7X7X7X7X1X1X1X2X2X1X1X2X2X2X2XwXwXwXwX1X1X1X1X4X4X4X4X<X<X<X<X4X4X4X4X7X7X7X7X7X7X7X7X7X7X7X7X4X4X4X4X1X1X1X1XwXwXwXwXwXwXwXwXwXwXwXwXwXwXwX",
"wXwXwXwXwXwXwXwXwXwXwXwXwXwXwXwXwXwXwXwXwXwXwXwXwXwX4X4X4X4XwXwXwXwXwXwXwXwX$X$X$X7X7X7X7X%X%X%X%X9X9X9X<X$X$X$X$X4X4X4X4X<X<X<X<X-X-X-X-X$X$X$X$X+X+X+X+XV V V V m m m m +.+.+.+.+.+.+.+.$.$.$.$.4.2.2.2.e.e.e.e.F.F.F.F.F.F.F.F.K.K.K.K.Q.Q.Q.Q.P.P.P.P.^.^.^.^.^.^.^././././././././././././.^.^.^.^.^.^.^.^.cXcXcXcXmXmXmXmXBXBXnXnXMXMXMXMXCXCXCXCXnXnXnXnX).).).).^.^.^.^.P.P.P.P.Q.Q.Q.Q.P.P.P.P.Y.Y.L.Y.W.T.W.T.K.K.K.K.D.D.D.D.x.x.x.x.x.x.x.w.w.w.w.5.5.5.5.2.2.2.2.4.4.4.2.X.X.X.o.[ [ [ [ @.@.@.#.' ' ' ' #.#.#.#.O.O.O.O.` O.O.O.i.n n n Q Q Q Q Q Q Q Q *.@.@.@.a.a.a.a.! ! ! ! A A A A |.|.|.|.8X8X8X8X7X7X7X7X1X1X1X2X1X1X1X2X2X2X2XwXwXwXwX1X1X1X1X4X4X4X4X<X<X<X<X4X4X4X4X7X7X7X7X7X7X7X7X7X7X7X7X4X4X4X4X1X1X1X1XwXwXwXwXwXwXwXwXwXwXwXwXwXwXwX",
"wXwXwXwXwXwXwXwXwXwXwXwXwXwXwXwXwXwXwXwXwXwXwXwXwXwX4X4X4X4XwXwXwXwXwXwXwXwX$X$X$X7X7X7X7X%X%X%X%X<X9X9X<X$X$X$X$X4X4X4X4X<X<X<X<X-X-X-X-X$X$X$X$X+X+X+X+XV V V V m m m m +.+.+.+.+.+.+.+.$.$.$.$.2.2.2.2.e.e.e.e.F.F.F.F.F.F.F.F.K.L.L.K.Q.Q.Q.Q.P.P.P.P.^.^.^.^.^.^.^././././././././././././.^.^.^.^.^.^.^.^.cXcXcXcXmXmXmXmXBXBXBXBXMXMXMXMXCXCXCXCXnXnXnXnX).).).).^.^.^.^.P.P.P.P.P.Q.Q.Q.P.P.P.P.Y.Y.Y.Y.W.W.W.W.K.K.K.K.D.G.D.D.x.x.x.x.x.x.x.w.w.w.w.5.5.5.5.2.2.2.2.6.4.4.2.X.o.o.o.[ [ [ [ %.@.#.#.' ' ' ' #.#.#.#.O.O.O.O.` ` ` ` i.n n n Q Q Q Q Q Q Q Q *.*.*.@.a.a.a.a.! ! ! ! A A A A |.|.|.|.8X8X8X8X7X7X7X7X1X1X1X1X2X1X1X2X2X2X2XwXwXwXwX1X1X1X1X4X4X4X4X<X<X<X<X4X4X4X4X7X7X7X7X7X7X7X7X7X7X7X7X4X4X4X4X1X1X1X1XwXwXwXwXwXwXwXwXwXwXwXwXwXwXwX",
"wXwXwXwXwXwXwXwXwXwXwXwXwXwXwXwXwXwXwXwXwXwXwXwXwXwXwXwXwXwXwXwXwXwXwXwXwXwX7X7X7X&X&X&X&X{.{.{.{.@X@X@X@X*X*X$X*X>X>X>X>X5X5X5X5X4X4X4X4X'.'.'.'.'.'.'.'.].].].[.W W W W =.=.=.*.+.+.+.+.} } } { 1.1.1.1.e.e.e.e.D.D.D.D.J.J.J.J.K.K.K.K.^.^.^.^.^.^.^.^.^.^.^.~.~.~.^././././././././.^.^.^.^././././.).).).).cXcXcXcXBXBXBXBXZXZXZXZXVXVXVXVXZXZXZXZXCXCXCXCX_._._._././././././././.^.^.^.^.Q.Q.Q.Q.^.^.^.^.Q.Q.Q.Q.W.Q.Q.Q.H.H.H.H.G.G.G.x.k.k.x.x.x.x.x.e.y.y.e.5.7.7.7.2.3.3.3.1.1.1.1.........{ { { { #.#.#.#.) ) ) ) #.#.#.#.#.#.#.#.@.@.@.@.M M M a.T T T T *.*.*.*.=.i.=.=.V V V V '.'.'.'. X X X X].].].].$X$X$X$XXXXXXX3X3X3X3X5X5X5X5X*X*X*X*X7X7X7X7X$X$X$X$X4X4X4X4X*X*X*X*X4X4X4X4X4X4X4X4X4X4X4X4X<X<X<X<X4X4X4X4X2X2X2X2X5X5X5X5XwXwXwXwXwXwXwX",
"wXwXwXwXwXwXwXwXwXwXwXwXwXwXwXwXwXwXwXwXwXwXwXwXwXwXwXwXwXwXwXwXwXwXwXwXwXwX7X7X7X&X&X&X&X{.{.{.{.@X@X@X@X*X$X$X*X>X>X>X>X4X4X4X5X4X4X4X4X'.'.'.'.'.'.'.'.].].].].W W W W *.*.*.*.+.+.+.+.} { } { 1.1.1.1.e.e.e.e.D.D.D.D.J.J.J.J.K.K.K.K.^.^.^.^.^.^.^.^.^.^.^.~.~.^.^././././././././.^.^.^.^.^.^.^./.).).).).cXcXcXcXBXBXBXBXZXZXZXZXVXVXVXVXZXZXZXZXCXCXCXCX_._._._././././././././.^.^.^.^.Q.Q.Q.Q.^.^.^.^.Q.Q.Q.Q.Q.Q.Q.Q.H.H.H.H.G.G.G.k.x.x.k.x.x.x.x.e.y.y.e.8.8.8.7.2.3.2.3.1.1.1.1.........{ { { { @.#.#.@.) ) ) ' #.#.#.#.#.#.#.#.@.@.@.@.a.M M M T T T T *.*.*.*.=.i.i.=.V V V V '.'.'.'. X X X X].].].].%X$X$X$XXXXXXX3X3X3X3X5X5X5X5X*X*X$X$X7X7X7X7X$X$X$X$X4X4X4X4X*X*X*X*X4X4X4X4X4X4X4X4X4X4X4X4X<X<X<X<XwXwX4X4X2X2X2X2X5X5X5X5XwXwXwXwXwXwXwX",
"wXwXwXwXwXwXwXwXwXwXwXwXwXwXwXwXwXwXwXwXwXwXwXwXwXwXwXwXwXwXwXwXwXwXwXwXwXwX7X7X7X&X&X&X&X{.{.{.{.@X@X@X@X*X$X$X*X>X>X>X>X4X5X5X5X4X4X4X4X'.'.'.'.].'.'.'.].].[.].W W W W *.*.*.=.+.+.+.+.} } { { 1.1.1.1.e.e.e.e.D.D.D.D.J.J.J.J.K.K.K.K.^.^.^.^.^.^.^.^.^.^.^.~.~.^.^././././././././.^.^.^.^.^.^././.).).).).cXcXcXcXBXBXBXBXZXZXZXZXVXVXVXVXZXZXZXZXCXCXCXCX_._._._././././././././.^.^.^.^.Q.Q.Q.Q.^.^.^.^.Q.Q.Q.Q.Q.Q.Q.Q.H.H.H.H.G.G.G.k.x.x.k.x.x.x.x.e.e.e.e.5.8.8.5.2.3.3.3.1.1.1.1.........{ { { { @.#.#.@.) ) ) ' #.#.#.#.#.#.#.#.@.@.@.@.a.M M M T T T T *.*.*.*.=.i.i.=.V V V V '.'.'.'. X X X X].].].].%X$X$X$XXXXXXX5X3X2X2X5X5X5X5X*X*X$X$X7X7X7X7X$X$X$X$X4X4X4X4X*X*X*X*X4X4X4X4X4X4X4X4X4X4X4X4X<X<X<X<XwXwX4X4X2X2X2X2X5X5X5X5XwXwXwXwXwXwXwX",
"wXwXwXwXwXwXwXwXwXwXwXwXwXwXwXwXwXwXwXwXwXwXwXwXwXwXwXwXwXwXwXwXwXwXwXwXwXwX7X7X7X&X&X&X&X{.{.{.{.@X@X@X@X*X*X$X*X>X>X>X>X5X5X5X5X4X4X4X4X'.'.'.'.].'.'.'.].].[.].W W W W =.*.*.=.+.+.+.+.} { { } 1.1.1.1.e.e.e.e.D.D.D.D.J.J.J.J.K.K.K.K.^.^.^.^.^.^.^.^.^.^.^.~.^.^.^././././././././.^.^.^.^.^.^././.).).(.).cXcXcXcXBXBXBXBXZXZXZXZXVXVXVXVXZXZXZXZXCXCXCXCX_._._._././././././././.^.^.^.^.Q.Q.Q.Q.^.^.^.^.Q.Q.Q.Q.Q.Q.Q.Q.H.H.H.H.G.G.G.k.x.x.x.x.x.x.x.e.e.e.e.5.8.5.5.2.3.3.3.1.1.1.1.........} { { { @.#.#.#.) ) ) ) #.#.#.#.#.#.#.#.@.@.@.@.a.M M M T T T T *.*.*.*.=.=.=.=.V V V V '.'.'.'. X X X X[.[.].].%X$X$X$XXXXXXX5X5X2X2X5X5X5X5X*X*X$X$X7X7X7X7X$X$X$X$X4X4X4X4X*X*X*X*X4X4X5X5X4X4X4X4X4X4X4X4X<X<X<X<X4X4X4X4X2X2X2X2X5X5X5X5XwXwXwXwXwXwXwX",
"wXwXwXwXwXwXwXwXwXwXwXwXwXwXwXwXwXwXwXwXwXwXwXwXwXwX3X3X3X3X<X<X<X<X7X7X7X7X4X4XwX#X#X#X#XoXoXoXoX-X-X-X-X>X>X>X>XwXwXwXwX1X1X1X1X|.|.|.|.[.[.[.[.E E E E [.[.[.[.*.i &.&.=.=.=.-.-.-.-.-.} | | | 1.1.1.1.8.8.8.8.D.D.D.D.F.F.F.J.K.K.K.K.Q.Q.Q.Q.!.!.!.(.^.^.^.^.^.^.^.^.^.^.^././././././././././././././.^.^.nXnXnXnXCXCXCXCXFXFXFXFXGXGXGXGXAXAXAXAXZXZXZXZX).).).).^.^.^.^.^.^.^.^.).).).).(.(.(.(.!.!.!.!.!.!.!.!.(.(.(.(.Y.Y.Y.Y.G.D.G.G.G.G.G.D.D.D.G.e.e.e.e.8.8.8.8.7.8.8.8.w.w.w.w.6.6.6.6.........} } } } [ { [ { ' ) ) ) ) ) ) ) @.@.@.@.p.i.i.i.+.O.O.O.i.a.a.a.n n n n B B B B @X@X@X@XC C C C s.s.s.s.{.{.{.{.oX X X1X1X1X1XXXXXXXXX5X5X5X5X5X5X5X5X;X;X;X;X5X5X5X5X-X-X-X-X4X4X5X4X1X1X1X1X4X4X4X4X<X<X<X<X1X1X1X1XwXwXwXwX4X4X4X4XwXwXwXwXwXwXwX",
"wXwXwXwXwXwXwXwXwXwXwXwXwXwXwXwXwXwXwXwXwXwXwXwXwXwX3X3X3X3X<X<X<X<X7X7X;X;X4X4X4X#X#X+X#XoXoXoXoX-X-X-X-X>X>X>X>XwXwXwXwX1X1X1X1X|.|.|.|.[.[.[.[.E W W E |.|.|.[.*.*.*.*.-.-.-.-.-.-.-.-.| | | | 1.1.1.1.8.8.8.8.D.D.D.D.J.J.F.J.K.K.K.K.Q.Q.Q.Q.!.!.!.!.^.^.^.^.^.^.^./.^.^.^././././././././././././././.^.^.nXnXnXnXCXCXCXCXFXFXFXFXGXGXGXGXDXAXAXDXZXZXZXZX).).).).^.^.^.^.^.^.^.^.).).).).(.(.(.).!.!.!.!.!.!.!.!.(.(.!.!.Y.Y.Y.Y.D.D.D.G.G.G.G.x.x.x.G.e.e.e.e.7.8.8.8.7.8.8.7.w.w.w.w.6.6.6.6.........} } } | { [ [ [ ) ) ) ) ) ) ) ) @.@.@.@.i.i.i.i.+.O.O.u M M a.a.n n n n B B B B @X@X@X@XC C C C s.s.s.s.{.{.{.{.oX X X1X1X1X1X+X+XXXXX5X5X5X5X5X5X5X5X;X;X;X;X5X5X5X5X-X-X-X-X4X4X5X5X1X1X1X1X4X4X4X4X<X<X<X<X1X1X1X1XwXwXwXwX4X4X4X4XwXwXwXwXwXwXwX",
"wXwXwXwXwXwXwXwXwXwXwXwXwXwXwXwXwXwXwXwXwXwXwXwXwXwX3X3X3X3X<X<X<X<X7X7X;X;X4X4X4X#X+X+X#XoXoXoXoX-X-X-X-X>X>X>X>XwXwXwXwX1X1X1X1X|.|.|.|.[.[.[.[.W W ! E |.|.[.[.*.*.*.*.-.-.-.-.-.-.-.-.| | | | 1.1.1.1.8.8.8.8.D.D.D.D.J.J.J.J.K.K.K.K.Q.Q.Q.Q.!.!.!.!.^.^.^.^.^.^.^./.^.^.^././././././././././././././.^./.nXnXnXnXCXCXCXCXFXFXFXFXGXGXGXGXDXAXDXDXZXZXZXZX).).).).^.^.^.^.^.^.^.^.).).).).(.(.(.(.!.!.!.!.!.!.!.!.(.(.!.!.Y.Y.Y.Y.D.D.D.G.G.G.G.x.x.x.G.e.e.e.e.8.8.8.8.7.8.8.7.w.w.w.w.6.6.6.6.........} } } | { [ [ [ ) ' ' ) ) ) ) ) @.@.@.@.i.i.i.i.+.O.O.u M M a.a.n n n n B B B B @X@X@X@XC C C C s.s.s.s.{.{.{.{.oX X X1X1X1X1X+X+XXXXX5X5X5X5X5X5X5X5X;X;X;X;X5X5X5X5X-X-X-X-X4X4X5X5X1X1X1X1X4X4X4X4X<X<X<X<X1X1X1X1XwXwXwXwX4X4X4X4XwXwXwXwXwXwXwX",
"wXwXwXwXwXwXwXwXwXwXwXwXwXwXwXwXwXwXwXwXwXwXwXwXwXwX3X3X3X3X<X<X>X>X7X;X;X;X4X4X4X#X#X#X#XoXoXoXoX-X-X-X-X>X>X>X>XwXwXwXwX1X1X1X1X|.|.|.|.[.[.[.[.E ! ! E  X|.[.[.&.*.*.*.-.-.-.p.-.-.-.-.| | | | 1.1.1.1.8.8.8.8.D.D.D.D.J.J.J.J.K.K.K.K.Q.Q.Q.Q.!.!.!.!.^.^.^.^.^.^.^././.^.^././././././././././././././././.nXnXnXnXCXCXCXCXFXFXFXFXGXGXGXGXAXAXAXAXZXZXZXZX).).).).^.^.^.^.^.^.^.^.).).).).(.(.(.(.!.!.!.!.!.!.!.!.(.(.!.!.Y.Y.Y.Y.D.D.D.G.G.G.G.x.x.x.x.e.e.e.e.8.8.8.8.7.8.7.7.w.w.w.w.6.6.6.6.........} } } | { [ [ [ ) ' ' ' ) ) ) ) @.@.@.@.i.i.i.i.+.O.+.u M a.a.a.n n n n B B B B @X@X@X@XC C C C s.s.s.s.{.{.{.{.oX X X1X1X1X1XXXXXXXXX5X5X5X5X5X5X5X5X;X;X;X;X5X5X5X5X-X-X-X-X4X4X5X4X1X1X1X1X4X4X4X4X<X<X<X<X1X1X1X1XwXwXwXwX4X4X4X4XwXwXwXwXwXwXwX",
"wXwXwXwXwXwXwXwXwXwXwXwXwXwXwXwXwXwXwXwXwXwXwXwXwXwX3X3X3X3X2X2X2X2X4X4X4X4X<X<X<X5X5X5X5X+X+X+X+X*X$X$X$X+X+X+X+XXXXXXXXXXXXXXXXX[.[.[.[. X X X XC C C C V V V V i i i i ` ` ` ` ) ) ) ) ........7.7.7.7.w.w.w.w.x.x.x.x.J.J.J.J.T.T.T.W.W.W.W.T.(.(.(.(.xXxXxXcXcXcXcXnXnXnXnX_._._._.^.^.^.^././.^.^.).).).).CXCXCXCXDXDXFXFXJXJXJXJXJXJXJXJXDXDXDXDXZXZXZXZXcXcXcXcX/./.^.^.^.^.^.^._._._._.Q.^.^.^.(.(.(.(.(.(.(.(.(.(.(.(.!.!.!.!.I.I.I.G.G.G.G.G.G.G.G.c.G.G.G.e.e.e.e.8.8.8.8.k.k.k.k.2.2.2.2.1.1.1.1.6.6.6.6.........} } } } ' ' ' ' ' ' ' ' #.#.#.#.+.+.+.+.B s.s.s.i.i.i.i.a.a.a.a.oXoXoXoX%X%X%X%XC C C C @X@X@X@X8X7X7X3X5X3X3X3X2X5X3X3X2X2X2X2X2X2X2X#X#X#X#X2X2X2X2X5X5X5X5X4X4X4X4X-X-X-X-X<X<X<X<XwXwXwXwX1X1X1X1X3X3X3X3XwXwXwXwXwXwXwXwXwXwXwX",
"wXwXwXwXwXwXwXwXwXwXwXwXwXwXwXwXwXwXwXwXwXwXwXwXwXwX3X3X3X3X2X2X2X2X4X4X4X4X<X<X<X5X5X5X5X+X+X+X+X*X*X*X$X+X+X+X+XXXXXXXXXXXXXXXXX[.[.[.[. X X X XC C C C V V V V i i i i ` ` ` ` ) ) ) [ ........7.7.7.7.w.w.w.w.x.x.x.x.J.J.J.J.T.T.T.T.Y.Y.Y.T.(.(.(.(.xXxXxXcXcXcXcXnXnXnXnX_._._._.^.^.^.^.^.^.^.^.).).).).CXCXCXCXDXDXDXDXJXJXGXGXJXJXJXJXDXDXDXZXZXZXZXZXcXcXcXcX^.^.^.^.^.^.^.^._._._._.^.^.^.^.(.(.(.(.(.(.(.(.(.(.(.(.!.!.!.!.I.I.I.G.G.G.x.G.G.G.G.c.G.G.G.e.e.e.e.8.8.8.8.k.k.k.k.2.2.2.2.1.1.1.1.6.6.6.6.........} } } } ' ' ' ' ' ] ] ] #.@.#.#.+.+.+.+.s.s.s.s.i.i.i.i.a.a.a.a.oXoXoXoX%X%X%X%XC C C C @X@X@X@X7X8X8X3X3X3X3X2X2X2X2X2X2X2X2X2X2X2X2X#X#X#X#X2X2X2X2X5X5X5X5X4X4X4X4X-X-X-X-X<X<X<X<XwXwXwXwX1X1X1X1X3X3X3X3XwXwXwXwXwXwXwXwXwXwXwX",
"wXwXwXwXwXwXwXwXwXwXwXwXwXwXwXwXwXwXwXwXwXwXwXwXwXwX3X3X3X3X2X2X2X2X4X4X4X4X<X<X<X5X5X5X5X+X+X+X+X*X*X*X$X+X+X+X+XXXXXXXXXXXXXXXXX|.[.[.[. X X X XC C C C V V V V i i i i ` ` ` ` ) ) ) ) ........7.7.7.7.w.w.w.w.x.x.x.x.J.J.J.J.W.T.T.T.Y.Y.Y.W.(.(.(.(.xXxXxXcXcXcXcXnXnXnXnX_._._._.^.^.^.^.^.^.^.^.).).).).CXCXCXCXDXDXDXDXJXJXJXGXJXJXJXJXDXDXDXDXZXZXZXZXcXcXcXcX^.^.^.^.^.^.^.^._._._._.^.^.^.^.(.(.(.(.(.(.(.(.(.(.(.(.!.!.!.!.I.I.I.G.G.G.x.G.G.G.G.G.G.G.G.e.e.e.e.8.8.8.8.k.k.k.k.2.2.2.2.1.1.1.1.6.6.6.6.........} } } } ' ' ' ' ' ] ' ' #.@.#.#.+.+.+.+.s.s.s.s.i.i.i.i.a.a.a.a.oXoXoXoX%X%X%X%XC C C C @X@X@X@X7X7X8X3X3X3X3X2X2X2X2X2X2X2X2X2X2X2X2X#X#X#X#X2X2X2X2X5X5X5X5X4X4X4X4X-X-X-X-X<X<X<X<XwXwXwXwX1X1X1X1X3X3X3X3XwXwXwXwXwXwXwXwXwXwXwX",
"wXwXwXwXwXwXwXwXwXwXwXwXwXwXwXwXwXwXwXwXwXwXwXwXwXwX3X3X3X3X2X2X2X2X4X4X4X4X<X<X<X5X5X5X5X+X+X+X+X$X*X$X$X+X+X+X+XXXXXXXXXXXXXXXXX|.|.|.[. X X X XC C C C V V V V i i i i ` ` ` ` ) ) ) [ ........7.7.7.7.w.w.w.w.x.x.x.x.J.J.J.J.Q.Q.Q.T.T.Y.Y.Y.(.(.(.(.xXxXxXcXcXcXcXnXnXnXnX_._._._./.^.^.^.^.^.^.^.).).).).CXCXCXCXDXDXDXDXJXJXJXGXJXJXJXJXDXDXDXDXZXZXZXZXcXcXcXcX/././.^.^.^.^.^._._._._.^.^.^.^.(.(.(.(.(.(.(.(.(.(.(.(.!.!.!.!.I.I.I.G.G.G.G.G.G.G.G.G.c.c.G.e.e.e.e.w.8.8.8.k.k.k.k.2.2.2.2.1.1.1.1.6.6.6.6.........} } } } ' ' ' ' ' ' ' ' #.@.@.#.+.+.+.+.s.s.s.s.i.i.i.i.a.a.a.a.oXoXoXoX%X%X%X%XC C C C @X@X@X@X7X7X7X3X3X3X3X2X2X2X2X2X2X2X2X2X2X2X2X#X#X#X#X2X2X2X2X5X5X5X5X4X4X4X4X-X-X-X-X<X<X<X<XwXwXwXwX1X1X1X1X3X3X3X3XwXwXwXwXwXwXwXwXwXwXwX",
"wXwXwXwXwXwXwXwXwXwXwXwXwXwXwXwXwXwXwXwXwXwXwXwXwXwXwXwXwXwX1X1X1X1X<X<X<X<XwXwXwX4X4X4X4X$X$X$X$XwXwXwXwX+X+X+X+X=X=X=X=X! ! ! ! R R R R ].].].].B B B s.*.*.*.&._ _ _ _ ) ) ) ) { { } } 6.6.6.6.1.1.1.1.e.e.e.e.F.F.F.F.F.F.F.F.Q.Q.Q.Q.(.(.zXzXzXzXzXzXxXxXxXmXmXmXmXCXCXCXCXBXBXBXBXcXcXcXcX_._._._._._.cXcXZXZXZXZXJXJXJXJXKXKXKXKXKXKXKXKXJXJXJXJXFXFXFXFXCXCXCXCX^.^.^.^._._._._.nXnXnXnXnXnXnXnX(.(.(.(.vXvXvXvXxXxXxXxXT.T.T.T.!.!.R.I.I.I.I.G.G.G.G.H.G.H.H.x.x.x.x.k.k.k.k.w.w.w.w.2.4.4.4.1.1.1.1.1.1.1.1.1.1.1.1.........{ { } } ' ' ' ' #.#.#.#.[ [ [ _ B B B B +.+.+.+.B B B B V V V V A A A A R W W W |.|.|.|. X X X*X*X*X*X X X X X0X0X0X0X8X8X8X8X+X+X+X+X+X+X+X+X8X8X8X8X1X1X1X1X1X1X1X1X4X4X4X4X2X2X2X2X3X3X3X3XwXwXwXwXwXwXwXwXwXwXwXwXwXwXwX",
"wXwXwXwXwXwXwXwXwXwXwXwXwXwXwXwXwXwXwXwXwXwXwXwXwXwXwXwXwXwX1X1X1X1X<X<X<X<XwXwXwX4X4X4X4X$X$X$X$XwXwXwXwX+X+X+X+X=X=X=X=X! ! Q Q R R R R ].].].].s.s.s.s.*.*.*.*.O._ _ _ ) ) ) ) { { { { 6.6.6.6.1.1.1.1.e.e.e.e.H.H.H.H.F.F.F.F.W.W.Q.Q.zXzXzXzXzXzXzXzXzXzXxXmXmXmXmXCXCXCXCXBXBXBXBXcXcXcXcX_._._._.cXcXcXcXZXZXZXZXJXJXJXJXKXKXKXKXKXKXKXKXJXJXJXJXFXFXFXFXCXCXCXCX^.^.^.^._._.).).nXnXnXnXnXnXnXnX(.(.(.(.vXxXxXxXxXxXxXxXW.W.W.W.R.R.R.I.I.I.I.G.G.G.G.I.G.G.H.x.x.x.x.k.k.k.k.w.w.w.w.4.4.4.4.1.1.1.1.1.1.1.1.1.1.1.1.........} } } } ' ' ' ' #.#.#.#._ _ _ _ B B B s.@.@.@.@.B B B B V V V V A A A A W W W A |.|.|.|. X X X*X*X*X*XoXoXoXoX0X0X0X0X7X8X8X8X+X+X+X+X+X+X+X+X8X8X8X8X1X1X<X<X1X1X1X1X4X4X4X4X2X2X2X2X3X3X3X3XwXwXwXwXwXwXwXwXwXwXwXwXwXwXwX",
"wXwXwXwXwXwXwXwXwXwXwXwXwXwXwXwXwXwXwXwXwXwXwXwXwXwXwXwXwXwX1X1X1X1X<X<X<X<XwXwXwX4X4X4X4X$X$X$X$XwXwXwXwX+X+X+X+X=X=X=X=XQ Q ! Q W R R A ].].].].s.s.s.s.*.*.*.*._ _ _ _ ) ) ) ) { { { } 6.6.6.6.1.1.1.1.e.e.e.e.H.H.H.H.F.F.F.F.W.W.W.Q.zXzXzXzXzXzXzXzXzXzXzXmXmXmXmXCXCXCXCXBXBXBXBXcXcXcXcX_._._._.cXcXcXcXZXZXZXZXJXJXJXJXKXKXKXKXKXKXKXKXJXJXJXJXFXFXFXFXCXCXCXCX^.^.^.^._._._._.nXnXnXnXnXnXnXnX(.(.(.(.vXvXvXxXxXxXxXxXW.W.W.W.R.R.R.I.I.I.I.G.G.G.G.I.H.G.H.x.x.x.x.k.k.k.k.w.w.w.w.4.4.4.4.1.1.1.1.1.1.1.1.1.1.1.1.........} } } } ' ' ' ' #.#.#.#._ _ _ [ B B B s.@.@.@.@.B B B B V V V V A A A A W W W A |.|.|.|. X X X*X*X*X*XoXoXoXoX0X0X0X0X7X8X8X8X@X@X+X+X+X+X+X+X8X8X8X8X1X1X<X<X1X1X1X1X4X4X4X4X2X2X2X2X3X3X3X3XwXwXwXwXwXwXwXwXwXwXwXwXwXwXwX",
"wXwXwXwXwXwXwXwXwXwXwXwXwXwXwXwXwXwXwXwXwXwXwXwXwXwXwXwXwXwX1X1X1X1X<X<X<X<XwXwXwX4X4X4X4X$X$X$X$XwXwXwXwX+X+X+X+X=X=X=X=X! ! ! Q W R R A ].].].].s.s.s.s.*.*.*.*._ _ _ _ ) ) ) ) { { { } 6.6.6.6.1.1.1.1.e.e.e.e.H.H.H.F.F.F.F.F.W.Q.W.W.zXzXzXzXzXzXzX(.zXzXzXmXmXmXmXCXCXCXCXBXBXBXBXcXcXcXcX_._._._._._.cXcXZXZXZXZXJXJXJXJXKXKXKXKXKXKXKXKXJXJXJXJXGXGXFXFXCXCXCXCX^.^.^.^._.).)._.nXnXnXnXnXnXnXnX(.(.(.(.zXvXxXxXxXxXxXxXW.T.Q.W.R.R.R.I.I.I.I.G.G.G.G.I.H.H.H.x.x.x.x.k.k.k.k.w.w.w.w.4.4.4.4.1.1.1.1.1.1.1.1.1.1.1.1.........} } } { ' ' ' ' #.#.#.#._ _ _ _ B B V V @.+.+.+.B B B B V V V V A A A A W W A A |.|.|.|. X}. X*X*X*X*XoXoX X X0X0X0X0X8X8X7X8X@X@X+X+X+X+X+X+X8X8X8X8X1X1X<X<X1X1X1X1XwXwX4X4X2X2X2X2X3X3X3X3XwXwXwXwXwXwXwXwXwXwXwXwXwXwXwX",
"wXwXwXwXwXwXwXwXwXwXwXwXwXwXwXwXwXwXwXwXwXwXwXwXwXwX4X4X4X4XwXwXwXwX1X1X1X1X4X4X4X4X4X4X4XwXwXwXwX3X3X3X3X8X8X8X8XT T T T {.{.{.{. X X X|.M M M M -.-.-.-.a.a.a.s.) ) ) ) O.O.O.O.{ { { { 1.1.1.1.2.2.2.2.x.x.x.x.D.D.D.D.J.J.J.J.Y.Y.Y.Y.zXzXzXzXzXzXzXzXCXCXCXCXCXCXBXBXBXBXBXZXZXZXZXAXAXAXAXCXCXCXCXDXDXDXDXGXGXGXGXLXLXLXLXLXLXLXLXLXLXLXLXKXKXKXKXJXJXJXJXVXVXVXVX).).).).).).).).bXbXbXbXZXCXCXCXBXBXMXMXMXMXMXMXBXBXBXBXvXvXvXvX!.!.!.Y.Y.Y.Y.I.I.I.I.I.I.I.I.G.G.G.G.G.G.G.G.x.x.x.x.e.e.e.e.e.e.e.e.8.8.8.8.5.5.5.5.1.1.1.1.6.6.6.6.$.$.$.$.#.#.#.#.) ) ) ) n M M M n n n n B B B B V V V V E E E '.'.'.'.'.Z Z Z Z W R R [.[.|.[.%X%X%X%X X X X X8X9X8X8XoXoXoXoX$X$X$X$X5X5X5X5X5X5X5X5X-X-X-X-X*X*X*X*X4X4X4X4X<X<X<X<X2X2X2X2XwXwXwXwX4X4X4X4XwXwXwX",
"wXwXwXwXwXwXwXwXwXwXwXwXwXwXwXwXwXwXwXwXwXwXwXwXwXwX4X4X4X4XwXwXwXwX1X1X1X1X4X4X4X4X4X4XwXwXwXwXwX3X3X3X3X8X8X8X8XT T T T {.{.{.{. X X X XM M M M -.-.-.-.s.a.a.s.) ) ) ) O.O.O.O.{ { { { 1.1.1.1.2.2.2.2.x.x.x.x.D.D.D.D.J.J.J.J.Y.Y.Y.Y.zXzXzXzXzXzXzXzXCXCXCXnXnXnXnXBXBXBXBXZXZXZXZXAXAXAXAXCXCXCXCXDXDXDXDXGXGXGXGXLXLXLXLXLXLXLXLXLXLXLXLXKXKXKXKXJXJXJXJXVXVXVXVX).).).).).).).).bXbXbXbXCXCXZXCXMXMXMXMXMXMXvXvXBXBXBXBXvXvXvXvX!.!.!.Y.Y.Y.Y.I.I.I.I.I.G.G.G.G.G.G.G.G.G.G.G.x.x.x.x.e.e.e.e.e.e.e.e.5.8.8.8.5.5.5.5.1.1.1.1.6.6.6.%.$.$.$.$.#.#.#.#.) ) ) ) n n n n n n n n B B B B V V V V E E E '.'.'.'.'.Z Z Z Z R ! ! [.[.[.[.%X%X%X%X X X X X9X9X8X8XoXoXoXoX$X$X$X%X5X5X5X5X5X5X5X5X-X-X-X-X*X*X*X*X4X4X4X4X<X<X<X<X2X2X2X2XwXwXwXwX4X4X4X4XwXwXwX",
"wXwXwXwXwXwXwXwXwXwXwXwXwXwXwXwXwXwXwXwXwXwXwXwXwXwX4X4X4X4XwXwXwXwX1X1X1X1X4X4X4X4X4X4XwXwXwXwXwX3X3X3X3X8X8X8X8XT T T T {.{.{.{. X X X XM M M M -.-.-.=.s.a.s.s.) ) ) ) O.O.O.O.{ { { { 1.1.1.1.2.2.2.2.x.x.x.x.D.D.D.D.J.J.J.J.Y.Y.Y.Y.zXzXzXzXzXzXzXzXCXCXCXnXnXnXnXBXBXBXBXZXZXZXZXAXAXAXAXCXCXCXCXDXDXDXDXGXGXGXGXLXLXLXLXLXLXLXLXLXLXLXLXKXKXKXKXJXJXJXJXVXVXVXVX).).).).).).).).bXbXbXbXCXCXCXCXMXMXMXMXMXMXvXvXBXBXBXBXvXvXvXvX!.!.!.Y.Y.Y.Y.I.I.I.I.I.G.G.G.G.G.G.G.G.G.G.G.x.x.x.x.e.e.e.e.e.e.e.e.8.8.8.8.5.5.5.5.1.1.1.1.6.6.6.%.$.$.$.$.%.#.#.#.) ) ) ) n n n n n n n n B B B B V V V V E E E '.'.'.'.'.Z Z Z Z W ! ! [.[.[.[.%X%X%X%X X X X X9X9X8X8XoXoXoXoX$X$X$X%X5X5X5X5X5X5X5X5X-X-X-X-X*X*X*X*X4X4X4X4X<X<X<X<X2X2X2X2XwXwXwXwX4X4X4X4XwXwXwX",
"wXwXwXwXwXwXwXwXwXwXwXwXwXwXwXwXwXwXwXwXwXwXwXwXwXwX4X4X4X4XwXwXwXwX2X1X1X1X4X4X4X4X4X4XwXwXwXwXwX3X3X3X3X8X8X8X8XT T T T {.{.{.{. X X X XM M M M -.-.-.=.s.s.s.s.) ) ) ) O.[ [ O.{ { { { 1.1.1.1.2.2.2.2.x.x.u.x.D.D.D.D.J.J.J.J.Y.Y.Y.Y.zXzXzXzXzXzXzXzXCXCXCXnXBXnXnXBXBXBXBXZXZXZXZXAXAXAXAXCXCXCXCXDXDXDXDXGXGXGXGXLXLXLXLXKXKXLXLXLXLXLXLXKXKXKXKXJXJXJXJXVXVXVXVX).).).).).).).).bXbXbXbXCXCXCXCXnXnXMXMXMXvXMXvXBXBXBXBXvXvXvXvX!.!.!.Y.Y.Y.Y.I.I.I.I.I.G.G.G.G.G.G.G.G.G.G.G.x.x.x.x.e.e.e.e.e.e.e.e.8.8.8.5.5.5.5.5.1.1.1.1.6.6.%.%.$.$.$.$.%.%.#.#.) ) ) ) n n n n n n n n B B B B V V V V E E E E '.'.'.'.Z Z Z Z R ! ! |.|.[.[.%X%X%X%X X X X X9X9X8X8XoXoXoX+X$X$X$X%X5X5X5X5X5X5X5X5X-X-X-X-X*X*X*X*X4X4X4X4X<X<X<X<X2X2X2X2XwXwXwXwX4X4X4X4XwXwXwX",
"wXwXwXwXwXwXwXwXwXwXwXwXwXwXwXwXwXwXwXwXwXwXwXwXwXwXwXwXwXwXwXwXwXwX3X3X3X3XwXwXwX<X<X<X<X*X*X*X*X*X*X*X*X<X<X<X<X].].].].'.'.'.'.E E E E Z C C C *.*.*.*.s.s.s.s.O.O.O.O.) ) ) ) #.#.#.#.;.;.;.;.8.8.8.8.e.e.e.e.D.D.D.D.F.F.F.F.Q.Q.Q.Q.(.(.(.(.nXnXnXnXbXbXbXZXZXZXZXZXZXZXZXDXDXDXDXGXGXGXFXFXFXDXDXJXJXJXJXKXKXKXKXLXLXLXLXLXLXLXLXLXLXLXLXLXLXLXLXKXKXKXKXGXGXGXGXVXVXVXVXxXxXxXxXCXCXCXCXDXDXDXDXZXZXZXZXMXMXMXMXMXMXMXMXbXbXbXbXMXMXMXjXjXjXjXY.Y.Y.Y.I.I.I.I.I.I.I.I.H.H.H.H.H.H.H.H.H.H.H.H.x.x.x.x.x.x.x.x.w.w.w.w.2.2.2.2.1.1.1.1...X.X.;.| | } } O.O.O.O.+.+.+.+.i =.i i Z Z C Z B M B B ].].].].! W W W Z Z Z Z Z Z Z [.[.[.[.E E E E =X=X=X=X[.[.[.[.=X=X=X*X+X+X+X+X7X7X7X7X-X-X-X-X2X2X2X2X5X5X5X5X2X2X2X2X4X4X4X4XwXwXwXwXwXwXwXwX4X4X4X4XwXwXwX",
"wXwXwXwXwXwXwXwXwXwXwXwXwXwXwXwXwXwXwXwXwXwXwXwXwXwXwXwXwXwXwXwXwXwX3X3X3X3XwXwXwX<X<X<X<X*X*X*X*X*X*X*X*X<X<X<X<X].].].].'.'.'.'.E E E E Z C C C &.*.*.*.s.s.s.s.O.O.O.O.) ) ) ) #.#.#.#.;.;.;.;.8.8.8.8.e.e.e.e.D.D.D.D.F.F.F.F.Q.Q.Q.Q.(.(.(.(.nXnXnXnXbXbXbXAXAXAXAXZXZXZXZXDXDXDXDXFXFXFXFXFXFXFXFXJXJXJXJXKXKXKXKXLXLXLXLXLXLXLXLXLXLXLXLXLXLXLXLXKXKXKXKXGXGXGXGXVXVXVXVXxXxXxXxXCXCXCXCXDXDXDXDXZXZXZXZXMXMXMXMXvXvXvXvXbXbXbXbXMXMXMXjXjXjXjXY.Y.Y.Y.I.I.I.I.I.I.I.I.H.H.H.H.H.H.H.H.H.H.H.H.x.x.x.x.x.x.x.x.w.w.w.w.2.2.2.2.1.1.1.1.o.X.X.;.| | } } O.O.O.O.+.+.+.+.i =.=.=.C Z Z C B B B B ].].].].W W W ! Z Z Z Z Z Z Z [.[.[.[.E E E E =X=X$X$X].[.[.[.=X=X*X*X+X+X+X+X7X7X7X7X-X-X-X-X2X2X2X2X5X5X5X5X2X2X2X2X4X4X4X4XwXwXwXwXwXwXwXwX4X4X4X4XwXwXwX",
"wXwXwXwXwXwXwXwXwXwXwXwXwXwXwXwXwXwXwXwXwXwXwXwXwXwXwXwXwXwXwXwXwXwX3X3X3X3XwXwXwX<X<X<X<X*X*X*X*X*X*X*X*X<X<X<X<X].].].].'.'.'.'.E E E E Z Z Z C &.&.*.*.s.s.s.V O.O.O.O.) ) ) ) #.#.#.#.;.;.;.;.8.8.8.8.e.e.e.e.D.D.D.D.F.F.F.F.Q.Q.Q.Q.(.(.(.(.nXnXnXnXbXbXbXAXAXAXAXZXZXZXZXDXDXDXDXFXFXFXFXFXFXFXFXJXJXJXJXKXKXKXKXLXLXLXLXLXLXLXLXLXLXLXLXLXLXLXLXKXKXKXKXGXGXGXGXVXVXVXVXxXxXxXzXCXCXCXCXDXDXDXDXZXZXZXZXMXMXMXMXvXvXvXvXbXbXbXbXMXMXMXjXjXjXjXY.Y.Y.Y.I.I.I.I.I.I.I.I.H.H.H.H.H.H.H.H.H.H.H.H.x.x.x.x.x.x.x.x.w.w.w.w.2.2.2.2.1.1.1.1.o.X.o.;.| | } } O.O.O.O.+.+.+.+.i =.=.=.C Z Z Z B B B B ].].].].W W W ! Z Z Z Z Z Z Z [.[.[.[.E E E E =X=X$X$X].[.[.[.=X=X*X*X+X+X+X+X7X7X7X7X-X-X-X-X2X2X2X2X5X5X5X5X2X2X2X2X4X4X4X4XwXwXwXwXwXwXwXwX4X4X4X4XwXwXwX",
"wXwXwXwXwXwXwXwXwXwXwXwXwXwXwXwXwXwXwXwXwXwXwXwXwXwXwXwXwXwXwXwXwXwX3X3X3X3XwXwXwX<X<X<X<X*X*X*X*X*X*X*X*X<X<X<X<X].].].].'.'.'.'.E E E E Z Z Z C *.*.*.*.s.s.s.V O.O.O.O.) ) ) ) #.#.#.#.;.;.;.;.8.8.8.8.e.e.e.e.D.D.D.D.F.F.F.F.Q.Q.Q.Q.(.(.(.(.nXnXnXnXbXbXbXAXAXAXAXZXZXZXZXDXDXDXDXFXFXFXFXFXFXFXFXJXJXJXJXKXKXKXKXLXLXLXLXLXLXLXLXLXLXLXLXLXLXLXLXKXKXKXKXGXGXGXGXVXVXVXVXxXxXxXzXCXCXCXCXDXDXDXDXZXZXZXZXMXMXMXMXMXMXvXvXbXbXbXbXMXMXMXjXjXjXzXY.Y.Y.Y.I.Y.Y.I.I.I.I.I.H.H.H.H.H.H.H.H.H.H.H.H.x.x.x.x.x.x.x.x.w.w.w.w.2.2.2.2.1.1.1.1.o.o.o.o.} } } } O.O.O.O.+.+.+.+.i =.i i C Z Z Z B B B B ].].].].W W W W Z Z Z Z Z Z Z [.[.[.[.E E E E $X=X$X$X[.[.[.[.=X=X=X=X+X+X+X+X7X7X7X7X-X-X-X-X2X2X2X2X5X5X5X5X2X2X2X2X4X4X4XwXwXwXwXwXwXwXwXwX4X4X4X4XwXwXwX",
"wXwXwXwXwXwXwXwXwXwXwXwXwXwXwXwXwXwXwXwXwXwXwXwXwXwXwXwXwXwX4X4X4X4XwXwXwXwXwXwXwX4X4X4X4X4X4X4XwX7X7X7X7X4X4X4X4X}.}.}.}.$X$X$X$X[.[.[.[.[.[.[.[.W Q W W a.a.a.a.) ) ) ) [ [ [ [ $.$.$.$.o.o.o...2.2.2.4.k.k.e.e.D.D.D.D.J.J.J.J.L.L.L.Y.(.(.zX(.zXzXzXzXBXMXMXZXZXZXZXDXDXDXDXDXDXDXDXJXJXJXJXGXGXGXGXKXKXKXKXLXLXLXLXLXLXLXLXLXLXLXLXLXLXLXLXLXLXLXLXLXLXLXLXJXJXJXJXGXGXGXGXAXAXZXZXCXCXCXCXVXVXVXVXGXGXGXGXDXDXDXDXDXDXDXDXVXVXVXVXnXbXbXzXzXzXzXzXzXzXzXzXzXzXzXR.R.R.R.!.!.!.!.Y.Y.Y.Y.J.J.J.J.J.J.J.J.x.x.x.D.u.u.u.u.e.e.e.e.4.4.4.5.1.;.;.;.$.$.$.$.{ [ [ [ =.=.=.=._ _ _ _ n n n n B B B B m m m m B B B B M M M M B B B B B B B C C C C C C C C %X%X%X%X%X%X%X%X[.[.[.[.0X0X0X0X8X8X8X8X$X$X$X$X1X1X1X1X>X>X>X>X>X>X>X>X<X<X<X<X3X3X3X3XwXwXwXwXwXwXwX",
"wXwXwXwXwXwXwXwXwXwXwXwXwXwXwXwXwXwXwXwXwXwXwXwXwXwXwXwXwXwX4X4X4X4XwXwXwXwXwXwXwX4X4X4X4XwX4X4XwX>X>X>X7X4X4X4X4X}.}.}.}.$X$X$X$X[.[.[.[.[.[.[.[.W W W W a.a.a.a.) ) ) ) [ [ [ [ $.$.$.$.$.......2.2.2.2.k.e.e.e.D.D.D.D.F.J.J.J.L.L.L.L.(.(.(.(.zXzXzXzXnXMXMXZXZXZXZXDXDXDXDXDXDXFXFXJXJXJXJXGXGXGXJXKXKXKXKXLXLXLXLXLXLXLXLXLXLXLXLXLXLXLXLXLXLXLXLXLXLXLXLXJXJXJXJXGXGXGXGXAXAXAXAXCXCXCXCXVXVXVXVXGXGXGXGXDXDXDXDXDXDXDXDXVXVXVXVXnXnXnXzXzXzXzXzXzXzXzXzXzXzXzXR.R.R.R.!.!.!.!.Y.Y.Y.Y.J.J.J.J.J.J.J.J.x.x.x.D.u.u.u.u.e.e.e.e.4.4.4.4.1.;.;.1.$.$.$.$.[ { { { =.=.=.=._ _ _ _ n n n n B B B B m n n n B B B B M M M M B B B B B B B C C C C C C C C %X%X%X@X%X%X%X%X[.[.[.[.0X0X0X0X8X8X8X8X$X$X$X$X1X1X1X1X>X>X>X>X>X>X>X>X<X<X<X<X3X3X3X3XwXwXwXwXwXwXwX",
"wXwXwXwXwXwXwXwXwXwXwXwXwXwXwXwXwXwXwXwXwXwXwXwXwXwXwXwXwXwX4X4X4X4XwXwXwXwXwXwXwX4X4X4X4XwX4X4XwX>X>X>X7X4X4X4X4X}.}.}.}.$X$X$X$X[.[.[.[.[.[.[.[.W W W W a.a.a.a.) ) ) ) { [ [ [ $.$.$.$.........2.2.2.2.k.e.e.e.D.D.D.D.F.J.J.F.L.L.L.L.(.(.(.(.zXzXzXzXnXnXnXZXZXZXZXDXDXDXDXDXDXFXFXJXJXJXJXGXGXGXGXKXKXKXKXLXLXLXLXLXLXLXLXLXLXLXLXLXLXLXLXLXLXLXLXLXLXLXLXJXJXJXJXGXGXGXGXAXAXAXAXCXCXCXCXVXVXVXVXGXGXGXGXDXDXDXDXDXDXDXDXVXVXVXVXnXnXnXzXzXzXzXzXzXzXzXzXzXzXzXY.R.R.R.!.!.!.!.Y.Y.Y.Y.J.J.J.J.J.J.J.J.x.x.x.x.u.u.u.u.e.e.e.e.4.4.4.4.1.;.;.;.$.$.$.$.{ { { { =.=.=.=._ _ _ _ n n n n B B B B m n n n B B B B M M M M B B B B B B B C C C C C C C C %X%X@X@X%X%X%X%X[.[.[.[.0X0X0X0X8X8X8X8X$X$X$X$X1X1X1X1X>X>X>X>X>X>X>X>X<X<X<X<X3X3X3X3XwXwXwXwXwXwXwX",
"wXwXwXwXwXwXwXwXwXwXwXwXwXwXwXwXwXwXwXwXwXwXwXwXwXwXwXwXwXwX4X4X4X4XwXwXwXwXwXwXwX4X4X4XwXwX4X4X4X-X>X>X7X4X4X4X4X}.}.}.}.$X$X$X$X[.[.[.[.[.[.[.[.T W W W a.a.a.a.) ) ) ) [ [ [ { $.$.$.$.$.$.....2.2.2.2.k.k.e.e.D.D.D.D.F.F.J.J.Y.Y.Y.L.(.(.(.(.zXzXzXzXnXnXnXZXZXZXZXDXDXDXDXDXFXFXFXJXJXJXJXGXGXGXGXKXKXKXKXLXLXLXLXLXLXLXLXLXLXLXLXLXLXLXLXLXLXLXLXLXLXLXLXJXJXJXJXGXGXGXGXAXAXAXAXCXCXCXCXVXVXVXVXGXGXGXGXDXDXDXDXDXDXDXDXVXVXVXVXMXMXMXzXzXzXzXzXzXzXzXzXzXzXzXY.R.R.R.!.!.!.!.Y.Y.Y.Y.J.J.J.J.J.J.J.J.x.x.x.x.u.u.u.u.e.e.e.e.4.4.4.4.;.;.;.1.$.$.$.$.{ { { { =.=.=.=._ _ _ _ n n n n V V V B m n n n B B B B M M M M B B B B B B B C C C C C C C C %X%X%X%X%X%X%X%X[.[.[.[.0X0X0X0X8X8X8X8X$X$X$X$X1X1X1X1X>X>X>X>X>X>X>X>X<X<X<X<X3X3X3X3XwXwXwXwXwXwXwX",
"wXwXwXwXwXwXwXwXwXwXwXwXwXwXwXwXwXwXwXwXwXwXwXwXwXwXwXwXwXwX4X4X4X4XwXwXwXwX2X2X2X<X<X<X<X;X-X-X;X4XwXwXwX>X>X8X8X3X2X2X2X[.[.[.[.%X%X%X%X! ! ! ! Q Q Q Q a.a.a.a.) ) ) ) #.#.#.#.} } } } 6.1.1.1.5.5.5.5.e.e.e.e.D.D.D.D.F.F.H.H.K.K.K.K.(.(.(.(.vXvXvXvXbXbXbXZXZXZXZXVXVXVXVXDXDXDXDXJXJXJXJXHXHXHXHXKXKXKXKXLXLXLXLXLXLXLXLXLXLXLXLXLXLXLXLXLXLXLXLXkXkXkXkXC.C.C.C.B.B.Z.Z.r.r.r.r.Z.B.Z.Z.ZXZXZXVXDXDXDXDXFXFXFXFXDXDXDXDXFXDXDXDXVXVXVXBXNXNXNXvXvXvXxXzXzXzXjXzXzXzXzXzXzXzXzXjXjXjXjXR.R.R.R.R.R.R.R.Y.Y.Y.Y.H.H.H.H.D.D.D.D.8.8.8.8.8.8.8.w.6.6.6.6.......| { { { { { { { { ' ' ' ' *.*.*.*.*.*.*.*.*.*.*.*.s.s.s.s.T T T ! ! ! ! ! ! ! ! W W W W ! ! ! ! *X*X*X*X@X@X@X@X@X@X@X@X8X8X8X8X*X*X*X*X2X2X2X2X*X*X*X*X4X4X4X4X2X2X2X2X2X2X2X2XwXwXwXwXwXwXwX",
"wXwXwXwXwXwXwXwXwXwXwXwXwXwXwXwXwXwXwXwXwXwXwXwXwXwXwXwXwXwX4X4X4X4XwXwXwXwX2X2X2X<X<X<X<X;X;X;X;X4X4XwXwX>X>X>X>X3X3X2X2X[.[.[.[.#X#X#X#X! ! ! ! Q Q Q Q p.p.a.a.) ) ) ) @.@.@.@.} } } } 1.1.1.1.5.5.5.5.e.e.e.e.D.D.D.D.F.F.F.F.K.K.K.K.(.(.(.(.vXvXvXxXbXbXbXAXZXZXZXVXVXVXVXDXDXDXDXJXJXJXJXHXHXHXHXKXKXKXKXLXLXLXLXLXLXLXLXLXLXLXLXLXLXLXLXLXLXLXLXkXkXkXkXC.C.C.C.r.r.r.r.r.r.r.r.B.r.r.r.ZXZXZXZXDXDXDXDXFXFXFXFXDXDXDXDXDXDXDXDXVXVXVXBXBXBXBXvXvXvXxXzXjXjXjXzXzXzXzXzXzXzXzXjXjXjXjXR.R.R.R.R.R.R.R.Y.Y.Y.Y.H.H.H.H.x.D.D.x.8.8.8.8.8.w.8.8.6.6.6.6.#.#.....{ { { { { { { { ' ' ) ) +.+.+.+.*.*.*.&.*.*.-.-.s.s.s.s.T T T ! ! ! ! ! ! ! ! W W W W ! ! ! ! *X*X*X=X@X@X+X@X@X@X@X@X8X8X8X8X*X*X*X*X2X2X2X2X*X*X*X*X4X4X4X4X2X2X2X2X2X2X2X2XwXwXwXwXwXwXwX",
"wXwXwXwXwXwXwXwXwXwXwXwXwXwXwXwXwXwXwXwXwXwXwXwXwXwXwXwXwXwX4X4X4X4XwXwXwXwX2X2X2X<X<X<X<X;X;X;X;XwXwXwXwX>X>X>X>X2X3X3X2X[.[.[.[.#X#X#X#X! ! ! ! Q Q Q Q p.p.p.a.) ) ) ) @.@.@.@.} } } } 1.1.1.1.5.5.5.5.e.e.e.e.D.D.D.D.F.F.F.F.K.K.K.K.(.(.(.(.vXvXvXxXbXbXbXAXZXZXZXVXVXVXVXDXDXDXDXJXJXJXJXHXHXHXHXKXKXKXKXLXLXLXLXLXLXLXLXLXLXLXLXLXLXLXLXLXLXLXLXkXkXkXkXC.C.C.C.r.r.r.r.r.r.r.r.B.r.r.r.ZXZXZXZXDXDXDXDXFXFXFXFXDXDXDXDXDXDXDXDXVXVXVXBXBXBXBXvXvXvXxXzXjXjXjXzXzXzXzXzXzXzXzXjXjXjXjXR.R.R.R.R.R.R.R.Y.Y.Y.Y.H.H.H.H.x.D.D.x.8.8.8.8.8.w.8.8.6.6.6.6.#.#.| ..{ { { { { { { { ' ' ' ' +.+.+.+.*.*.*.&.-.-.-.*.s.s.s.s.T T T ! ! ! ! ! ! ! ! W W W W ! ! ! ! =X*X*X=X@X@X+X+X@X@X@X@X8X8X8X8X*X*X*X*X2X2X2X2X*X*X*X*X4X4X4X4X2X2X2X2X2X2X2X2XwXwXwXwXwXwXwX",
"wXwXwXwXwXwXwXwXwXwXwXwXwXwXwXwXwXwXwXwXwXwX4X4X4X4XwXwXwXwXwXwXwXwXwXwXwXwX1X1X1X<X<X<X<X-X-X-X-X>X>X>X7X*X*X*X*X1X1X1X1X@X@X@X@X$X$X$X%XQ Q Q Q *.*.*.*.` O.O.O.` ` ` ` { { { { } } } } ;.;.;.;.8.w.w.w.y.e.e.e.D.D.D.D.F.D.F.F.T.T.T.T.Y.Y.Y.Y.zXzXzXzXnXBXBXMXMXMXMXVXVXDXDXZXZXAXAXFXFXFXFXHXJXHXHXLXLXLXLXLXLXLXLXLXLXLXLXLXLXLXLXkXkXkXkXLXLXLXLXK.K.K.K.L.L.L.L.q.q.q.q.0.0.0.0.<.<.z z r.r.q.q.q.q.q.r.q.q.q.q.r.r.r.r.q.q.q.q.VXVXVXDXDXDXDXDXDXDXDXvXvXvXvXvXvXvXvXbXbXbXbXbXbXbXbXbXbXbXbXR.R.R.R.R.R.R.R.Y.Y.Y.Y.G.G.G.G.k.k.k.k.8.w.8.w.7.7.7.7.7.7.7.7.........| | | | ' ' ' ' *.%.%.*.*.*.*.*.-.-.-.-.-.-.-.-.*.*.*.*.=.-.-.B B M M Q Q Q Q oXoXoXoX].].].].[.[.|.|.oXoXoXoX2X2X2X2X*X*X*X*X$X$X$X$X4X4X4X4X2X2X2X2X2X2X2X2X4X4X4X4X3X3X3X3X4X4X4X",
"wXwXwXwXwXwXwXwXwXwXwXwXwXwXwXwXwXwXwXwXwXwX4X4X4X4XwXwXwXwXwXwXwXwXwXwXwXwX1X1X1X<X<X<X<X-X-X-X-X>X>X>X7X*X*X*X*X1X1X1X1X@X@X@X@X$X$X$X%XQ Q Q Q *.*.*.*.O.O.O.O.` ` ` ` { { { { } } } } ;.;.;.;.8.w.w.w.y.e.e.e.D.D.D.D.F.F.F.F.T.T.T.T.Y.Y.Y.Y.zXzXzXzXnXBXBXMXMXMXMXVXVXDXDXZXZXAXAXFXFXFXFXJXJXHXHXLXLXLXLXLXLXLXLXLXLXLXLXLXLXLXLXkXkXkXkXLXLXLXLXK.K.K.K.L.L.L.L.q.q.q.q.0.0.0.0.<.<.<.z r.r.r.r.q.q.q.q.q.q.q.q.r.r.r.r.q.q.q.q.VXZXZXDXDXDXDXDXDXDXDXvXvXvXvXvXvXvXvXbXbXbXbXbXbXbXnXbXvXbXbXR.R.R.R.R.R.R.R.Y.Y.Y.Y.G.G.G.G.k.k.k.k.8.w.w.w.7.7.7.7.7.7.7.7.........| | | | ' ' ' ' *.%.%.*.*.*.*.*.-.-.-.-.-.-.-.-.*.*.*.=.=.-.-.B B M M Q Q Q Q oXoXoXoX].].].].[.[.|.|.@XoXoXoX2X2X2X2X*X*X*X*X$X$X$X$X4X4X4X4X2X2X2X2X2X2X2X2X4X4X4X4X3X3X3X3X4X4X4X",
"wXwXwXwXwXwXwXwXwXwXwXwXwXwXwXwXwXwXwXwXwXwX4X4X4X4XwXwXwXwXwXwXwXwXwXwXwXwX1X1X1X<X<X<X<X-X-X-X-X7X7X7X7X*X*X*X*X1X1X1X1X@X@X@X@X$X$X$X%XQ Q Q Q *.*.&.&.O.O.O.O.` ` ` ` { { { [ } } } { ;.;.;.;.8.w.w.8.e.e.e.e.D.D.D.D.F.F.F.F.T.T.T.T.Y.Y.Y.Y.zXzXzXzXBXBXBXMXMXMXMXDXDXDXDXZXAXZXZXFXFXFXFXJXJXHXHXLXLXLXLXLXLXLXLXLXLXLXLXLXLXLXLXkXkXgXgXLXLXLXLXK.K.K.K.Y.Y.L.L.q.q.q.q.9.9.0.0.<.0.0.z r.r.r.r.r.r.r.r.q.q.q.q.r.r.r.r.q.q.q.q.VXVXVXFXDXDXDXDXDXDXDXvXvXvXvXvXvXvXvXbXbXbXbXbXnXnXnXbXvXbXbXR.R.R.R.R.R.R.R.Y.Y.Y.I.G.G.G.G.k.k.k.k.w.8.8.8.7.7.7.7.7.7.7.7.........| | | | ' ' ' ' *.*.*.*.*.*.*.*.-.%.%.%.-.-.-.-.*.*.*.*.*.-.-.B B B B Q Q Q Q oXoXoXoX].].].].[.[.[.[.oXoXXXoX2X2X2X2X*X*X*X*X$X$X$X$X4X4X4X4X2X2X2X2X2X2X2X2X4X4X4X4X3X3X3X3X4X4X4X",
"wXwXwXwXwXwXwXwXwXwXwXwXwXwXwXwXwXwXwXwXwXwX4X4X4X4XwXwXwXwXwXwXwXwXwXwXwXwX1X1X1X<X<X<X<X-X-X-X-X7X7X7X7X*X*X*X*X1X1X1X1X@X@X@X@X$X$X$X$XQ Q Q Q *.&.&.*.O.O.O.O.` ` ` ` { #.#.[ } } } { ;.;.;.;.8.w.w.8.e.e.e.e.D.D.D.D.F.F.F.F.T.T.T.T.Y.Y.Y.Y.zXzXzXzXnXBXBXMXMXMXMXDXDXDXDXZXAXAXAXFXFXFXFXJXJXHXHXLXLXLXLXLXLXLXLXLXLXLXLXLXLXLXLXkXkXgXgXLXLXLXLXK.K.K.K.L.L.L.L.q.q.q.q.9.9.0.9.<.0.z z q.q.r.r.r.r.r.r.q.q.q.q.r.r.r.r.q.q.q.q.VXVXVXFXDXDXDXDXDXDXDXvXvXvXvXvXvXvXvXbXbXbXvXbXbXbXnXbXvXbXbXR.R.R.R.R.R.R.R.Y.Y.Y.Y.G.G.G.G.k.k.k.e.w.8.w.w.7.7.7.7.7.7.7.7.........| | | | ' ' ' ' *.*.%.*.*.*.*.*.-.%.%.%.-.-.-.-.*.*.*.*.*.-.-.B B B B Q Q Q Q oXoXoXoX].].].].|.[.[.[.oXoXXXoX2X2X2X2X*X*X*X*X$X$X$X$X4X4X4X4X2X2X2X2X2X2X2X2X4X4X4X4X3X3X3X3X4X4X4X",
"wXwXwXwXwXwXwXwXwXwXwXwXwXwX4X4X4X4X4X4X4X4X3X3X3X3X3X3X3X3X2X2X2X2XwXwXwXwXwXwXwXwXwXwXwX<X<X<X<X2X2X2X2X5X5X5X5X}.}.}.}. X X X XE E E E Q Q Q Q *.*.*.*.-.-.-.*.@.@.@.@.` ` ` ` { #.#.#.6.1.1.1.4.4.4.4.y.y.y.y.F.F.F.F.F.F.D.D.K.K.K.K.Q.Q.Q.Q.xXxXvXxXzXzXzXZXZXZXZXAXAXAXDXZXZXZXZXFXFXFXFXJXJXJXJXLXLXLXLXLXLXLXLXLXLXLXLXLXLXLXLXsXgXgXgXP.P.P.T.Q.Q.Q.Q.T.Q.Q.Q.T.T.T.Q.D.D.D.D.z z z z q.q.q.q.q.q.q.q.0.0.0.>.z z z c z z z z q.q.q.r.q.q.q.q.r.r.r.q.q.q.q.q.q.q.q.q.q.q.q.MXMXMXMXMXMXMXBXjXjXjXjXR.R.R.R.R.R.R.R.Y.R.R.Y.x.x.x.x.k.k.k.k.8.w.w.w.5.5.5.5.6.6.6.6.;.;.;.;.$.$.$.$.' ' ' ' ) ) ) ) ) ) ) ) *.*.*.*.p.p.p.*.*.*.*.M M M M m m m m %X%X%X%XE E E E 9X9X8X8X3X3X3X3X=X=X=X=X-X-X-X-X*X*X*X*X4X4X4X4X4X4X4X4X4X4X4X4X4X4X4X4XwXwXwXwX4X4X4X",
"wXwXwXwXwXwXwXwXwXwXwXwXwXwX4X4X4X4X4X4X4X4X3X3X3X3X3X3X3X3X2X2X2X2XwXwXwXwXwXwXwXwXwXwXwX<X<X<X<X2X2X2X2X5X5X5X5X}.}.}.}. X X X XE E E E Q Q Q Q *.*.*.*.-.-.-.*.@.@.@.@.` ` ` ` { { #.#.6.1.1.1.4.4.4.4.y.y.y.y.F.F.F.F.F.F.D.D.K.K.K.K.Q.Q.Q.Q.xXvXvXxXzXzXzXZXZXZXZXAXAXAXDXZXZXZXZXFXFXFXFXJXJXJXJXLXLXLXLXLXLXLXLXLXLXLXLXLXLXLXLXkXgXgXgXP.P.P.T.Q.Q.Q.Q.T.Q.Q.Q.T.T.Q.Q.D.D.D.D.z z z z q.q.q.q.q.q.q.q.0.0.>.>.z z c c z z z z q.q.0.r.q.q.r.r.r.r.r.q.q.q.q.q.q.q.q.q.q.q.q.MXMXMXMXBXBXMXMXjXjXjXjXR.R.R.R.R.R.R.R.Y.Y.Y.Y.x.x.x.x.k.k.k.k.8.8.8.w.5.5.5.5.6.6.6.6.;.;.;.;.$.$.$.$.' ' ' ' ) ) ) ) ) ) ) ) *.*.*.*.p.p.p.*.*.*.*.M M M M m m m m %X%X%X%XE E E E 9X9X8X8X3X3X3X3X=X=X=X=X-X-X-X-X*X*X*X*X4X4X4X4X4X4X4X4X4X4X4X4X4X4X4X4XwXwXwXwX4X4X4X",
"wXwXwXwXwXwXwXwXwXwXwXwXwXwX4X4X4X4X4X4X4X4X3X3X3X3X3X3X3X3X2X2X2X2XwXwXwXwXwXwXwXwXwXwXwX<X<X<X<X2X2X2X2X5X5X5X5X}.}.}.}. X X X XE E E E Q Q Q Q *.=.=.=.*.*.*.*.@.@.@.@.` ` ` ` | | | | 1.1.1.1.4.4.4.4.y.y.y.y.F.F.F.F.F.D.D.D.K.K.K.K.Q.Q.Q.Q.xXxXxXxXzXzXzXZXZXZXZXAXAXAXAXZXZXZXZXFXFXFXFXJXJXJXJXLXLXLXLXLXLXLXLXLXLXLXLXLXLXLXLXkXkXkXkXQ.T.T.T.Q.Q.Q.Q.Q.Q.Q.Q.T.T.T.T.D.D.D.D.z z z z 9.9.9.9.9.9.q.q.z >.>.>.z z z z z z z z q.q.q.q.q.r.q.r.r.r.r.q.q.q.r.q.q.q.q.q.q.q.q.MXMXMXMXBXMXMXBXjXjXjXjXR.R.R.R.R.R.R.R.Y.Y.Y.Y.x.x.x.c.k.k.k.k.w.w.w.8.5.5.5.5.6.6.6.6.;.;.;.;.$.$.$.$.' ' ' ' ) ) ) ) ) ) ) ) *.*.*.*.p.p.p.@.@.@.@.M M M M m m m m %X%X%X%XE E ! ! 8X8X8X8X3X3X3X3X=X=X=X=X-X-X-X-X*X*X*X*X4X4X4X4X4X4X4X4X4X4X4X4X4X4X4X4XwXwXwXwX4X4X4X",
"wXwXwXwXwXwXwXwXwXwXwXwXwXwX4X4X4X4X4X4X4X4X3X3X3X3X3X3X3X3X2X2X2X2XwXwXwXwXwXwXwXwXwXwX4X<X<X<X<X2X2X2X2X5X5X5X5X}.}.}.}. X X X XE E E E Q Q Q Q =.=.=.-.*.*.*.*.@.@.@.@.` ` ` ` | | | | 1.1.1.1.4.4.4.4.y.y.y.y.F.F.F.F.F.D.D.D.K.K.K.K.Q.Q.Q.Q.xXxXxXxXzXzXzXZXZXZXZXAXAXAXAXZXZXZXZXFXFXFXFXJXJXJXJXLXLXLXLXLXLXLXLXLXLXLXLXLXLXLXLXkXkXkXkXT.T.T.T.Q.Q.Q.Q.Q.Q.Q.Q.T.T.T.T.D.D.D.D.z z z z 9.9.9.9.9.9.q.q.z >.>.>.z z z z z z z z q.q.q.q.q.q.q.r.r.r.r.q.q.q.r.q.q.q.q.q.q.q.q.MXMXMXMXBXMXMXBXjXjXjXjXR.R.R.R.R.R.R.R.Y.Y.Y.Y.c.x.x.c.k.k.k.k.w.w.w.8.3.5.5.5.6.6.6.6.;.;.;.;.$.$.$.$.' ' ' ' ) ) ) ) ) ) ) ) *.*.*.*.i.p.p.*.@.@.@.M M M M m m m m %X%X%X%X! ! ! ! 8X8X8X8X3X3X3X3X=X=X=X=X-X-X-X-X*X*X*X*X4X4X4X4X4X4X4X4X4X4X4X4X4X4X4X4XwXwXwXwX4X4X4X",
"wXwXwXwXwXwXwXwXwXwX4X4X4X4X3X3X3X3X4X4X4X4XwXwXwXwXwXwXwXwX<X<X<X<XwXwXwXwXwXwXwXwXwXwX4X*X*X*X*X7X7X7X7X*X*X*X*X*X*X*X*X;X;X;X;X=X=X=X=XC C C C C C C C V V V V a.a.a.a.O.O.O.O.%.%.%.%.;.;.;.;.1.1.1.1.k.k.k.k.D.D.D.D.H.H.H.H.K.K.K.K.Y.Y.Y.Y.zXzXzXzXzXzXzXBXBXBXBXVXVXVXVXAXAXAXAXFXFXDXFXFXFXFXFXKXKXKXKXLXLXLXLXLXLXLXLXL.L.L.L.K.K.K.K.(.(.(.(.J.J.J.J.Q.Q.Q.Q.Q.Q.Q.Q.(.(.(.(.y y y y p p p p b.b.b.b.n.n.n.n.M.M.M.M.M.M.M.M.l z k z z z z z z z z z z z z k j j j j j j j j l l l MXMXMXMXMXvXvXMXzXzXzXzXR.R.R.R.!.!.!.!.R.Y.Y.Y.c.c.x.x.k.k.k.k.w.w.w.w.5.5.5.5.1.1.1.1.2.6.6.2.} } } } ' ] ' ' O.O.O.@.i.i.i.i.=.=.=.s.s.s.s.C C C C Z Z Z Z  X X X X*X*X*X*X*X*X=X=X7X7X7X7X2X2X2X2X5X5X5X5X4X4X4X4X4X4X4X4X<X<X<X<X<X<X<X<X1X1X1X1X3X3X3X3XwXwXwX",
"wXwXwXwXwXwXwXwXwXwX4X4X4X4X3X3X3X3X4X4X4X4XwXwXwXwXwXwXwXwX<X<X<X<XwXwXwXwXwXwXwXwXwXwX4X*X*X*X*X7X7X7X7X*X*X*X*X*X*X*X*X;X;X;X;X=X=X%X=XC C C C C C C C V V V V a.a.a.a.O.O.O.O.%.%.%.%.;.;.;.;.1.1.1.1.k.k.k.k.D.D.D.D.H.H.H.H.K.K.K.K.Y.Y.Y.Y.zXzXzXzXzXzXzXBXBXBXBXVXVXVXVXAXAXAXAXFXFXDXDXFXFXFXFXKXKXKXKXLXLXLXLXLXLXLXLXL.L.L.L.K.K.K.K.(.(.(.(.J.J.J.J.Q.Q.Q.Q.Q.Q.Q.Q.(.(.(.(.y y y y p p p p b.b.b.b.n.n.n.n.M.M.M.M.M.M.M.M.k k k z z z z z z z z z z z z k j j j j j j j j l l l MXMXMXMXvXvXvXvXzXzXzXzXR.R.R.R.!.!.!.!.R.Y.Y.Y.c.c.x.x.k.k.k.k.w.w.w.w.5.5.5.5.1.1.1.1.2.6.6.6.} } } } ' ] ' ' O.O.O.@.i.i.i.i.=.=.=.s.s.s.s.C C C C Z Z Z Z  X X X X*X*X*X*X*X*X=X=X7X7X7X7X2X2X2X2X5X5X5X5X4X4X4X4X4X4X4X4X<X<X<X<X<X<X<X<X1X1X1X1X3X3X3X3XwXwXwX",
"wXwXwXwXwXwXwXwXwXwX4X4X4X4X3X3X3X3X4X4X4X4XwXwXwXwXwXwXwXwX<X<X<X<XwXwXwXwXwXwXwXwXwXwXwX*X*X*X*X7X7X7X7X*X*X*X*X*X*X*X*X;X;X;X;X=X=X=X%XC C C C C C C C V V V V a.a.a.a.O.O.O.O.#.%.%.%.;.;.;.;.1.2.2.1.k.k.k.k.D.D.D.D.H.H.H.H.K.K.K.K.Y.Y.Y.Y.zXzXzXzXzXzXzXBXBXBXBXVXVXVXVXZXZXZXAXFXFXFXFXFXFXFXFXKXKXKXKXLXLXLXLXLXLXLXLXL.L.L.L.K.K.K.K.(.).(.(.K.K.K.K.Q.Q.Q.Q.Q.Q.Q.Q.(.(.(.(.y y y y p p p p b.b.b.b.n.n.n.n.M.M.M.M.M.M.M.M.z z k z z z z z z z z z z z z k j j j j j j j j j l l MXMXMXMXMXvXMXMXzXzXzXzXR.R.R.R.!.!.!.!.R.R.R.Y.c.c.c.x.k.k.k.k.w.w.w.w.5.5.5.5.1.1.1.1.2.6.2.2.} } } } ' ' ' ' O.O.O.O.i.i.i.i.=.=.=.s.s.s.s.C C C C Z Z Z Z  X X X X*X*X*X*X*X*X=X=X7X7X7X7X2X2X2X2X5X5X5X5X4X4X4X4X4X4X4X4X<X<X<X<X<X<X<X<X1X1X1X1X3X3X3X3XwXwXwX",
"wXwXwXwXwXwXwXwXwXwX4X4X4X4X3X3X3X3X4X4X4X4XwXwXwXwXwXwXwXwX<X<X<X<XwXwXwXwXwXwXwXwXwXwXwX*X*X*X*X7X7X7X7X*X*X*X*X*X*X*X*X;X;X;X;X=X%X%X%XC C C C C C C C V V V V a.a.a.a.O.O.O.O.%.%.%.%.;.;.;.;.1.2.2.1.k.e.k.k.D.D.D.D.H.H.H.H.K.K.K.K.Y.Y.Y.Y.zXzXzXzXzXzXzXBXBXBXBXVXVXVXVXZXZXZXZXFXFXFXDXFXFXFXFXKXKXKXKXLXLXLXLXLXLXLXLXL.L.L.L.K.K.K.L.(.).(.(.K.K.K.K.Q.Q.Q.Q.Q.Q.Q.Q.(.(.(.(.y y y y p p p p b.b.b.b.n.n.n.n.M.M.M.M.M.M.M.M.z z k z z z z z z z z z z z z k j j k j j j j j j l l MXMXMXMXMXvXvXMXzXzXzXzXR.R.R.R.!.!.!.!.R.R.R.Y.c.c.c.x.k.k.k.k.w.w.w.w.8.5.5.5.1.1.1.1.2.6.2.2.} } } } ' ' ' ' O.O.O.O.i.i.i.i.=.=.=.s.s.s.s.C C C C Z Z W Z  X X X X*X*X*X*X*X*X=X=X7X7X7X7X2X2X2X2X5X5X5X5X4X4X4X4X4X4X4X4X<X<X<X<X<X<X<X<X1X1X1X1X3X3X3X3XwXwXwX",
"wXwXwXwXwXwX4X4X4X4X3X3X3X3X2X2X2X2X<X<X<X<X4X4X4X4X4X4X4X4X4X4X4X4X<X<X<X<X>X>X>X4X4X4X4X*X*X*X*X3X3X3X3XXXXXXXXXXX X X X X X X XW W W A Z C C Z M M M M n n n n a.a.a.a.[ [ [ [ { { { { ;.;.;.;.2.2.2.2.5.8.8.5.x.x.x.x.H.H.H.H.K.K.K.K.T.T.T.T.zXzXzXzXxXxXxXBXBXBXBXBXBXBXBXZXZXZXZXVXVXVXVXGXGXGXGXHXHXHXHXSXSXSXSX(.(.!.Q.K.K.K.K.T.Q.Q.Q.e e e e F.F.F.F.^.^.^.^.(.(.(.(.xXxXxXxXB.B.B.B.q.q.q.q.9.9.9.9.k k z z z z z z z z z z V.V.V.V.V.V.V.V.V.V.V.V.V.V.V.M.M.M.M.n.n.n.n.j j j j y y y y h.h.h.h.BXBXBXBXbXbXbXbX!.!.!.!.R.R.R.R.I.I.I.I.c.c.c.c.k.k.k.k.w.w.w.w.2.2.2.2.6.1.1.1.| } } } %.%.%.%.[ ` ` ` i.p.p.p.*.*.*.+.+.+.+.i.i.i.i.! ! {.{.W W W W ].].'.'.7X7X7X7X;X;X7X7X#X#X#X#X-X-X-X-X5X5X5X5X2X2X2X2X7X7X7X7X4X4X4X4XwXwXwXwXwXwXwXwXwXwXwX",
"wXwXwXwXwXwX4X4X4X4X3X3X3X3X2X2X2X2X<X<X<X<X4X4X4X4X4X4X4X4X4X4X4X4X<X<X<X<X>X>X>X4X4X4X4X*X*X*X*X3X3X3X3XXXXXXXXXXX X X X X X X XA W W A Z C Z Z M M M M n n n n a.a.a.a.O.[ [ [ { { { { ;.;.;.o.1.2.2.2.5.8.8.5.x.x.x.x.H.H.H.H.K.K.K.K.T.T.T.T.zXzXzXzXxXxXxXnXBXBXBXBXBXBXBXZXZXZXZXVXVXVXVXGXGXGXGXHXHXHXHXSXSXSXSX(.(.!.!.K.K.K.K.T.T.Q.Q.e e e e F.F.F.F.^.^.^.^.(.(.(.(.xXxXxXxXB.B.B.B.q.q.q.q.q.q.9.9.k k z z z z z z z z z z V.V.V.V.V.V.V.V.V.V.V.V.V.V.V.M.M.M.M.n.n.n.n.j j j j y y y y h.h.h.h.BXBXBXBXbXbXbXbX!.!.!.!.R.R.R.R.I.I.I.I.c.c.c.c.k.k.k.k.w.w.w.w.2.2.2.2.1.1.1.1.| } } } %.%.%.%.` ` ` ` i.p.p.p.*.*.*.+.+.+.+.i.i.i.i.! ! {.{.W W W W ].].'.'.7X7X7X7X;X;X7X7X#X#X#X#X-X-X-X-X5X5X5X5X2X2X2X2X7X7X7X7X4X4X4X4XwXwXwXwXwXwXwXwXwXwXwX",
"wXwXwXwXwXwX4X4X4X4X3X3X3X3X2X2X2X2X<X<X<X<XwXwXwX4X4X4X4X4XwX4X4X4X<X<X<X<X>X>X>X4X4X4X4X*X*X*X*X3X3X3X3XXXXXXXXX X X X X X X X XW W W W Z Z Z Z n n n n n n n n a.M M M [ [ [ [ { { { { ;.;.;.o.1.1.2.2.5.5.5.5.x.x.x.x.H.H.H.H.K.K.K.K.T.T.T.T.zXzXzXzXxXxXxXnXnXBXBXBXBXBXBXAXAXZXZXVXVXVXVXGXGXGXGXHXHXHXHXSXSXSXSX(.!.!.!.K.K.K.K.Q.Q.Q.Q.e e e e F.F.F.F.^.!.!.!.(.(.(.(.xXxXxXxXB.B.r.r.9.9.9.9.9.9.9.9.k z z z z z k z z c c c V.M.M.V.V.V.V.V.V.V.V.V.V.V.V.M.M.M.M.n.n.n.n.j j j j y y y y h.h.h.h.BXBXBXBXbXbXbXbX!.!.!.!.R.R.R.R.I.J.J.J.c.c.c.c.k.k.k.k.w.w.w.w.2.2.2.2.1.1.1.1.} | | | %.%.%.%.` ` ` [ i.i.p.p.*.*.*.+.+.+.+.i.i.i.i.! ! ! ! W W W W '.'.].].7X7X7X7X7X7X7X7X#X$X#X#X-X-X-X-X5X5X5X5X1X1X1X2X7X7X7X7X4X4X4X4XwXwXwXwXwXwXwXwXwXwXwX",
"wXwXwXwXwXwX4X4X4X4X3X3X3X3X2X2X2X2X<X<X<X<XwXwX4X4X4X4X4X4XwXwX4X4X<X<X<X<X>X>X>X4X4X4X4X*X*X*X*X3X2X2X3XXXXXXXXX X X X X X X X XW W W W Z Z Z Z n n n n n n n n a.M M a.[ [ [ [ { { { { ;.;.;.o.1.2.2.2.5.5.5.5.x.x.x.x.H.H.H.H.K.K.K.K.T.T.T.T.zXzXzXzXxXxXxXnXnXBXBXBXBXBXBXAXAXZXZXVXVXVXVXGXGXGXGXHXHXHXHXSXSXSXSX(.(.!.!.K.K.K.K.Q.Q.Q.Q.e e e e F.F.F.F.!.!.!.!.(.(.(.(.xXxXxXxXB.B.r.r.9.9.9.9.9.9.9.9.z z z z z z k z z c c c V.M.M.V.V.V.V.V.V.V.V.V.V.V.V.M.M.M.M.n.n.n.n.j j j j y y y y h.h.h.h.BXBXBXBXbXbXbXbX!.!.!.!.R.R.R.R.I.J.J.J.c.c.c.c.k.k.k.k.w.w.w.w.2.2.2.2.1.1.1.6.} | | } %.%.%.%.` ` ` ` i.i.i.p.*.*.*.+.+.+.+.i.i.i.i.! ! {.! W W W W '.'.].].7X7X7X7X7X7X7X7X#X$X#X#X-X-X-X-X5X5X5X5X1X1X2X2X7X7X7X7X4X4XwXwXwXwXwXwXwXwXwXwXwXwXwX",
"wXwX4X4X4X4X4X4X4X4X2X2X2X2XwXwXwXwX7X7X7X7X-X-X-X-X5X5X5X5X+X+X+X+X+X+X+X+X3X3X3X$X%X%X$X-X-X-X*X7X7X7X7X@X+X+X+X9X9X9X1X[.[.[.].Z Z Z Z  X X X XB B B B m m m m *.i i *.+.+.+.+.[ [ [ { 1.$.;.;.7.7.7.7.e.w.w.w.x.D.D.x.x.x.x.x.K.K.K.K.T.T.T.Q.zXzXzX(.xXxXxXnXnXnXnXMXMXMXMXZXZXZXZXAXAXAXAXFXFXGXGXKXKXKXKXK.K.K.K.Z.Z.Z.B.K.K.K.K.Y.T.K.K.; ; ; ; K.K.K.K.L.L.L.L.zXzXzXzXxXxXxXxXxXxXxXxXk k k k p p p p b.b.b.b.n.n.n.n.z z z z c c c d d d d j j j j z z z z l l l l n.n.n.n.n.n.n.n.b.b.b.b.e e e e A.A.A.A.BXBXBXBXbXbXbXbXjXjXjXjXR.R.R.R.I.I.I.I.G.G.G.G.e.e.e.e.8.8.8.8.6.6.6.6.| } } } } { { { ) ) ) ) =.=.=.=.M B B *.*.*.*.-.-.-.-.Q Q Q Q [.[.OXOX%X%X$X$XE E E E '.'.'.'.2X2X2X2X;X;X;X;X0X0X0X2X4X4X4X4X4X4X4X4X3X3X3X3X1X1X1X1XwXwXwXwXwXwXwX",
"wXwX4X4X4X4X4X4X4X4X2X2X2X2XwXwXwXwX7X7X7X7X-X-X-X-X5X5X5X4X+X+X+X+X+X+X+X+X3X3X3X$X%X%X$X-X-X*X*X7X7X7X7X+X+X+X+X9X9X9X1X[.[.[.[.Z Z Z Z  X X X XB B B B m m m M *.i i i +.+.+.+.[ [ { { 1.$.$.;.7.7.7.7.w.w.w.w.x.D.D.x.x.x.x.x.K.K.K.K.T.T.T.Q.zXzXzX(.xXxXxXnXnXnXnXMXBXMXMXZXZXZXZXAXAXAXAXGXGXGXGXKXKXKXKXL.K.K.K.Z.Z.Z.B.K.K.K.K.T.T.K.K.; ; ; ; K.K.K.K.P.L.L.L.zXzXzXzXxXxXxXxXxXxXxXxXk k k k p p p p b.b.b.b.n.n.n.n.z z z z c c c d d d d j j j j z z z z z l l l n.n.n.n.n.n.n.n.b.b.b.b.e e e e A.A.A.A.BXBXBXBXbXbXbXbXjXjXjXjXR.R.R.R.I.I.I.I.G.G.G.G.e.e.e.e.8.8.8.8.6.6.6.6.| } } } } { { { ) ) ) ) =.=.=.=.M B B *.*.*.*.-.-.-.-.Q Q Q Q [.[.OXOX%X%X%X%XW W E E '.'.'.'.2X2X2X2X;X;X;X;X0X0X2X2X4X4X4X4X4X4X4X4X3X3X3X3X1X1X1X1XwXwXwXwXwXwXwX",
"wXwX4X4X4X4X4X4X4X4X2X2X2X2XwXwXwXwX7X7X7X7X-X-X-X-X5X5X5X5X+X+X+X+X+X+X+X+X3X3X3X$X$X$X$X*X*X*X*X7X7X7X7X+X+X+X+X9X9X9X1X[.[.[.[.Z Z Z Z  X X X XB B B B m m m M *.*.*.*.+.+.+.+.[ [ [ [ ;.$.$.;.7.7.7.7.w.w.w.e.D.x.x.x.x.x.x.x.K.K.K.K.Q.T.T.Q.(.(.(.(.xXxXxXnXnXnXnXMXMXMXMXZXZXZXZXAXAXAXAXFXGXGXGXKXKXKXKXL.L.K.K.Z.Z.Z.B.K.K.K.K.L.L.L.K.; ; ; ; K.K.K.K.P.P.P.P.zXzXzXzXxXxXxXxXxXxXxXxXj j j k p p p p b.b.b.b.n.n.n.n.z z z z 0.0.0.d d d d j j j j z z z z l l l k n.n.n.n.n.n.n.n.b.b.b.b.e e e e C.A.A.C.BXBXBXBXbXbXbXbXjXjXjXjXR.R.R.R.I.I.I.I.G.G.G.G.e.e.e.e.8.8.8.8.6.6.6.6.| } } } } { { } ) ) ) ) i i i =.B B B *.*.*.*.-.-.-.-.Q Q Q Q [.[.OX[.%X%X%X%XW W E R '.'.'.'.2X2X2X2X;X;X;X;X2X0X2X2X4X4X4X4X4X4X4X4X3X3X3X3X1X1X1X1XwXwXwXwXwXwXwX",
"wXwX4X4X4X4X4X4X4X4X2X2X2X2XwXwXwXwX7X7X7X7X-X-X-X-X5X5X5X5X+X+X+X+X+X+X+X+X3X3X3X$X$X$X$X-X*X*X-X7X7X7X7X+X+X+X+X9X9X9X1X[.].[.[.Z Z Z Z  X X X XB B B B m m m M *.*.*.*.+.+.+.+.[ [ [ { 1.$.$.;.7.7.7.7.w.w.w.e.D.D.x.x.x.x.x.x.K.K.K.K.T.T.T.Q.(.(.(.(.xXxXxXnXnXnXnXMXMXMXMXZXZXZXZXAXAXDXAXFXFXGXGXKXKXKXKXL.L.K.K.Z.Z.Z.Z.K.K.K.K.L.L.L.L.; ; ; ; K.K.K.K.P.P.P.P.zXzXzXzXxXxXxXxXxXxXxXxXj j k k p p p p b.b.b.b.n.n.n.n.z z z z 0.0.0.j d d d j j j j z z z z l l l k n.n.n.n.b.n.n.b.b.b.b.b.e e e e C.A.A.C.BXBXBXBXvXbXbXbXjXjXjXjXR.R.R.R.G.I.I.I.G.G.G.G.e.e.e.e.8.5.8.8.6.6.6.6.| } } } } { } } ) ) ) ) i i i =.B B B *.*.*.*.-.-.-.-.Q Q Q Q [.[.OXOX$X%X%X%XW W E E '.'.].].2X2X2X2X;X;X;X;X2X2X2X2X4X4X4X4X4X4X4X4X3X3X3X3X1X1X1X1XwXwXwXwXwXwXwX",
"wXwXwXwXwXwX2X2X2X2XwXwX4X4X5X5X4X4X4X4X4X4X<X<X<X<X*X*X*X*X5X5X5X5X8X8X8X8X9X9X9X}.}.}.}.1X0X0X1X;X;X;X;X8X8X8X8X+X+X+X+X[.[.[.[.%X%X%X%XZ C C C ].].].].Z Z Z C i i i i p.p.p.p.#.#.#.#.......| 6.6.6.6.7.7.7.8.e.e.e.e.J.H.H.H.K.K.K.K.T.T.T.T.T.T.T.W.(.zXzXvXvXvXvXMXMXMXMXZXZXZXZXDXDXDXDXDXDXDXDXJ.J.J.J.J.J.J.J.q.q.q.q.q.q.q.q.q.q.q.q.T.T.P.T.T.T.T.T.(.(.(.(.(.(.(.(.xXxXbXbX(.(.(.(.Z.Z.Z.Z.Z.Z.Z.Z.Z.Z.Z.Z.Z.Z.Z.Z.n.n.n.n.V.V.V.M.M.M.M.V.V.V.V.V.V.V.V.V.V.V.V.l l l j l z z z z z z z z z z c z z k z j j j j MXMXMXMXvXvXvXvXzXjXjXjXI.J.I.J.Y.I.Y.Y.G.G.G.G.8.8.8.8.6.6.6.6.[ [ [ [ [ O.O.[ ) ) ) ) n n n n p.p.p.p.p.p.p.O.O.O.O.a.a.a.a.M M M M Z Z Z Z OXOXOXOXuXuXuXuXrXrXrXrXOXOXOXOX;X*X*X*X-X-X-X-XwXwXwXwX>X>X>X>X<X<X<X<XwXwXwXwX3X3X3X",
"wXwXwXwXwXwX2X2X2X2XwX4X4X4X5X5X4X4X4X4X4X4X<X<X<X<X*X*X*X*X5X5X5X5X<X8X8X8X9X9X9X}.}.}.}.0X1X0X1X;X;X;X;X8X8X8X8X+X+X+X+X[.[.[.[.%X%X%X%XZ Z C C ].].].].Z Z Z C i i i i p.p.p.p.#.#.#.#.......| 6.6.6.6.7.7.7.8.e.e.e.e.H.H.H.J.K.K.K.K.T.Y.Y.T.T.T.T.W.(.zXzXvXvXvXvXMXMXMXMXZXZXZXZXDXDXDXDXDXDXDXDXJ.J.J.J.J.J.J.J.q.q.q.q.q.q.q.q.q.q.q.q.T.T.T.T.T.T.T.T.(.(.(.(.(.(.(.(.xXxXbXbX(.(.(.(.Z.Z.Z.Z.Z.Z.l.l.Z.Z.Z.Z.Z.Z.Z.Z.n.n.n.n.V.V.V.M.M.M.M.V.V.V.V.V.V.V.V.V.V.V.V.l l l j z z z l z z z z z z z c z k k k j j j j MXMXMXMXvXvXvXvXzXzXjXjXI.J.J.J.Y.I.Y.Y.G.G.G.G.8.8.8.w.6.6.6.6.[ [ [ [ [ [ O.[ ) ) ) ) n n n n p.p.p.p.p.p.p.O.O.O.O.i.i.a.a.M M M M Z Z Z Z OXOXOXOXuXuXuXuXrXrXrXrXOXOXOXOX;X;X*X*X-X-X-X-XwXwXwXwX>X>X<X>X<X<X<X<XwXwXwXwX3X3X3X",
"wXwXwXwXwXwX2X2X2X2XwXwXwXwX4X4X5X5X4X4X4X4X<X<X<X<X*X*X*X*X5X5X5X5X8X8X8X8X9X9X9X}.}.}.}.1X0X0X1X;X;X;X;X8X8X8X8X+X+X+X+X[.[.[.[.%X%X%X%XC C C C ].].[.].C C C C i i i i p.p.p.p.#.#.#.#.| ....| 6.6.6.6.8.8.8.8.e.e.e.e.J.J.J.J.K.K.K.K.T.Y.Y.T.T.T.T.W.zX(.(.vXvXvXzXBXBXBXBXZXZXZXZXDXDXDXDXDXDXDXDXJ.J.J.J.J.J.J.J.r.r.r.r.q.q.q.q.q.q.q.q.P.P.P.P.Q.Q.T.T.(.(.(.(.(.(.(.(.xXxXbXbX(.(.(.(.D.D.D.D.Z.Z.Z.l.Z.Z.Z.Z.Z.Z.Z.Z.n.n.M.M.V.M.M.M.M.M.M.V.V.V.V.V.V.V.V.V.V.V.V.l l l l l c c c z z z z c c c c z k k k d j j j MXMXMXMXvXvXvXvXzXzXzXzXJ.I.I.J.Y.I.I.I.G.G.G.G.8.8.8.w.6.6.6.6.[ [ [ [ O.O.O.[ ) ) ) ) i.n n n p.p.p.p.p.p.p.O.O.O.#.a.a.a.a.M M M M Z Z Z Z OXOXOXOXuXuXuXuXrXrXyXyXOXOXOXOX*X*X*X*X-X-X-X-X4X4XwXwX>X>X>X>X1X<X<X<XwXwXwXwX3X3X3X",
"wXwXwXwXwXwX2X2X2X2XwXwXwXwX4X4X5X5X4X4X4X4X<X<X<X<X-X*X*X*X5X5X5X5X8X8X8X8X9X9X9X}.}.}.}.1X1X1X1X;X;X;X;X8X8X8X8X+X+X+X+X[.[.[.[.%X%X%X%XC C C C ].].].].C C Z C i i i i p.p.p.p.#.#.#.#.| ..| | 6.6.6.6.7.8.8.8.e.e.e.e.J.J.J.J.K.K.K.K.T.Y.Y.T.T.T.T.W.zX(.(.vXvXvXzXMXBXBXBXZXZXZXZXDXDXDXDXDXDXDXDXJ.J.J.J.J.J.J.J.r.r.r.r.q.q.q.q.q.q.q.q.Q.Q.P.P.Q.Q.T.T.(.(.(.(.(.(.(.(.xXxXbXbX(.(.(.(.D.D.D.D.Z.Z.Z.Z.Z.Z.Z.Z.G.Z.Z.Z.n.n.M.M.V.M.M.M.M.M.M.V.V.V.V.V.V.V.V.V.V.V.V.l l l l l c c c z z z z c c c c z k k k j j j j MXMXMXMXvXvXvXvXzXzXzXzXJ.I.I.J.I.I.I.I.G.G.G.G.8.8.8.w.6.6.6.6.[ [ [ [ O.O.O.[ ) ) ) ) n n n n p.i.p.p.p.p.p.O.O.O.O.a.a.a.a.M M M M Z Z Z Z OXOXOXOXuXuXuXuXrXrXyXyX:XOXOXOX*X*X*X*X-X-X-X-XwX4XwXwX>X>X>X>X1X1X<X<XwXwXwXwX3X3X3X",
"wXwX5X5X5X5XwXwXwXwX4X4X4X4X4X4X4X4X4X4X4X4X7X7X7X7X2X2X2X2X*X*X*X*X5X5X5X5X*X-X=X|. X X}.$X$X$X$X$X$X$X$X=X$X$X$XE E E E XXXXXXXX$X=X=X$XV V V V C C C C [.[.[.[.Z C Z Z =.-.-.-.{ { { { %.%.%.%.1.1.1.1.w.w.w.w.x.x.x.x.D.D.D.D.J.J.J.J.T.T.T.T.W.T.T.W.(.(.(.zXzXzXzXMXMXnXnXZXZXZXZXZXZXZXZXAXAXAXAXc c c c L.L.L.L.r.r.r.r.j j j j r.r.r.r.L.L.L.L.K.K.K.K.Q.Q.Q.Q.xXxXxXxX(.(.(.(.(.(.(.(.T.T.E.E.q.q.q.q.g.g.g.g.g.g.g.g.E.E.E.E.E.E.S.C.C.C.C.S.S.S.I.S.S.S.S.S.S.S.E.M.M.M.M.M.M.M.M.n.n.n.n.b.b.b.b.b.b.b.p j j j j BXBXBXBXNXNXNXNXjXjXjXjXR.R.R.R.J.J.J.J.H.H.H.H.c.c.c.c.7.7.7.7.1.1.1.1.$.%.%.%.#.#.#.#.' ' ' ' *.*.*.i.i.i.i.*.*.*.*.C C C C V V V V OXOXOXOXl l l l s s s s >.>.9.9.9 9 9 9 dXdXdXdX5X5X4X4X4X4X4X4X4X4X4X4X4X4X4X4XwXwXwXwXwXwXwX",
"wXwX5X5X5X5XwXwXwXwX4X4X4X4X4X4X4X4X4X4X4X4X7X7X7X7X2X2X2X2X*X*X*X*X5X5X5X5X-X-X=X|. X X}.$X$X$X$X$X$X$X$X$X$X$X$XE E E E XXXXXXXX=X=X=X$XV V V V C C C C [.[.[.[.Z C Z T =.-.-.-.{ { { { %.%.%.%.1.1.1.1.w.w.w.w.x.x.x.x.D.D.D.D.J.J.J.J.T.T.T.T.W.T.T.T.(.(.(.zXzXzXzXMXMXnXnXZXZXZXZXZXZXZXZXAXAXAXAXc c c c L.L.L.L.r.r.r.r.j j j j r.r.r.r.L.L.L.L.K.K.K.K.Q.Q.Q.Q.xXxXxXxX(.(.(.(.(.(.(.(.E.E.E.E.q.q.q.q.g.g.g.g.g.g.g.g.E.E.E.E.E.I.S.C.C.C.C.S.S.S.S.S.S.S.S.S.S.I.E.M.M.M.M.M.M.M.M.n.n.n.n.b.b.b.b.b.b.b.p j j j j BXBXBXBXNXNXNXNXjXjXjXjXR.R.R.R.J.J.J.J.H.H.H.H.c.c.c.c.7.7.7.7.1.1.1.1.$.%.%.$.#.#.#.#.' ' ' ' *.*.*.i.i.i.i.*.*.*.*.C C C C V V V V OXOXOXOXl l l l s s s s >.>.9.9.9 9 9 9 dXdXdXdX5X5X4X4X4X4X4X4X4X4X4X4X4X4X4X4XwXwXwXwXwXwXwX",
"wXwX5X5X5X5XwXwXwXwX4X4X4X4X4X4X4X4X4X4X4X4X7X7X7X7X3X2X2X2X*X*X*X*X5X5X5X5X*X=X;X X X X|.%X$X$X$X$X$X$X$X$X$X$X$XE E E E XXXXXXXX=X=X=X=XV V V V C C C C [.[.[.[.T T T T -.-.-.-.{ { { { %.%.%.%.1.1.1.1.w.w.w.w.D.x.x.x.D.D.D.D.J.J.J.J.T.T.T.T.W.W.W.T.(.(.(.xXzXzXzXMXMXMXMXZXZXZXZXZXZXZXZXAXAXAXAXc c c c L.L.L.L.r.r.r.r.j j j j r.r.r.r.K.L.L.L.K.K.K.K.Q.Q.Q.Q.xXxXxXxX(.(.(.(.(.!.!.!.E.E.E.E.q.q.q.q.g.g.g.g.g.g.g.g.E.E.E.E.E.E.E.C.C.C.C.S.S.S.S.S.S.S.S.E.E.E.E.M.M.M.M.M.M.M.M.n.n.n.n.b.b.b.b.b.b.p p j j j j BXBXBXBXNXNXNXNXjXjXjXjXR.R.R.R.J.J.J.J.J.H.H.H.c.c.c.c.7.7.7.7.1.1.$.$.$.$.$.$.#.#.#.#.) ' ' ' *.*.*.i.i.i.p.*.*.*.*.C C C C V V V V OXOXOXOXl l l l s s s s ,.,.,.,.9 9 9 9 dXdXdXdX4X4X5X5X4X4X4X4X4X4X4X4X4X4X4X4XwXwXwXwXwXwXwX",
"wXwX5X5X5X5XwXwXwXwX4X4X4X4X4X4X4X4X4X4X4X4X7X7X7X7X2X2X2X2X*X*X*X*X5X5X5X5X=X=X;X}. X X|.%X$X$X$X$X$X$X$X$X$X$X$XE E E E XXXXXXXX=X=X=X=XV V V V C C C C [.[.[.[.T T T T -.-.-.-.{ { { { %.%.%.%.1.1.1.1.w.w.w.w.x.x.x.x.D.D.D.D.J.J.J.J.T.T.T.T.W.W.W.T.(.(.(.xXzXzXzXMXMXMXMXZXZXZXZXZXZXAXAXAXAXAXAXc c c c L.L.L.L.r.r.r.r.j j j j r.r.r.r.K.K.L.L.K.K.K.K.Q.Q.Q.Q.xXzXxXxX(.(.(.(.(.!.!.!.E.E.E.E.q.q.q.q.g.g.g.g.g.g.g.g.E.E.E.E.E.E.E.C.C.C.C.S.S.S.S.S.S.S.S.E.E.E.E.M.M.M.M.M.M.M.M.n.n.n.n.b.b.b.b.b.b.b.p j j j j BXBXBXBXNXNXNXNXjXjXjXjXR.R.R.R.J.J.J.J.J.H.H.H.c.c.c.c.7.7.7.7.1.1.1.$.$.$.$.$.#.#.#.#.[ ' ' ' *.*.*.i.i.i.p.*.*.*.*.C C C C V B V V OXOXOXOXl l l l s s s s >.,.,.,.9 9 9 9 dXdXdXdX4X4X5X5X4X4X4X4X4X4X4X4X4X4X4X4XwXwXwXwXwXwXwX",
"wXwX3X3X3X3X5X5X5X5X4X4X4X4X4X4X4X4X5X5X5X5X#X#X#X#X+X+X+X+X*X*X*X*X%X%X%X%XQ Q Q {.{.{.{.@X@X@X@X-X-X-X-X].].].].E W W W E E E E  X X X XB B B B Z Z Z Z m m m m i i i i B B B s.#.#.#.#.| | | | 1.1.1.1.5.5.5.5.D.D.D.D.J.J.J.J.L.L.L.L.Q.Q.Q.Q.(.(.(.(.xXxXxXnXnXnXnXBXBXBXCXCXCXCXCXZXZXZXZXZXZXZXZXc c c c l.l.Z.Z.r.r.r.r.; ; ; ; F.F.F.F.K.K.K.K.K.K.K.K.Q.Q.Q.Q.zXzXzXzXbXbXbXbX(.(.(.(.zXzXzXzXZ.Z.Z.Z.l.l.l.l.g.g.g.g.g.g.f.g.f.f.f.f.f.f.f.c c c c f.f.f.f.E.S.S.S.S.S.S.S.C.C.C.C.S.S.S.S.I.I.I.S.Z.Z.Z.Z.d j j j e e e e nXnXnXnXBXBXBXBXvXvXvXvX!.!.!.!.D.G.G.G.G.c.c.c.8.w.w.w.1.1.6.1.6.6.6.6.2.2.2.6.} } } } { { { =.=.=.=.*.*.*.*.=.=.=.=.V V s.s.uXuXuXuXr r r r f.f.f.f.E.E.E.E.a a a a v v v v 0X0X0X0X*X*X*X*X7X7X7X7X4X4X4X4X1X1X1X1XwXwXwX",
"wXwX3X3X3X3X5X5X5X5X4X4X4X4X4X4X4X4X5X5X5X5X#X#X#X#X+X+X+X+X*X*X*X*X%X%X%X%XQ Q Q {.{.{.{.@X@X@X@X-X-X-X-X].].[.[.E W W W E E E E  X X X XB B B B Z Z Z Z n m m m i i i i B B B s.#.#.#.#.| | | | 1.1.1.1.5.5.5.5.G.D.D.D.J.J.J.J.L.L.L.L.!.Q.Q.Q.(.(.(.(.xXxXxXnXnXnXnXBXBXBXCXCXCXCXCXZXZXZXZXZXZXZXZXc c c c l.l.l.Z.r.r.r.r.; ; ; ; F.F.F.F.K.K.K.K.K.K.K.K.Q.Q.Q.Q.zXzXzXzXxXxXbXbX(.(.(.(.zXzXzXzXZ.Z.Z.Z.l.l.l.l.g.g.g.g.g.g.f.f.f.f.f.f.f.f.f.c c c c f.f.f.f.S.S.S.S.S.S.S.S.C.C.C.C.C.S.S.S.I.I.I.S.Z.Z.Z.Z.d j j j e e e e nXnXnXnXBXBXBXBXvXvXvXvX!.!.!.!.D.G.G.G.c.c.c.c.w.w.w.w.1.1.1.1.6.6.6.6.2.2.2.2.} } } } { { { =.=.=.=.*.*.*.*.=.=.=.=.V s.s.s.uXuXuXuXr r r r f.f.f.f.E.E.E.S.a a a a v v v v 0X0X0X0X*X*X*X*X7X7X7X7X4X4X4X4X1X1X1X1XwXwXwX",
"wXwX3X3X3X3X5X5X4X5X4X4X4X4X4X4X4X4X5X5X5X5X#X#X#X#X+X+X+X+X*X*X*X*X%X%X%X%XQ Q Q {.{.{.{.@X@X@X@X-X-X-X-X].].].[.! ! ! ! E E E E  X X X XB B B B Z Z Z Z m m m m i i i i B B B B #.#.#.#.| | | | 1.1.1.1.5.5.5.5.D.D.D.D.J.J.J.J.L.L.L.L.Q.Q.Q.Q.(.(.(.(.xXxXxXnXnXnXnXCXCXCXCXCXCXCXCXZXZXZXZXZXZXZXZXc c c c l.l.Z.Z.r.r.r.r.; ; ; ; F.F.F.F.K.K.K.K.K.K.K.K.Q.Q.Q.Q.zXxXxXxXbXbXbXbX(.(.(.(.zXzXzXzXZ.Z.Z.Z.Z.Z.Z.Z.g.g.g.g.g.g.g.g.f.f.f.f.f.f.f.c c c c f.f.f.f.S.S.S.S.S.S.S.S.S.C.C.C.S.S.S.S.I.I.I.S.Z.Z.Z.Z.j j j j e e e e nXnXnXbXBXBXBXBXvXvXvXvX!.!.!.!.D.D.D.G.c.c.c.c.w.8.8.8.1.1.1.6.6.6.6.6.6.6.6.2.} } } } { { { =.=.=.=.&.&.&.&.i i i =.V V s.s.uXuXuXuXr r r r f.f.f.f.S.S.E.E.a a a a v v v v 0X0X0X6X-X-X-X-X7X7X7X7X4X4X4X4X1X1X1X1XwXwXwX",
"wXwX3X3X3X3X5X5X4X4X4X4X4X4X4X4X4X4X5X5X5X5X#X#X#X#X+X+X+X+X*X*X*X*X%X%X%X%XQ Q Q {.{.{.{.@X@X@X@X-X-X-X-X].].].[.! ! ! ! E E E E  X X X XB B B B Z Z Z Z m m m m i i i i B B B B #.#.#.#.| | | | 1.1.1.1.5.5.5.5.D.D.D.D.J.J.J.J.L.L.L.L.Q.Q.Q.Q.(.(.(.(.xXxXxXnXnXnXnXCXCXCXCXCXCXCXCXZXZXZXZXZXZXZXZXc c c c l.l.l.l.r.r.r.r.; ; ; ; F.F.F.F.K.K.K.K.K.K.K.K.Q.Q.Q.Q.zXxXxXxXbXbXbXbX(.(.(.(.zXzXzXzXZ.Z.Z.Z.Z.Z.Z.Z.g.g.g.g.g.g.g.g.f.f.f.f.f.f.f.c c c c f.f.f.f.S.S.S.S.S.S.S.S.S.C.C.C.S.S.S.S.I.I.I.S.Z.Z.Z.Z.d j j j e e e e nXnXbXbXBXBXBXBXvXvXvXvX!.!.!.!.D.D.D.G.c.c.c.c.w.8.8.w.1.1.1.6.6.6.6.6.6.6.6.6.} } } } { { { =.=.=.=.&.&.*.&.i i i =.V V V V uXuXuXuXr r r r f.f.f.f.S.S.E.E.a a a a v v v v 0X0X6X6X-X-X-X-X7X7X7X7X4X4X4X4X1X1X1X1XwXwXwX",
"wXwXwXwXwXwX1X1X1X2X>X>X>X>X4X4X4X4X5X5X5X5X-X-X-X-X-X-X-X-X7X7X7X7X;X;X;X;XW W T &X&X&X&X=X=X=X=X|.|.|.|.oXoXoXoXW W W W B B B B ! ! ! ! p.p.p.a.=.=.=.=.B B B B i i i i *.&.&.&.[ [ { { %.%.%.%.1.1.1.1.w.w.8.w.u.u.u.u.F.D.D.F.L.L.L.L.Y.Y.Y.Y.(.(.(.(.(.(.(.nXnXnXnXbXbXbXbXBXBXBXBXZXZXZXZXBXBXBXBXK.K.K.K.0.0.0.0.r.r.r.r.e e e e K.K.K.K.J.J.J.J.K.K.K.K.xXxXxXxXj j j j Q.Q.Q.Q.T.T.T.T.jXjXjXjXf.f.f.f.c c c c f.f.f.f.g.g.g.g.j.j.j.h.h.h.h.f.f.f.f.x x x x c v c c g.j.j.g.g.g.g.g.h.h.h.h.f.f.f.f.g.g.g.g.l.g.g.g.c c l c d d d d vXvXvXvXvXvXvXvXjXjX!.jXI.I.I.I.x.D.x.D.k.k.k.k.x.x.k.k.8.8.8.8.6.6.6.6.;.;.;.;.' ' ' _ _ _ _ *.*.*.*.B B s.s.V V s.s.uXuXuXuXs s s s j.j.g.g.hXhXhXhXs s s s j j j j :X:X:X:X4XwX4X4X4X4X4X4X<X<X<X<X2X2X2X2XwXwXwX",
"wXwXwXwXwXwX1X1X1X1X>X>X>X>X4X4X4X4X5X5X5X5X-X-X-X-X-X-X-X-X7X7X7X7X;X;X;X;XW W T &X&X&X&X=X=X=X=X|. X|.|.oXoXoXoXW W W W B B B B ! ! ! ! p.a.p.a.=.=.=.=.B B B B i i i i *.*.&.*.[ [ [ { %.%.%.%.1.1.1.1.w.w.w.w.u.u.u.u.D.D.D.D.L.L.L.L.Y.Y.Y.Y.(.(.(.(.(.(.(.nXnXnXnXbXbXbXbXBXBXBXBXZXZXZXZXBXBXBXBXK.K.K.K.0.0.0.0.r.r.r.r.e e e e K.K.K.K.J.J.J.J.K.K.K.K.xXxXxXxXj j j j Q.Q.Q.Q.T.T.T.T.jXjXjXjXf.f.f.f.c c c c f.f.f.f.g.g.g.g.j.j.j.h.h.h.h.f.f.f.f.x x x x c v c P g.j.j.j.j.g.g.g.h.h.h.h.f.f.f.f.g.g.g.g.l.g.g.g.c c l c d d d d vXvXvXvXvXvXvXvXjXjXjXjXI.I.I.I.x.D.D.D.k.k.k.k.x.x.x.k.8.8.8.8.6.6.6.6.$.;.;.;.' ' ' _ _ _ _ *.*.*.*.B B s.s.V V s.s.uXuXuXuXs s s s Z.Z.g.g.hXhXhXhXs s s s j j j j :X:X:X:X4XwX4X4X4X4X4X4X<X<X<X<X2X2X2X2XwXwXwX",
"wXwXwXwXwXwX1X1X1X1X>X>X>X>X4X4X4X4X5X5X5X5X-X-X-X-X-X-X-X-X7X7X7X7X;X;X;X;XW W W &X&X&X&X=X=X=X=X|.|.|.|.@X@X@XoXW W W W B B B B ! ! ! ! p.p.p.p.=.=.=.=.B B B B i i i i *.*.&.*.{ { { { %.%.%.%.1.1.1.1.w.8.w.w.u.u.u.u.F.D.D.F.L.L.L.L.Y.Y.Y.Y.(.(.(.(.(.(.(.nXnXnXbXbXbXbXbXBXBXBXBXAXAXAXAXBXBXBXBXK.K.K.K.0.0.0.0.Z.Z.B.B.e e e e K.K.K.K.J.J.J.J.K.K.K.K.xXxXxXxXj j j j Q.Q.Q.Q.T.T.T.T.jXjXjXjXf.f.f.f.c c c c f.f.f.f.g.g.g.g.j.j.j.h.h.h.h.f.f.f.f.x x c c c c c c g.g.g.h.h.h.h.g.h.h.h.h.f.f.f.f.g.g.g.g.l.Z.l.l.c c c z d d d d vXvXvXvXbXvXvXvXjXjXjXjXI.I.I.I.x.D.D.x.k.k.k.k.x.x.x.x.8.8.8.8.6.4.4.7.$.$.$.$.{ ' ' _ _ _ _ *.*.*.*.s.s.s.s.V V V V uXuXuXuXs s s s j.j.j.j.hXhXhXhXs s s s j j j j :X:X:X:X4X4X4X4X4X4X4X4X<X<X<X<X2X2X2X2XwXwXwX",
"wXwXwXwXwXwX1X1X1X1X>X>X>X>X4X4X4X4X5X5X5X5X-X-X-X-X-X-X-X-X7X7X7X7X;X;X;X;XW W W &X&X&X&X=X*X*X=X|.|.|. X@X@X@XoXW W W W B B B B ! ! ! ! p.p.p.p.=.=.=.=.B B B B i i i *.*.*.*.*.{ { { { %.%.%.%.1.1.1.1.w.w.w.w.u.u.u.u.F.D.F.F.L.L.L.L.Y.Y.Y.Y.(.(.(.(.(.(.(.nXnXnXbXbXbXbXbXBXBXBXBXAXAXAXZXBXBXBXBXK.K.K.K.0.0.0.0.Z.Z.B.B.e e e e K.K.K.K.J.J.J.J.K.K.K.K.xXxXxXxXj j j j Q.Q.Q.Q.T.T.T.T.jXjXjXjXf.f.f.f.c c c c f.f.f.g.g.g.g.g.j.j.j.h.h.h.h.f.f.f.f.x x x c c c c c g.g.g.h.h.h.h.g.h.h.h.h.f.f.f.f.g.g.g.g.l.Z.l.l.c c c c d d d d vXvXvXvXvXvXvXvXjXjXjXjXI.I.I.I.x.x.D.x.k.k.k.k.x.x.x.x.8.8.8.8.6.4.4.7.$.$.$.$.{ ' ' _ _ _ _ *.*.*.*.s.s.s.s.V V V V uXuXuXuXs s s s j.j.g.j.hXhXhXhXs s s s j j j j :X:X:X:X4XwX4X4X4X4X4X4X<X<X<X<X2X2X2X2XwXwXwX",
"wXwXwXwXwXwXwXwXwXwX2X2X2X2X2X2X2X2X7X7X7X7X$X$X$X$X2X2X2X2X#X#X#X#X|.|.|.|.Z Z Z ].].].].[.[.[.[. X X X XV C C C W W W W ! Q Q Q *.*.*.*.*.*.*.*.M a.a.a.s.V V B M n M M a.a.a.a.%.%.%.%.%.%.%.$.1.1.1.1.k.k.k.k.D.D.D.F.F.F.F.F.K.K.K.K.Y.Y.Y.Y.Q.Q.Q.T.(.(.(.nXnXnXnXnXnXnXnXZXZXZXZXAXAXAXAXZXZXZXZXF.H.H.H.z z z z 9.9.q.q.; ; ; ; J.J.F.F.F.F.F.F.K.K.K.K.q.q.q.q.z z z z Q.Q.Q.Q.zXzXzXzXCXCXCXCXf.f.f.f.j j d d f.f.f.f.f.f.f.f.c c c P P P P f.f.f.f.P P P P P P P f.Z.Z.Z.j.h.h.h.h.j.j.j.j.g.g.g.g.g.Z.j.j.g.g.g.g.Z.Z.Z.Z.Z.Z.Z.Z.c 0.0.c z.z.z.z.vXvXvXvXR.R.R.R.J.J.J.J.G.G.G.G.G.G.G.G.8.8.8.8.6.6.6.6.| | | | { { { O.O.O.O.@.@.@.@.=.=.=.=.V V C V S.S.S.S.z z z s g.g.g.Z.S.S.S.S.a a a a w w w w dXdXdXdXwXwX4X4X>X>X>X>XwXwXwXwXwXwXwXwX4X4X4X",
"wXwXwXwXwXwXwXwXwXwX2X2X2X2X2X2X2X2X7X7X7X7X$X$X$X$X2X2X2X2X#X#X#X@X|.|.|.|.Z Z Z ].].].].[.[.[.[. X X X XV V V C W W W W ! Q Q Q *.*.*.*.*.*.*.*.M M a.a.V V V B M n M M a.a.a.a.%.%.%.%.%.%.%.$.1.1.1.1.k.k.k.k.D.D.D.F.F.F.F.F.K.K.K.K.Y.Y.Y.Y.Q.Q.Q.T.(.(.(.nXnXnXnXnXnXnXnXZXZXZXZXAXAXAXAXZXZXZXZXH.H.H.H.z z z z 9.9.q.q.; ; ; ; J.J.F.F.F.F.F.F.K.K.K.K.q.q.q.q.z z z z Q.Q.Q.Q.zXzXzXzXCXCXCXCXf.f.f.f.j j d d f.f.f.f.f.f.f.f.c c c P P P P f.f.f.f.P P P P P P P f.Z.j.j.j.h.h.h.h.j.j.j.j.g.g.g.g.g.g.g.g.g.g.g.g.Z.Z.Z.Z.Z.Z.Z.Z.c 0.0.c z.z.z.z.vXvXvXvXR.R.R.R.J.J.J.J.G.G.G.G.G.G.G.G.8.8.8.8.6.6.6.6.| | | | { { { O.O.O.O.@.@.@.@.=.=.=.=.V V C C S.S.S.S.k k z z g.g.Z.Z.S.S.S.S.a a a a a w w w dXdXdXdX4X4X4X4X>X>X>X>XwXwXwXwXwXwXwXwX4X4X4X",
"wXwXwXwXwXwXwXwXwXwX2X2X2X2X2X2X2X2X7X7X7X7X$X$X$X$X2X2X2X2X#X#X#X#X|.|.|.|.Z Z Z ].].].].[.[.[.[. X X X XV V V V W W W Q Q Q Q Q *.*.*.&.*.*.*.*.n n n M V V V V M M M M M a.a.a.%.%.%.%.%.%.%.%.1.1.1.1.k.k.k.k.D.D.D.D.F.F.F.F.K.K.K.K.Y.Y.Y.Y.Q.Q.Q.Q.(.(.(.nXnXnXnXnXnXnXnXZXZXZXZXAXAXAXAXZXZXZXZXH.H.H.H.z z l l 0.0.0.0.; ; ; ; J.J.F.F.F.F.F.F.K.K.K.K.q.q.q.q.z z z z Q.!.!.!.zXzXzXzXCXCXCXCXf.f.f.f.d d d d f.f.f.f.f.f.f.f.c c c P P P P f.f.f.f.P P P P f.f.P f.Z.Z.Z.j.h.h.h.h.j.j.j.j.h.h.h.g.g.g.g.g.g.g.g.g.Z.Z.Z.Z.g.Z.Z.Z.0.0.0.c z.z.z.z.vXvXvXvXR.R.R.R.J.J.J.J.G.G.G.G.G.G.G.G.8.8.8.8.6.6.6.6.| | | #.{ { { O.O.O.O.@.@.@.@.=.=.=.=.C C V V S.S.S.S.k k s s g.Z.Z.Z.S.S.S.S.a a a a w w w a dXdXdXdX4X4X4X4X>X>X>X>XwXwXwXwXwXwXwXwX4X4X4X",
"wXwXwXwXwXwXwXwXwXwX2X2X2X2X2X2X2X2X7X7X7X7X$X$X$X$X2X2X2X2X#X#X#X#X|.|.|.|.Z Z Z ].].].].[.[.[.[. X X X XV V V V W W W Q Q Q Q Q *.*.*.&.*.*.*.*.n M M M V V V V M M M M M M a.a.%.%.%.%.%.%.%.%.1.1.1.1.k.k.k.k.D.D.D.D.F.F.F.F.K.K.K.K.Y.Y.Y.Y.Q.Q.Q.Q.(.(.(.nXnXnXnXnXnXnXnXZXZXZXZXAXAXAXAXZXZXZXZXH.H.H.H.z z l l 0.0.0.0.; ; ; ; J.J.F.F.F.F.F.F.K.K.K.K.q.q.q.q.z z z z !.!.Q.Q.zXzXzXzXCXCXCXCXf.f.f.f.d d j d f.f.f.f.f.f.f.f.c c c P P P P f.f.f.f.P P P P f.P P f.j.Z.Z.j.h.h.h.h.j.j.j.j.h.h.h.g.g.g.g.g.g.g.g.g.Z.Z.Z.Z.g.Z.Z.Z.0.c 0.c z.z.z.z.vXvXvXvXR.R.R.R.J.J.J.J.G.G.G.G.G.G.G.c.8.8.8.8.6.6.6.6.| | | #.{ { { O.O.O.O.@.@.@.@.=.=.=.=.V V V V S.S.S.S.k k s s g.Z.g.Z.S.S.S.S.a a a a w w w a dXdXdXdX4X4X4X4X>X>X>X>XwXwXwXwXwXwXwXwX4X4X4X",
"4X4X3X3X3X3XwXwXwXwX7X7X7X7XwXwX4X4X*X*X*X*X9X9X9X9X7X7X7X7X;X;X;X;XW W W W W W W Z Z Z Z oXoXoXoX{.].].].B B B B W W W W C C C C s.s.s.s.&.*.&.*.B B B B i.i.p.i.) ) ) ) [ O.O.O.[ [ [ { $.$.$.$.1.1.1.1.w.w.8.w.F.F.F.F.J.J.J.J.J.J.J.J.Q.Q.Q.Q.(.(.(.(.(.(.(.zXzXzXzXnXnXnXnXZXZXZXZXZXZXZXZXq.q.q.q.j j j j z l z z y y y y F.F.F.F.F.F.F.F.K.K.K.K.0.0.9.9.K.K.K.K.r.r.B.B.T.T.T.T.AXAXAXAXGXGXGXGXe e e e kXkXkXkXd d d d d d d d 4 4 4 g g g g t t t t : : : : Y Y Y Y P P P P P P P P P f.P f.h.h.h.h.j.j.j.j.Z.Z.Z.Z.Z.C.Z.Z.Z.Z.Z.Z.g.g.g.g.: e e e zXzXzXjXR.R.R.R.Y.Y.Y.Y.J.J.J.J.J.J.J.J.c.c.c.c.2.4.4.4.$.$.$.;.| | | { { { { #.#.#.#.*.*.*.*.=.=.=.=.pXpXpXpX>.>.>.>.g.g.g.g.C.C.C.C.w w w w w w w w iXiXuXuXwXwX4X4X4X4X4X4XwXwXwXwX2X2X2X2X4X4X4X",
"4X4X3X3X3X3XwXwXwXwX7X7X7X7XwXwX4X4X*X*X*X*X9X9X9X9X7X7X7X7X;X;X;X;XW W W W W W W Z Z Z Z oXoXoXoX].].].].B B B B W W W W C C C C s.s.s.s.*.*.&.*.B B B B i.i.p.p.) ) ) ) O.O.O.O.[ [ [ { $.$.$.$.1.1.1.1.w.w.w.w.F.F.F.F.J.J.J.J.J.J.J.J.Q.Q.Q.Q.(.(.(.(.(.(.(.zXzXzXzXnXnXnXnXZXZXZXZXZXZXZXZXq.q.q.q.j j j j z z z z y y y y F.F.F.F.F.F.F.F.K.K.K.K.0.0.9.9.K.K.K.K.r.B.B.Z.T.T.Q.Q.AXAXAXAXGXGXGXGXe e e e kXkXkXkXd d d d d d d d 4 4 4 g g g g t t t t : : : : Y Y Y Y P P P P P P P P P f.P P h.h.h.h.j.j.j.j.Z.Z.Z.Z.Z.Z.Z.Z.Z.Z.Z.Z.g.g.g.g.: e e e zXjXjXjXR.R.R.R.Y.Y.Y.Y.J.J.J.J.J.J.J.J.c.c.c.c.2.4.4.4.$.$.$.$.| | | { { { { #.#.#.#.*.*.*.*.=.=.=.=.pXpXpXpX>.>.>.>.g.g.g.g.C.C.C.C.w w w w w w w w iXiXuXuX4XwX4X4X4X4X4X4XwXwXwXwX2X2X2X2X4X4X4X",
"4X4X3X3X3X3XwXwXwXwX7X7X7X7XwXwX4XwX*X*X*X*X9X9X9X9X7X7X7X7X;X;X;X;XW W W W R R W Z Z Z Z oXoXoXoX{.].].].B B B B W W W W C C C C s.s.s.s.*.*.*.*.B B B B p.p.p.p.) ) ) ) O.O.O.O.[ [ [ { $.$.$.$.1.1.1.1.w.w.w.w.F.F.F.D.J.J.J.J.J.J.J.J.Q.Q.Q.Q.(.(.(.(.(.(.(.zXzXzXzXnXnXnXnXZXZXZXZXZXZXZXZXq.q.q.q.j j j j z z z z y y y y F.F.F.F.F.F.F.F.K.K.K.K.0.0.9.9.K.K.K.K.r.r.B.B.T.T.T.T.AXAXAXAXGXGXGXGXe e e e kXkXhXhXd d d d g d d d 4 : : g g g g t t t t : : : : Y Y Y Y P P P P P P P P P f.f.P h.h.h.h.j.j.j.j.Z.Z.Z.Z.Z.Z.Z.Z.C.Z.Z.Z.g.g.g.g.: e : : jXjXjXjXR.!.!.R.Y.Y.Y.Y.J.J.J.J.J.J.J.J.c.c.x.c.2.4.4.2.$.$.$.;.| | | [ [ { { #.#.#.#.*.*.*.*.=.=.=.=.pXpXpXpX>.>.>.z g.g.g.g.C.C.C.C.w w w w w w w w uXuXuXuXwXwX4X4X4X4X4X4XwXwXwXwX2X2X2X2X4X4X4X",
"4X4X3X3X3X3XwXwXwXwX7X7X7X7XwXwX4XwX*X*X*X*X9X9X<X9X7X7X7X7X;X;X;X;XW W W W R R W Z Z Z Z oXoXoXoX{.].{.].B B B B W W W W C C C C s.s.s.s.*.*.*.*.B B B B p.p.p.p.) ) ) ) O.O.O.O.[ [ [ { $.$.$.$.1.1.1.1.w.w.w.w.F.F.F.D.J.J.J.J.J.J.J.J.Q.Q.Q.Q.(.(.(.(.(.(.(.zXzXzXzXnXnXnXnXZXZXZXVXZXZXZXZXq.q.q.q.j j j j z z z z y y y y F.F.F.F.F.F.F.F.K.K.K.K.9.9.9.9.K.K.K.K.r.r.B.B.T.T.T.T.AXAXAXAXGXGXGXGX4 e e e kXkXhXhXd d d d d d d d 4 4 : g g g g t t t t : : : : Y h.Y Y P P P P P P P P P f.f.P h.h.h.h.j.j.j.j.Z.Z.Z.Z.Z.Z.Z.Z.C.Z.Z.Z.g.g.g.g.: e e : jXjXjXjXR.!.R.R.Y.Y.Y.Y.J.J.J.J.J.J.J.J.c.x.x.c.2.2.2.2.$.$.$.;.| | | [ [ { { #.#.#.#.*.*.*.*.=.=.=.=.pXpXpXpX>.>.>.>.g.g.g.g.C.C.C.C.w w w w w w w w uXuXuXuXwXwX4X4X4X4X4X4XwXwXwXwX2X2X2X2X4X4X4X",
"4X4X3X3X3X3XwXwXwXwX3X3X3X3X>X>X>X>X4X4X4X4X7X7X8X7X X X X X7X7X7X7XoXoXoXoXW W W E ! ! ! %X%X%X%X{.].{.{.B B M B W W W Z a.a.a.a.=.=.=.=.B B B B =.=.=.=.' ' ' ' #.#.#.#.%.%.%.%.....#.#.6.6.6.6.6.6.6.6.x.x.x.x.D.D.D.D.K.K.K.K.K.K.K.Y.W.W.W.T.(.(.(.(.xXxXxXvXvXvXzXCXCXCXCXZXZXZXZXZXZXZXZXj j j j 0.0.0.0.z z z z z z z z 9.9.9.9.D.D.D.D.J.J.J.J.d d j j K.K.K.K.Y.T.T.T.JXJXJXJXLXLXLXLXJ.J.J.L.C.C.C.C.kXkXkXkXsXsXsXsXS.S.S.S.4 4 4 U U U U Y Y Y Y : : : : : : : : - - - - : : : : - * - - : : : : j.j.j.j.Z.j.j.j.C.C.C.C.C.C.C.C.Z.Z.C.C.Z.Z.Z.Z.4 4 4 4 vXvXvXvX!.R.R.!.I.I.I.J.D.G.G.G.c.x.x.x.8.8.8.8.2.6.6.6.;.$.$.%.%.%.%.) ) ) ) +.+.+.+.M M B B pXpXpXpXs s s s >.>.>.>.g.g.g.g.w w w w % % % % z.z.A.A.wXwX4X4X<X<X<X<XwXwXwXwX3X3X3X3XwXwXwX",
"4X4X3X3X3X3XwXwXwXwX3X3X3X3X>X>X>X>X4X4X4X4X7X7X7X7X X X X X7X7X7X7XoXoXoXoXW W W E E ! ! %X%X%X%X{.{.{.{.B B B B W W W Z a.a.a.a.=.=.=.=.B B B B =.=.=.=.' ' ' ' #.#.#.#.%.%.%.%.......#.6.6.6.6.6.6.6.6.x.x.x.x.D.D.D.D.K.K.K.K.K.K.K.Y.W.W.W.T.(.(.(.(.xXxXxXvXvXvXvXCXCXCXCXZXZXZXZXZXZXZXZXj j j j 0.0.0.0.z z z z z z z z 9.9.9.9.D.D.D.D.J.J.J.J.j j j j K.K.K.K.Y.Y.T.T.JXJXJXJXLXLXLXLXJ.J.J.J.C.C.C.C.kXkXkXkXsXsXsXsXS.S.S.S.4 4 4 U U U U Y Y Y Y : : : : : : : : - - - - : : : : - * - - : : : : j.j.j.j.Z.j.j.j.C.C.C.C.C.C.C.C.Z.Z.Z.C.Z.Z.C.C.4 4 4 4 vXvXvXvXR.R.R.R.I.J.J.J.D.G.G.G.c.x.x.c.8.8.8.8.2.6.6.6.;.$.$.%.%.%.%.) ) ) ) +.+.+.+.M M B B pXpXpXpXs s s s z >.z z g.g.g.g.w w w w % % % % z.z.A.A.wXwX4X4X<X<X<X<XwXwXwXwX3X3X3X3XwXwXwX",
"4X4X3X3X3X3XwXwXwXwX3X3X3X3X>X>X>X>X5X5X4X4X7X7X7X7XoXoXoX X7X7X7X7XoXoXoXoXW W W ! ! ! ! %X%X%X$X{.{.{.{.B B B B W W W W a.a.a.a.=.=.=.=.B B B B i i i =.' ' ' ' #.#.#.#.%.%.%.%.#.......6.6.6.6.6.6.6.6.x.x.x.x.D.D.D.D.Y.Y.Y.K.K.K.K.K.Q.Q.Q.Q.(.(.(.(.xXxXxXzXzXzXzXCXCXCXCXZXZXZXZXZXZXZXZXj j j j 0.0.0.0.z z z l z z z z 9.9.9.9.D.D.D.D.J.J.J.J.j j j j K.K.K.K.Y.Y.T.T.JXJXJXJXLXLXLXLXJ.J.J.J.S.S.S.S.hXhXkXkXsXsXsXsXS.S.S.S.4 4 4 U U U U Y Y Y Y : : : : : : : : - - - - - : : : * * * * : : : : h.h.h.h.j.Z.Z.Z.Z.C.C.Z.Z.Z.C.C.Z.C.C.C.Z.Z.Z.C.4 4 4 4 zXzXzXzX!.!.!.!.I.I.I.J.D.D.D.D.x.c.c.c.8.8.8.8.2.6.6.6.$.$.$.%.%.%.%.) ' ' ' +.+.+.@.a.a.a.a.pXpXpXpXs s s s >.>.z z g.g.g.g.w w w w % % % % z.z.A.A.wXwX4X4X8X8X8X<XwXwXwXwX3X3X3X3XwXwXwX",
"4X4X3X3X3X3XwXwXwXwX3X3X3X3X>X>X>X>X5X5X4X4X7X7X7X7XoXoXoX X7X7X7X7XoXoXoXoXW W W ! ! ! ! %X%X%X$X{.{.].{.B B B B W W W W a.a.a.a.=.=.=.=.B B B B i i i =.' ' ' ' #.#.#.#.%.%.%.%.#...#...6.6.6.6.6.6.6.6.x.x.x.x.D.D.D.D.K.Y.Y.K.K.K.K.Y.Q.Q.Q.Q.(.(.(.(.xXxXxXzXzXzXzXCXCXCXCXZXZXZXZXZXZXZXAXj j j j 0.0.0.0.z z z z z z z z 9.9.9.9.D.D.D.D.J.J.J.J.d d j j K.K.K.K.Y.Y.Y.T.JXJXJXJXLXLXLXLXJ.J.J.J.S.S.S.S.kXkXkXkXsXsXsXsXS.S.S.S.4 4 4 U U U U Y Y Y Y : : : : : : : : - - - - - : : : - * * * : : : : h.h.h.h.j.Z.j.Z.Z.C.C.Z.Z.Z.Z.C.Z.C.C.C.Z.Z.Z.C.4 4 4 e zXzXzXzX!.!.!.R.I.Y.Y.J.D.D.D.D.c.c.c.c.8.w.8.8.2.6.6.6.$.$.$.%.%.%.%.' ' ` ` +.+.+.@.M M a.M pXpXpXpXs s s s >.>.z >.g.g.g.g.w w w w % o % % z.A.A.z.4XwX4X4X8X8X<X<XwXwXwXwX3X3X3X3XwXwXwX",
"4X4XwXwXwXwXwXwXwXwX4X4X4X4X4X4X4X4X4X4X4X4X<X<X<X<X9X9X9X9X#X#X#X#X=X%X%X%XoXoXoX@X#X#X#X[.[.[.[.M M M M V V V V V V V V O.O.O.O.+.+.+.+._ _ _ _ O.O.O.O.' ' ' ' } } } } %.%.%.%.1.1.1.1.4.4.4.4.2.2.2.2.D.D.D.D.K.K.K.K.K.K.K.K.Y.Y.Y.Y.!.!.!.!.Q.Q.Q.Q.bXbXbXnXnXnXnXCXCXCXCXZXZXZXZXVXVXZXZXj j j j j j j j z z z z q.q.q.q.; ; ; ; D.D.D.D.K.K.J.J.e e e e J.J.J.J.Y.Y.T.T.LXLXLXLXLXLXLXLXH.H.H.H.f.f.f.f.C.C.C.C.A.A.j.j.h.h.h.h.x x K f f f t t t t f A.z.z.A.sXsXsXsXsXsXsXsXsXsXsXsXsXsXsXsXSXSXSXSX- - - - - : - - e t t t x x x x x x x x g d d d 4 4 4 4 jXjXjXjXjXjXjXjXjXjXjXjXR.R.R.R.c.c.c.c.v.v.v.v.k.k.k.k.;.;.;.$.$.$.$.` ` ` ` +.+.+.+.i i i i pXpXpXpXw w w w s j s s hXhXhXhXv v v v o o o o x x x x tXtXtXtX4X4X4X4X1X1X1X1X3X3X3X3XwXwXwX",
"4X4XwXwXwXwXwXwXwXwX4X4X4X4X4X4X4X4X4X4X4X4X<X<X<X<X9X9X9X9X#X#X#X#X=X%X%X%XoXoXoX@X#X#X#X[.[.[.[.M M M M V V V V V V V V O.O.O.O.+.+.+.+._ _ _ _ O.O.O.O.' ' ' ' } } } } %.%.%.%.1.1.1.1.4.4.4.4.2.2.2.2.D.D.D.D.K.K.K.K.K.K.K.K.Y.Y.Y.Y.!.Q.Q.!.Q.Q.Q.Q.bXbXbXnXnXnXnXCXCXCXCXZXZXZXZXVXVXZXZXj j j j j j j j z z z z q.q.q.q.; ; ; ; D.D.D.D.K.K.K.J.e e e e J.J.J.J.T.Y.T.T.LXLXLXLXLXLXLXLXH.H.H.H.f.f.f.f.C.C.C.C.A.A.j.j.h.h.h.h.x x x f f f t t t t t A.A.A.A.sXsXsXsXsXsXsXsXsXsXsXsXsXsXsXsXSXSXSXSX- - - - - - - - e t t t x x x x x x x x g d d d 4 4 4 4 jXjXjXjXjXjXjXjXjXjXjXjXR.R.R.R.c.c.c.c.v.v.v.v.k.k.k.k.;.;.;.$.$.$.$.` ` ` ` +.+.+.+.i i i i pXpXpXpXw w w w j j s s E.hXhXhXv v v v o o o o x x x x tXtXtXtX4X4X4X4X1X1X1X1X3X3X3X3XwXwXwX",
"4X4XwXwXwXwXwXwXwXwX4X4X4X4X4X4X4X4X4X4X4X4X<X<X<X<X9X9X9X9X#X#X#X#X%X%X%X%XoXoXoX#X#X#X#X[.[.[.[.M M M M V V V V V V V s.O.O.O.O.+.+.+.+._ _ _ _ O.O.O.O.' ' ' ' } } } } %.%.%.%.1.1.1.1.4.4.4.4.2.2.2.2.D.D.D.D.K.K.K.K.K.K.K.K.Y.Y.Y.Y.Q.Q.Q.!.Q.Q.Q.Q.bXbXbXnXnXnXnXCXCXCXCXZXZXZXZXZXZXZXZXj j j j j j j j z z z z q.q.q.q.e e e ; Z.Z.D.D.K.K.J.J.e e e e J.J.J.J.T.T.T.T.LXLXLXLXLXLXLXLXH.H.H.H.f.f.f.f.C.C.C.C.j.j.j.j.h.h.h.h.x x K f f f f t t t t A.A.A.A.sXsXsXsXsXsXsXsXsXsXsXsXsXsXsXsXSXSXSXSX- - - - : : - - e t t t x x x x x x x x g g g g 4 4 4 4 jXjXjXjXjXjXjXjXjXjXjXjXR.R.R.R.c.c.c.c.v.v.v.v.k.k.k.k.;.;.;.$.$.$.$.{ ` ` ` +.+.+.+.i i *.*.pXpXpXpXw w w w s s s s hXhXhXE.v v v v o o o o x x x x tXtXtXtX4X4X4X4X1X1X1X1X3X3X3X3XwXwXwX",
"4X4XwXwXwXwXwXwXwXwX4X4X4X4X4X4X4X4X4X4X4X4X<X<X<X<X9X8X9X9X#X#X#X#X%X%X%X%XoXoXoX#X#X#X#X[.[.[.[.M M M M V V V V V V V s.O.O.O.O.+.+.+.+._ _ _ _ O.O.O.O.' ' ' ' } } } } %.%.%.%.1.1.1.1.4.4.4.4.2.2.2.2.D.D.D.D.K.J.J.K.K.K.K.K.Y.Y.Y.Y.Q.Q.Q.!.Q.Q.Q.Q.bXbXbXnXnXnXnXCXCXCXCXZXZXZXZXZXZXZXZXj j j j j j j j z z z z q.q.q.q.e e e e D.Z.Z.D.K.K.J.J.e e e e J.J.J.J.T.T.T.T.LXLXLXLXLXLXLXLXH.H.H.H.f.f.f.f.C.C.C.C.j.j.j.j.h.h.h.h.x x K f f f f f t t t A.A.A.A.sXsXsXsXsXsXsXsXsXsXsXsXsXsXsXsXSXSXSXSX- - - - : : : - t t t t x x x x x x x x g g g g 4 4 4 4 jXjXjXjXjXjXjXjXjXjXjXjXR.R.R.R.c.c.c.c.v.v.v.v.k.k.k.k.;.;.;.$.$.$.$.{ { ` ` +.+.+.+.i i *.*.pXpXpXpXw w w w s s s s hXhXhXE.v v v v o o o o x x x x tXtXtXtX4X4X4X4X1X1X1X1X3X3X3X3XwXwXwX",
"5X5XwXwXwXwX1X1X1X1X4X4X4X4X-X-X-X-X<X<X<X<X7X7X7X7X-X-X-X-X%X%X%X%X@X#X#X#XE E E E E '.'.|.|.|.|.W W W Q B B B B *.*.*.*.@.@.@.@.' ' ' ' ) ) ) ) ' ' ' { } } } } 6.6.6.6.$.$.$.$.8.8.8.8.7.7.7.7.8.8.8.8.H.D.D.H.J.J.J.J.W.W.W.W.Q.Q.Q.Q.Q.!.!.!.(.(.(.(.nXnXnXbXbXbXbXBXBXBXBXVXVXVXVXDXDXDXDXY.Y.Y.Y.l l l l l l l l l l l l q.q.q.q.r.r.Z.Z.K.J.J.J.z z z z L.L.L.L.!.!.!.!.KXKXKXKXGXGXGXGXZ.Z.Z.Z.g.g.g.g.f.f.f.f.x x x x K K K K P P P Y Y Y z.pXpXpXpX4 4 4 4 : : : : : : : : f f g g g g g g g h h h sXsXsXsXHXHXHXHXg g g g S.S.S.S.S.S.S.S.S.S.S.S.2 4 4 4 MXMXMXMXvXjXjXjXjXjXjXjXR.R.R.R.I.I.I.I.I.I.I.I.8.k.k.k.7.7.7.;.;.o.o.#.#.#.#.@.@.#.#.*.*.*.*.z.z.z.z.& & & & v v v v S.S.S.S.B.B.B.B.9.9.9.9.S.S.S.S.dXdXdXdXwXwXwXwX3X3X3X3X4X4X4X4XwXwXwX",
"4X5XwXwXwXwX1X1X1X1X4X4X4X4X-X-X-X-X<X<X<X<X7X7X7X7X-X-X-X-X$X$X%X%X@X#X#X#XE E R E E E '.|.|.|.|.W W W Q B B B B *.*.*.*.@.@.@.@.' ' ' ' ) ) ) ) ' ' ' { } } } } 6.6.6.6.$.$.$.$.8.8.8.8.7.7.7.7.8.8.8.8.H.D.D.H.J.J.J.J.W.W.W.W.Q.Q.Q.Q.!.!.!.!.(.(.(.(.nXnXnXbXbXbXbXBXBXBXBXVXVXVXVXDXDXDXDXY.Y.Y.Y.l l l l l l l l l l l l q.q.q.q.r.r.Z.Z.L.L.J.J.z z z z L.L.L.L.!.!.!.!.KXKXKXKXGXGXGXGXZ.Z.Z.Z.g.g.g.g.f.f.f.f.x x x x K K K K P P P z.Y Y z.pXpXpXpX4 4 4 4 : : : : : : : : f f f f g g g g g h h h sXsXsXsXHXHXHXHXg g g g S.S.S.S.S.S.S.S.S.S.S.S.2 4 4 4 MXMXMXMXvXjXjXjXjXjXjXjXR.R.R.R.I.I.I.I.I.I.I.I.8.k.k.k.7.7.7.;.;.o.o.#.#.#.#.#.#.#.#.*.*.*.*.z.z.z.z.& & & & v v v v S.S.S.S.B.B.B.B.9.9.9.9.S.S.S.S.dXdXdXdXwXwXwXwX3X3X3X3X4X4X4X4XwXwXwX",
"4X4XwXwXwXwX1X1X1X1X4X4X4X4X-X-X-X-X<X<X<X<X7X7X7X7X-X-X-X-X$X$X$X$X#X#X@X@XE E E '.'.'.'.|.|.|.|.W T T W B B B B *.*.*.*.@.@.@.@.' ' ' ' ) ) ) ) ] ] ] ] } } } } 6.6.6.6.$.$.$.$.8.8.8.8.5.8.7.8.8.8.8.8.H.H.D.H.J.J.J.J.W.W.W.W.Q.Q.Q.Q.!.!.!.!.(.(.(.(.nXnXnXbXbXbXbXBXBXBXBXZXZXZXZXDXDXDXDXY.Y.Y.Y.l l l l l l l l l l l l 0.0.0.0.l.l.Z.Z.J.J.J.J.z z z z L.L.L.L.E.E.E.E.KXKXKXKXGXGXGXGXZ.Z.l.l.g.g.g.g.f.f.f.f.x x x x P P K K P P P z.Y Y z.pXpXpXpX4 4 4 4 : : : : : : : : g f f f f g g g h h h h gXsXsXsXHXHXHXFXg g g g S.S.S.S.S.S.S.S.S.S.S.S.2 4 4 4 MXMXMXMXjXvXzXvXjXjXjXjXR.R.R.hXI.I.I.I.I.I.I.I.8.8.8.k.7.7.7.o.o.;.;.#.#.#.#.*.#.#.*.*.*.*.*.z.z.z.z.& & & & v v v v S.S.S.S.B.B.B.B.9.9.9.9.S.S.S.S.dXdXdXdXwXwXwXwX3X3X3X3X4X4X4X4XwXwXwX",
"4X4XwXwXwXwX1X1X1X1X4X4X4X4X-X-X-X-X<X<X<X<X7X7X7X7X-X-X-X-X$X$X$X$X#X#X@X@XR W E '.'.'.'.|.|.|.|.W T T W B B B B *.*.*.*.@.@.@.@.' ' ' ' ) ) ) ) ] ] ] ' } } } } 6.6.6.6.$.$.$.$.8.8.8.8.7.7.7.8.8.8.8.8.H.H.H.H.J.J.J.J.W.W.W.W.Q.Q.Q.Q.!.!.!.!.(.(.(.(.nXnXnXbXbXbXbXBXBXBXBXZXZXZXZXDXDXDXDXY.Y.Y.Y.l l l l l l l l l l l l 0.0.0.0.l.l.Z.Z.L.J.J.J.z z z z L.L.L.L.E.E.E.E.KXKXKXKXGXGXGXGXZ.Z.l.l.g.g.g.g.f.f.f.f.x x x x P K K K P P P z.z.z.z.pXpXpXpX4 4 4 4 : : : : : : : : g f f f f g g g g h h h sXsXsXgXHXHXHXFXg g g g S.S.S.S.S.S.S.S.S.S.S.S.2 4 4 4 MXMXMXMXjXvXzXvXjXjXjXjXR.R.R.hXI.I.I.I.I.I.I.I.8.8.8.k.7.7.7.o.o.;.;.#.#.#.#.#.*.*.*.*.*.*.*.z.z.z.z.& & & & v v v v S.S.S.S.B.B.B.B.9.9.9.9.S.S.S.S.dXdXdXdXwXwXwXwX3X3X3X3X4X4X4X4XwXwXwX",
"4X4XwXwXwXwXwXwXwXwX1X1X1X1X-X-X-X-X4X4X4X4X<X<X<X<X1X1X1X1X*X*X*X*X'.'.'.'.%X%X%XZ Z Z Z B B B B V V V V B M M M -.*.*.*.*.*.*.*.{ { { { #.#.#.#.} } } } o.o.o.o.1.1.1.1.7.7.7.7.k.k.k.k.8.8.8.w.x.x.l.l.D.D.D.D.K.J.J.J.Q.Q.Q.Q.Q.Q.Q.Q.Q.Q.Q.Q.zXzXzXzXmXmXmXBXMXMXBXZXZXZXZXFXFXFXFXFXFXDXFXD.D.D.D.l l l l j j j j l l l l j j j j q.q.r.r.H.H.H.H.l l z z L.L.L.L.jXjXjXjXGXGXGXGXZXZXVXVXZ.Z.Z.Z.Z.Z.g.g.j.j.h.h.Y Y Y Y Y Y Y Y K K K I K K K pXpXpXpXA.A.A.A.uXuXuXuXuXuXuXuXpXpXpXpXpXpXpXpXg g g g h g g g h h h h f t t t S.S.S.S.Y Y Y Y A.S.S.S.h h h h 4 2 2 4 FXFXFXFXNXNXNXNXjXjXjXhXI.I.I.I.v.v.v.v.k.k.k.k.7.7.7.#.#.#.#.{ { { { ` ` ` ` p.p.p.p.h h h h s s s s B.B.B.B.,.,.,.,.s s s s >.>.>.>.Z.Z.Z.Z.fXfXfXfXwXwXwXwX3X3X3X3X4X4X4X4XwXwXwX",
"4X4XwXwXwXwXwXwXwXwX1X1X1X1X-X-X-X-X4X4X4X4X<X<X<X<X1X1X1X1X*X*X*X*X].'.'.'.%X%X%XZ Z Z Z B B B B V V V V B B B M *.*.-.*.*.*.*.*.{ { { { #.#.#.#.} } } } o.o.o.o.1.1.1.1.7.7.7.7.k.k.k.k.8.8.8.w.x.x.l.l.D.D.D.D.K.J.J.J.Q.Q.Q.Q.Q.Q.Q.Q.Q.Q.Q.Q.zXzXzXzXmXmXmXBXBXMXMXZXZXVXZXFXFXFXFXFXFXDXFXD.D.D.D.l l l l j j j j l l l l j j j j q.q.r.r.H.H.H.H.z z z z L.L.L.L.jXjXjXjXGXGXGXGXZXZXVXVXZ.Z.Z.Z.Z.Z.Z.l.j.h.h.h.Y Y Y Y Y Y Y Y K K K K K K I pXpXpXpXA.A.A.A.uXuXuXuXuXuXuXuXpXpXpXpXpXpXpXpXg g g g h g g g h h h h f t t t S.S.S.S.Y Y Y Y A.S.S.S.x h h h 4 2 4 4 FXFXFXFXNXNXNXNXjXjXjXhXI.I.I.I.v.v.v.v.k.k.k.k.7.7.7.#.#.#.#.{ { { { ` ` ` ` p.p.p.p.h h h h s s s s B.B.B.B.,.,.,.,.s s s s z z >.,.Z.Z.Z.Z.fXfXfXfXwXwXwXwX3X3X3X3X4X4X4X4XwXwXwX",
"4X4XwXwXwXwXwXwXwXwX1X1X1X1X-X-X-X-X4X4X4X4X<X<X<X<X1X1X0X0X*X*X*X*X'.'.'.'.%X%X%XZ Z Z Z B B B B V V V V M M M B -.*.=.*.*.*.*.*.{ { { { #.#.#.#.} } } } o.o.o.o.1.1.1.1.7.7.7.7.k.k.k.k.8.8.8.w.l.l.l.k.D.D.D.D.K.K.J.J.Q.Q.Q.Q.Q.Q.Q.Q.Q.Q.Q.Q.zXzXzXzXmXmXmXBXnXnXBXZXVXVXVXDXFXDXFXFXFXFXFXD.D.D.D.l l l l j j j j l l l l j j j j q.q.q.q.H.H.H.H.z z z z L.L.L.L.jXjXjXjXGXGXGXGXVXVXVXVXZ.Z.Z.Z.Z.l.l.l.h.h.h.h.Y Y Y Y Y Y Y Y K K K I I I I pXpXpXpXA.A.A.A.uXuXuXuXuXuXuXuXpXpXpXpXpXpXpXpXg g g g h h h h h h h h f t t f S.S.S.S.Y Y Y Y A.A.A.S.x h h h 4 4 4 4 FXFXFXFXNXNXNXNXhXjXjXjXI.I.I.I.v.v.v.v.k.k.k.k.7.7.7.#.#.#.#.{ { { { { { ` ` p.p.p.p.h h h h s s s s B.B.B.B.,.,.,.,.s s s s >.>.>.>.Z.Z.Z.Z.fXfXfXfXwXwXwXwX3X3X3X3X4X4X4X4XwXwXwX",
"4X4XwXwXwXwXwXwXwXwX1X1X1X1X-X-X-X-X4X4X4X4X<X<X<X<X1X0X0X0X*X*X*X*X'.'.'.'.%X%X%XZ Z Z Z B B B B V V V V B M M M *.*.*.*.*.*.*.*.{ { { { #.#.#.#.} } } } o.o.o.o.1.1.1.1.7.7.7.7.k.k.k.k.8.8.8.8.l.l.l.k.D.D.D.D.K.J.J.J.Q.Q.Q.Q.Q.Q.Q.Q.Q.Q.Q.Q.zXzXzXzXmXmXmXBXnXnXBXZXZXVXVXDXDXDXFXDXFXFXFXD.D.D.D.l l l l j j j j l l l l j j j j q.q.q.g.H.H.H.H.l l z z L.L.L.L.jXjXjXjXGXGXGXGXVXVXVXVXZ.Z.Z.Z.Z.Z.g.l.h.h.h.h.Y Y Y Y Y Y Y Y K K K K I I I pXpXpXpXA.A.A.A.uXuXuXuXuXuXuXuXpXpXpXpXpXpXpXpXg g g g h h h h h h h h f t t f S.S.S.S.Y Y Y Y A.A.A.S.x h h h 4 4 4 4 FXFXFXFXNXNXNXNXhXjXjXjXI.I.I.I.v.v.v.v.k.k.k.k.7.7.7.#.#.#.#.{ { { { { { ` ` p.p.p.p.h h h h s s s s B.B.B.B.,.,.,.,.s s s s ,.>.>.>.Z.Z.Z.Z.fXfXfXfXwXwXwXwX3X3X3X3X4X4X4X4XwXwXwX",
"wXwXwXwXwXwX2X2X2X2X<X<X<X<X-X-X-X-X7X7X7X7X5X5X5X5X+X+X+X+XoXoXoXoXW W W W ! ! ! C C C C {.{.{.{.C C C C a.a.a.a.O.O.O.O.) ) ) ) #.#.#.#.| | | | | | | | 3.3.3.3.1.1.1.1.k.e.e.e.k.l.l.l.k.k.k.k.D.D.D.D.J.J.J.J.Q.Q.Q.Q.Q.Q.Q.Q.Q.Q.Q.Q.(.(.(.(.nXnXnXnXxXvXvXAXAXAXAXVXVXVXVXDXDXDXDX(.(.(.(.K.K.K.K.z z l l j j j j l l l l j j j j q.q.0.0.Z.Z.Z.Z.c c c c Z.Z.Z.Z.zXzXzXzXMXMXMXMXNXNXNXNXg.g.h.j.g.g.g.g.P P P P K K K K h h h h f f f f f f f U U U U I I I I / / / / K K K K / / / / A.A.A.z.uXuXuXuXpXpXpXpXfXfXfXsXpXpXpXpXA.A.A.A.P U P P K K K K P P P P 4 2 4 4 VXVXVXVXVXVXVXVXlXvXvXlXI.I.I.I.I.I.I.I.k.k.k.k.2.6.6.;.;.;.;.' ' { { ] } ] ] p.p.p.p.s s s s 9.9.9.9.s s s s ; ; ; ; l l l l z 9.z z a a a a P P P P wXwXwXwX3X3X3X3XwXwXwXwXwXwXwX",
"wXwXwXwXwXwX2X2X2X2X<X<X<X<X-X-X-X-X7X7X7X7X5X5X5X5X+X+X+X+XoXoXoXoXW W W W ! ! ! C C C C {.{.{.{.C C C C a.a.a.a.O.O.O.O.) ) ' ) #.#.#.#.| | | | | | | | 2.3.3.3.1.1.1.1.e.e.w.w.k.l.l.l.k.k.k.k.D.D.D.D.J.J.J.J.Q.Q.Q.Q.Q.Q.Q.Q.Q.Q.Q.Q.(.(.(.(.nXnXnXnXvXvXvXAXAXAXAXVXVXVXVXDXDXDXDX(.(.(.(.K.K.K.K.z z z l d d j j l l l l j j j j q.q.0.0.Z.Z.Z.Z.c c c c Z.Z.Z.Z.zXzXzXzXMXMXMXNXNXNXNXNXg.g.h.h.g.g.g.g.P f.P P K K K K h h h h f f f f f f f U U U U I I I I / / / / K K K K / / / / A.A.A.z.uXuXuXuXpXpXpXpXfXfXsXsXpXpXpXpXA.A.A.A.P P P P K K K K P P P P 4 2 2 4 VXVXVXVXVXVXVXVXlXlXvXlXI.I.I.I.I.I.I.I.k.k.k.k.6.6.6.;.;.;.;.' { { { ] ] ] ] p.p.p.p.s s s s 9.9.9.9.s s s s ; ; ; ; l l l l 9.9.z z a a a a P f.P P wXwXwXwX3X3X3X3XwXwXwXwXwXwXwX",
"wXwXwXwXwXwX2X2X2X2X<X<X<X<X-X-X-X-X7X7X7X7X5X5X5X5XXXXX+X+XoXoXoXoXW W W W Q Q Q C C C C {.{.{.{.C C C C a.a.a.a.O.O.O.O.' ' ' ) #.#.#.#.| | | | | | | | 3.3.3.3.3.3.1.1.k.e.e.e.k.k.k.k.k.k.k.k.D.D.D.D.J.J.J.J.T.T.T.Q.Q.Q.Q.Q.Q.W.Q.W.(.(.(.(.nXnXnXnXvXvXvXAXAXAXAXZXVXVXVXDXDXFXFX(.(.(.(.K.K.K.K.k k z z j j j d l l l l j j j j 0.0.0.0.Z.Z.Z.Z.0.c c c Z.Z.Z.Z.(.(.jXjXNXNXMXMXNXNXNXNXg.g.g.g.g.g.g.g.P P P P K K K K h h h h f f f f f f f U U U U I I I I / / / / K K K K / / / / A.A.A.A.uXuXuXA.pXpXpXpXsXsXsXsXpXpXpXpXA.A.A.A.P P P P K K K K P P P P 4 2 2 2 VXVXVXVXVXVXVXVXvXlXlXlXI.I.I.I.I.I.I.I.k.k.k.k.2.2.6.;.;.;.;.{ { { { ] ] ] ] p.p.p.p.s s s s r.r.r.r.s s s s ; ; ; ; l l l l 9.9.z z r r a a P P P P wXwXwXwX3X3X3X3XwXwXwXwXwXwXwX",
"wXwXwXwXwXwX2X2X2X2X<X<X<X<X-X-X-X-X7X7X7X7X5X5X5X5XXXXX+X+XoXoXoXoXW W W W Q Q ! C C C C {.{.{.{.C C C C a.a.a.a.O.O.O.O.' ' ' ) #.#.#.#.| | | | | | | | 3.3.3.3.3.3.3.1.k.e.e.e.k.k.k.k.k.k.k.k.D.D.D.D.J.J.J.J.T.T.T.Q.Q.Q.Q.Q.Q.W.Q.W.(.(.(.(.nXnXnXnXvXvXvXAXAXAXDXZXZXVXVXDXDXFXDX(.(.(.(.K.K.K.K.k k z z j j d d l l l l j j j j 0.0.0.0.Z.Z.Z.Z.0.c c c Z.Z.Z.Z.(.(.jXjXNXNXMXMXNXNXNXNXg.g.g.g.g.g.g.g.P P P P K K K K h h h h f f f f f f f U U U U I I I I / / / / K K K K / / / / A.A.A.A.uXuXuXA.pXpXpXpXsXsXsXsXpXpXpXpXA.A.A.A.P P P P K K K K P P P P 4 2 2 2 VXVXVXVXVXVXVXVXvXlXlXlXI.I.I.I.I.I.I.I.k.k.k.k.2.2.6.;.;.;.;.{ { ' ' ] ] ] ] p.p.p.p.s s s s r.r.r.r.s s s s ; ; ; ; l l l l 9.9.z z r r a a P P P P wXwXwXwX3X3X3X3XwXwXwXwXwXwXwX",
"4X4XwXwXwXwX2X2X2X2X<X<X<X<X7X7X7X7X5X5X5X5X5X5X5X5X}.}.}.}.[.[.[.[.].].].].a.a.a.s.B B s.V V V B W W W W V V V V +.@.@.@.` ` ` ` ' ' ' ' } | | } o.o.o.o.w.w.w.w.8.8.8.8.x.x.x.x.w.w.w.w.e.e.e.e.D.D.D.D.J.J.J.J.Y.Y.Y.Y.Q.Q.Q.Q.(.(.(.!.(.(.(.(.nXnXnXnXMXBXBXDXDXDXDXDXDXDXDXF.F.F.F.P.P.P.P.F.F.F.F.d j j j G.G.Z.Z.z z z z d j j j g.g.g.g.c c c c e e e e hXhXhXhXlXlXlXlXNXNXNXNXC.C.C.C.h.h.h.h.P P P P Z.Z.Z.Z.x x x x h h h h f f f f f f f D f f f F F F D D f f h F F F F D D D D F F F F z.( ( ( A.A.A.A.A.A.A.A.z.z.z.z.U U U U Y Y Y Y K K K K K K K K 4 4 2 4 FXFXFXSXSXSXSXSXNXNXNXNXhXhXhXhXv.v.v.v.k.k.k.k.7.7.7.#.#.$.$.*.*.*.*.` ` ` ` d.d.d.d.s s s s 9.9.,.,.e e e e f f f f / / / / v v v v s s s s s s s s 2X2X2X2X4X4X4X4XwXwXwXwXwXwXwX",
"4X4XwXwXwXwX2X2X2X2X<X<X<X<X7X7X7X7X5X5X5X5X5X5X5X5X}.}.}.}.[.[.[.[.].].].].a.a.a.s.B B s.V V V B W W W W V V V V +.+.+.@.` ` ` ` ' ' ' ' | | | | o.o.o.o.w.w.w.w.8.8.8.8.x.x.x.x.w.w.w.w.e.e.e.e.D.D.D.D.J.J.J.J.Y.Y.Y.Y.Q.Q.Q.Q.(.(.(.!.zX(.(.(.nXnXnXnXMXBXBXDXDXDXDXDXDXDXDXF.F.F.F.Q.Q.P.P.F.F.F.F.d d j j G.G.Z.Z.z z z z d j j j g.g.g.g.c c c c e e e e hXhXhXhXlXlXlXlXNXNXNXNXC.C.C.j.h.h.h.h.P P P P Z.Z.Z.Z.x x x x h h h h f f f f f f f D f f f F F F F D f f f F F F F D D D D F F F F z.( ( ( A.A.A.A.A.A.A.A.z.z.z.z.U U U U Y Y Y Y K K K K K K K K 4 4 2 4 FXFXFXFXSXSXSXSXNXNXNXNXhXhXhXhXv.v.v.v.k.k.k.k.7.7.7.#.#.$.$.*.*.*.*.` ` ` ` d.d.d.d.s s s s 9.9.,.,.e e e e f f f f / / / / v v v v s s s s s s s s 2X2X2X2X4X4X4X4XwXwXwXwXwXwXwX",
"4X4XwXwXwXwX2X2X2X2X<X<X<X<X7X7X7X7X5X5X5X5X5X5X5X5X}.}.}.}.[.[.[.[.].].].].a.a.a.s.s.s.s.V V B B W W W W V V V V +.@.@.@.` ` ` ` ' ' ' ' | | | | o.o.o.o.w.w.w.w.8.8.8.8.x.x.x.x.w.w.w.w.e.e.e.e.D.D.D.D.J.J.J.J.Y.Y.Y.Y.W.W.W.W.!.(.!.(.(.(.(.(.nXBXnXnXBXBXBXDXDXDXDXDXDXDXDXF.F.F.F.Q.Q.Q.Q.F.F.F.F.j j j j G.G.G.G.z z l l d d j j g.g.g.g.c c c c e e e e E.E.E.hXlXhXhXlXNXNXNXNXC.C.C.C.h.h.h.h.P P P P Z.Z.Z.Z.x x x x h h h h f f f f f f g f D D D F F F F D f f D F F F F D D D D F F F F z.z.( ( A.A.A.A.A.A.A.A.z.z.z.z.U U U U Y Y Y Y K K K K K K K K 4 4 4 4 FXFXSXSXSXSXSXSXNXNXNXNXhXhXhXhXv.G.v.v.k.k.k.k.7.7.7.#.#.$.$.*.*.*.*.` ` ` [ d.d.d.d.s s s s ,.,.,.,.t t t t f f f f / / / / v v v v s s s s s s s s 2X2X2X2X4X4X4X4XwXwXwXwXwXwXwX",
"4X4XwXwXwXwX2X2X2X2X<X<X<X<X7X7X7X7X5X5X5X5X5X5X5X5X}.}.}.}.[.[.[.[.].].].].a.a.a.s.s.s.s.V B B B W W W W V V V V +.@.@.@.` ` ` ` ' ' ' ' | | | | o.o.o.o.w.w.w.w.8.8.8.8.x.x.x.x.w.w.w.w.e.e.e.e.D.D.D.D.J.J.J.J.Y.Y.Y.Y.W.W.W.W.!.(.(.(.(.(.(.(.nXBXBXnXBXBXBXDXDXDXDXDXDXDXDXF.F.F.F.Q.Q.Q.Q.F.F.F.F.j j j d G.G.G.Z.z z l z j d j j g.g.g.g.c c c c e e e e E.E.E.hXlXlXhXhXNXNXNXNXC.C.C.C.h.h.h.h.P P P P Z.Z.Z.Z.x x x x h h h h f f f f f f g D D D D F F F F D f f D F D F F D D D D F F F F z.z.( ( A.A.A.A.A.A.A.A.z.z.z.z.U U U U Y Y Y Y K K K K K K K K 4 4 4 4 FXSXSXSXSXSXSXSXNXNXNXNXhXhXhXhXv.G.G.v.k.k.k.k.7.7.7.#.#.$.$.*.*.*.*.` ` [ [ d.d.d.d.s s s s ,.,.,.,.t t y t f f f f / / / / v v v v s s s s s s s s 2X2X2X2X4X4X4X4XwXwXwXwXwXwXwX",
"4X4XwXwXwXwXwXwXwXwX2X2X2X2X4X4X4X4X4X4X4X4X4X4X4X4X0X0X0X0X9X9X9X9X[.[.|.|.{.{.{.[.[.[.[.].].].].T T T T n n n n =.=.-.*.` ` ` ` ' ' ' ' ........5.5.5.5.5.5.5.5.u.u.y.u.e.u.u.e.x.x.x.x.D.D.D.x.J.J.J.Y.R.R.R.Y.zXzXzXzXzXzXzXzX(.(.(.(.mXmXmXmXCXCXCXCXnXnXnXZXZXZXZXDXDXDXDXQ.Q.Q.Q.r.r.r.r.q.q.q.q.e e e e Z.Z.Z.Z.y y y d j j j j j j j j Z.Z.Z.Z.v v v v E.E.E.E.+ + + + + + + +         h.h.h.h.g.g.g.g.l l l l g g g g g g g g g g g f f g g g f f f f f f f f f f f f f f g f f f f F F F F H H H H D D D D f h f f D F F F H H H H Y Y Y Y I I I I I I I I h h h h VXVXVXVXjXzXzXzXR.R.R.R.Y.Y.Y.Y.H.H.H.H.w.w.w.w.7.7.7.$.$.$...' ' ' ' ' ' ] ] d.d.d.d.s s s s s s s s v v P v A.A.A.A.A.A.A.A.g g g g a a a a >.9.9.9.eXeXwXwX4X4X4X4XwXwXwXwXwXwXwX",
"4X4XwXwXwXwXwXwXwXwX2X2X2X2X4X4X4X4X4X4X4X4X4X4X4X4X0X0X0X0X9X9X9X9X[.[.|.|.{.{.{.[.[.[.[.].].].].T T T T n n n n =.-.-.*.` ` ` ` ' ' ' ' ........5.5.5.5.5.5.5.5.u.u.y.y.e.u.u.e.x.x.x.x.D.D.D.D.J.J.J.J.R.R.R.Y.zXzXzXzXzXzXzXzX(.(.(.(.mXmXmXmXCXCXCXCXnXnXnXZXZXZXZXDXDXDXDXQ.Q.Q.Q.r.r.r.r.q.q.q.q.e e e e Z.Z.Z.Z.y y y y j j j j j j j j Z.Z.Z.Z.v v v v E.E.E.E.+ + + + + + + +         h.h.h.h.g.g.g.g.l l l l g g g g g g g g g g f f f g g g f f f f f f f f f f f g f f g f f f f F F F F H H H H D D D D f h f f D F F F H H H H Y Y Y Y I I I I I I I I h h h h VXVXVXVXjXzXzXzXR.R.R.R.Y.Y.Y.Y.H.H.H.H.w.w.w.w.7.7.7.$.$.$...' ' ' ' ' ' ' ] d.d.d.d.s s s s s s s s v v P P A.A.A.A.A.A.A.A.g g g g a a a a >.>.9.9.wXeXwXwX4X4X4X4XwXwXwXwXwXwXwX",
"4X4XwXwXwXwXwXwXwXwX2X2X2X2X4X4X4X4X4X4X4X4X4X4X4X4X0X0X0X0X9X9X9X9X|.|.[.[.{.{.{.[.[.[.[.].].].].T T T T n n n n =.-.-.=.` ` ` [ ' ' ' ' ........5.5.5.5.5.5.5.5.u.u.u.u.y.y.u.u.x.x.x.k.x.x.x.x.J.J.J.J.Y.Y.Y.Y.zXzXzXzXzXzXzXzX(.(.(.(.mXmXmXmXCXCXCXCXnXnXnXZXZXZXZXDXDXDXDXQ.Q.Q.Q.r.r.r.r.q.q.q.q.e e e e Z.Z.Z.Z.y y y y j j j j j j j j Z.Z.l.Z.c c c c E.E.E.E.+ + + + + + + +         f.f.f.f.g.g.g.g.l l l l g g g g f f f f f g g f f f f f g f f f f f f f f f f g f f f f f f f F F F F H H H H D D D D h f f f F F F F H H H H U Y Y Y I I I K I I I U h h h h VXVXVXVXzXzXzXjXR.R.R.R.Y.R.R.R.H.H.H.H.w.w.w.w.7.7.7.....$.$.' ' ' ' ] ] ] ] d.d.d.d.s s s s s s s s v v P P A.A.A.A.A.A.A.A.g g g g a a a a z >.9.9.4X4X4XwX4X4X4X4XwXwXwXwXwXwXwX",
"4X4XwXwXwXwXwXwXwXwX2X2X2X2X4X4X4X4X4X4X4X4X4X4X4X4X0X0X0X0X9X9X9X9X|.|.[.[.{.{.{.[.[.[.[.].].].].T T T T n n n n =.=.-.=.` ` ` { ' ' ' ) ........5.5.5.5.5.5.5.5.u.u.u.u.y.y.y.u.x.x.x.k.x.x.x.x.J.J.J.J.Y.Y.Y.Y.zXzXzXzXzXzXzXzX(.(.(.(.mXmXmXmXCXCXCXCXnXMXnXZXZXZXZXDXDXDXDXQ.Q.Q.Q.r.r.r.r.q.q.q.q.e e e e Z.Z.Z.Z.y y y y j j j j j j j j Z.Z.l.l.c c c c E.E.E.E.+ + + + + + + +         f.f.f.f.g.g.g.g.l l l l g g d g f f f f g g g g f f f f g f f f f f f f f f f g g f f f f f f F F F F H H H H D D D D h h f f D F F F H H H H U Y Y Y I I I K I I I U h h h h VXVXVXVXzXzXzXzXR.R.R.R.Y.R.R.R.H.H.H.H.w.w.w.w.7.7.7...$.$.$.' ' ' ' ] ] ] ] d.d.d.d.s s s s s s s s v v P P A.A.A.A.A.A.A.A.g g g g a a a a z z 9.9.4X4X4X4X4X4X4X4XwXwXwXwXwXwXwX",
"wXwXwXwXwXwX3X3X3X3X2X2X2X2XwXwXwXwX2X2X2X2X2X2X2X2X2X2X2X2X}.}.}.}.'.'.E E [.[.[.oXoXoXoXB B B B m M M M V V V V =.-.-.-.' ' ' ' %.@.@.@.;.;.;.;.5.5.5.5.x.x.x.x.x.x.x.x.G.G.G.D.x.x.x.k.Z.D.D.x.Y.Y.Y.Y.zXzXzXzXbXbXbXbXxXxXxXxXbXbXbXbXbXbXbXbXnXBXBXBXZXZXZXDXDXDXDXDXDXDXDXc c c c j j j j q.q.q.q.D.D.D.D.t t t t j j l l l l l l j j j j Z.Z.Z.Z.x x x x S.S.S.S.. . . .                         2 2 2 2 # # # # + + @ @ @ @ @ @ + + + g f f f f g g f f f f f f f f f f f f f f f f f f f f f f f f f g f f g g g g f f g g g g g g g D F F F I J J J I I I I 4 5 5 5 VXVXVXVXzXzXzXzXY.Y.Y.Y.J.J.J.J.u.u.u.u.u.u.u.u.3.3.3.........' ' ' ' @.@.@.@.s.s.s.s.9.9.9.9.s s s s 9.9.9.9.x x x x t t t t w w w w s s s s A.A.j.j.5X3X5X5XwXwXwXwXwXwXwXwXwXwXwX",
"wXwXwXwXwXwX3X3X3X3X2X2X2X2XwXwXwXwX2X2X2X2X2X2X2X2X2X2X2X2X}.}.}.}.'.'.'.E [.[.[.oXoXoXoXB B B B M M M M V V V V =.-.-.-.' ' ' ' %.@.@.@.;.;.;.;.5.5.5.5.k.k.x.x.x.x.x.x.G.G.G.D.x.x.x.x.Z.D.D.D.Y.Y.Y.Y.zXzXzXzXbXbXbXbXxXxXxXxXbXbXbXbXbXbXbXbXnXBXBXBXZXZXZXDXDXDXDXFXDXDXDXc c c c j j j j q.q.q.q.D.D.D.D.t t t t j j l l l l l l h j j j Z.Z.Z.Z.x x x x S.S.S.S.. . . .                         2 2 2 2 # # # # + @ @ @ @ @ @ @ + + + g g g f f f f f f f f f f f f f f f f f f f f f f f f f f f f g g f f g g g g f f g g g g g g g D F F F J J J J I I I I 6 6 5 5 VXVXVXVXzXzXzXzXY.Y.Y.Y.J.J.J.J.u.u.u.u.u.u.u.u.3.3.3.........' ' ' ' @.@.@.@.s.s.s.s.9.9.9.9.s s s s 9.9.9.9.x x x x t t t t w w w w s s s s A.C.j.j.5X3X5X5XwXwXwXwXwXwXwXwXwXwXwX",
"wXwXwXwXwXwX3X3X3X3X2X2X2X2XwXwXwXwX2X2X2X2X2X2X2X2X2X2X2X2X}.}.}.}.'.'.'.'.[.[.[.oXoXoXoXB B B B M M m M V V V V -.-.-.=.' ' ' ' @.@.@.@.;.;.;.;.5.5.5.5.x.x.x.x.x.x.x.x.D.D.D.D.x.x.x.x.D.D.D.D.Y.Y.Y.Y.zXzXzXzXbXbXbXbXxXxXxXxXbXbXbXbXbXbXbXbXnXnXnXBXZXZXZXDXDXDXDXFXDXDXDXc c c c s j j j q.q.q.q.D.D.D.D.e t e e j j l l l l l l d d d d Z.Z.Z.Z.x x x x S.S.S.S.. . . .                         2 2 2 2 * * * * + + + @ @ @ @ @ + @ + g g f f f f f f f f f f f f f f f f f f f f f f f f f f f f f f f f f f g g f f f g g g g g g g D D D D J J J J K I I I 6 6 6 6 VXVXVXVXzXzXzXzXY.Y.Y.L.J.J.J.J.u.u.u.u.u.u.u.x.3.3.3.........' ' ) ) #.#.@.@.s.s.s.s.9.9.9.9.s s s s 0.0.9.9.x x x x t t t t w w w w s s s s C.C.j.j.5X5X5X5XwXwXwXwXwXwXwXwXwXwXwX",
"wXwXwXwXwXwX3X3X3X3X2X2X2X2XwXwXwXwX2X2X2X2X2X2X2X2X2X2X2X2X}.}.}.}.'.'.'.'.[.[.[.oXoXoXoXB B B B M M M M V V V V -.-.-.=.' ' ' ' @.@.@.@.;.;.;.;.5.5.5.5.x.k.x.x.x.x.x.x.D.D.D.D.x.x.x.x.D.D.D.D.Y.Y.Y.Y.zXzXzXzXbXbXbXbXxXxXxXxXbXbXbXbXbXbXbXbXnXBXBXBXZXZXZXDXDXDXDXFXFXDXDXc c c c s j j j q.q.q.q.D.D.D.D.e e e e j j l l l l l l d d d d Z.l.Z.Z.x x x x S.S.S.S.. . . .                         2 2 2 2 * * * * + + @ @ @ @ @ @ O + + g g g f f g g f f f f f f f f f f f f f f f f f f f f f f f f f f f f g g g g f f g g g g g g g D D F D J J J J K I I I 6 6 6 6 VXVXVXVXzXzXzXzXY.Y.Y.L.J.J.J.J.u.u.u.x.x.u.u.u.3.3.3.........' ' ) ) #.#.@.@.s.s.s.s.9.9.9.9.s s s s 9.9.9.9.x x x x t t t t w w w w s s s s C.C.j.j.5X5X5X5XwXwXwXwXwXwXwXwXwXwXwX",
"wXwXwXwXwXwX4X4X4X4X2X2X2X2XwXwXwXwX-X-X-X-X7X7X7X7X-X-X-X-X-X-X-X-X*X*X*X*X'.'.'.;X;X;X;XC V V V Q Q Q Q B B B B p.p.p.i.) ) ) ' [ [ [ [ ;.;.;.;.8.8.8.8.w.w.w.w.D.D.D.D.D.D.D.D.G.G.G.G.R.R.R.R.!.!.!.!.zXzXzXzXzXzXzXzXzXzXzXzXnXnXnXnXMXMXMXMXZXZXZXZXFXFXFXGXGXGXGXKXKXKXKXl l j j z z z z 0.0.0.9.l.l.l.l.e e e e 0.0.0.0.* * * * j j j j Z.Z.Z.Z.t t t t x x x x                                 2 2 2 2 # # # # + + + + X X X X X X X O O O O X O O O O X X X X X X X O O O X X X X X f f f f g f f g g g g g g g g g g g f g g g f g 4 4 4 4 f f f f J J J J < < < < vXvXvXvXL.L.L.Y.T.Y.T.T.F.F.F.F.D.D.D.D.8.5.8.8.5.8.8.$.$.$.$.#.{ O.O.+.+.O.O.n i i i Y Y Y Y ,.,.,.,.s s s s a a a a w w w w s s >.>.,.,.,.,.:X:X:X:X5X5X5X5XwXwXwXwXwXwXwXwXwXwXwX",
"wXwXwXwXwXwX4X4X4X4X2X2X2X2XwXwXwXwX-X-X-X-X7X7X7X7X-X-X-X-X-X-X-X-X*X*X*X*X'.'.'.;X;X;X;XC V V V Q Q Q Q B B B B p.p.p.i.) ' ' ' [ [ [ [ ;.;.;.;.8.8.8.8.w.w.w.w.D.D.D.D.D.D.D.D.G.G.G.G.R.R.R.R.!.!.!.!.zXzXzXzXzXzXzXzXzXzXzXzXnXnXnXnXMXMXMXMXZXZXZXZXFXFXFXGXGXGXGXKXKXKXKXl l j l z z z z 0.0.0.9.r.r.l.l.e e e e 0.0.0.0.* * * * j j j j Z.Z.Z.Z.t t t t x x x x                                 2 2 2 2 # # # # + + + + X X X X X X X O O O O X O O O O X X X X X X X O O O X X X X X f f f f g g f g g g g g g g g g g f f g g g f f 4 4 4 4 f f f f J J J J < < < < vXvXvXvXL.L.L.Y.T.Y.T.T.F.F.F.F.D.D.D.D.8.5.8.8.5.8.8.$.$.$.$.#.O.O.O.+.O.O.O.i i i i z.Y Y Y ,.,.,.,.s s s s a a a a w w w w s s >.>.,.,.,.,.:X:X:X:X5X5X5X5XwXwXwXwXwXwXwXwXwXwXwX",
"wXwXwXwXwXwX4X4X4X4X2X2X2X2XwXwXwXwX-X-X-X-X7X7X7X7X-X-X-X-X-X-X-X-X*X*X*X*X].].'.;X;X;X;XV V V V Q Q Q Q B B B B p.p.p.p.' ' ' ' [ [ [ [ $.$.$.;.8.8.8.8.w.w.w.w.D.D.D.D.D.D.D.D.G.G.G.G.R.R.R.R.!.!.!.!.zXzXzXzXzXzXzXzXzXzXzXzXnXnXnXnXMXMXMXMXZXZXZXZXFXFXFXGXGXGXGXJXJXJXJXj j j j z z z z 0.0.9.9.l.l.l.l.e e e e 0.0.0.0.* * * * l l l l Z.Z.Z.Z.t t e e x x x x                                 2 2 2 2 # # # # + + + + X X X X X X X + O O O O O O O O X X + O O X O X X X X X X X O f f f g g g g g g f f g g g f g g f f f f g g f 4 4 4 4 f f f f J J J J < < < < vXvXvXvXY.Y.Y.Y.T.T.T.T.F.D.D.D.D.D.D.D.8.8.8.8.7.8.8.$.$.$.$.{ { #.#.+.+.+.O.i i i i z.z.z.z.,.,.,.,.s s s s a a a a w w w w >.>.,.,.,.,.,.,.:X:X:X:X5X5X5X5XwXwXwXwXwXwXwXwXwXwXwX",
"wXwXwXwXwXwX4X4X4X4X2X2X2X2XwXwXwXwX-X-X-X-X7X7X7X7X-X-X-X-X-X-X-X-X*X*X*X*X'.].'.;X;X;X;XV V V V Q Q Q Q B B B B p.p.p.p.' ' ' ' [ [ [ ) $.$.$.;.8.8.8.8.w.w.w.w.D.D.D.D.D.D.D.D.G.G.G.G.R.R.R.R.!.!.!.!.zXzXzXzXzXzXzXzXzXzXzXzXnXnXnXnXMXMXMXMXZXZXZXZXFXFXFXGXGXGXGXJXJXJXJXl l j j z z z z 0.0.9.9.l.l.l.l.e e e e 0.0.0.0.* * * * l l l l Z.Z.Z.Z.t t e e x x x x                                 2 2 2 2 # # # # + + + + O X X X X X X + O O O O O O O O O X + O O O X X O O X X X X O f f f f g g g g g f f g g g f g g f f g f g g f 4 4 4 4 f f f f J J J J < < < < vXvXvXvXY.Y.Y.Y.T.T.T.T.F.D.D.D.D.D.D.D.8.8.8.8.7.8.8.$.$.$.$.{ { #.#.+.+.+.+.i i i i z.z.U z.,.,.,.,.s s s s a a a a w w w w >.>.,.,.,.,.,.,.:X:X:X:X5X5X5X5XwXwXwXwXwXwXwXwXwXwXwX",
"wXwXwXwXwXwXwXwXwXwX3X3X3X3XwXwXwXwX1X1X2X2X3X3X2X2XXXXX+X+X3X2X2X2X#X#X#X#X;X;X7X].].].].Z Z Z Z ].].].].T T T T ` ` ` ` { { { { %.%.%.%.6.6.6.6.2.2.2.2.e.e.e.e.D.D.D.D.J.K.K.K.J.J.J.J.R.R.R.R.zXzXzXzXxXxXxXxXbXbXbXbXCXCXCXCXDXDXDXDXFXFXFXFXGXGXGXGXGXGXGXJXJXJXJXKXKXKXKXZ.Z.Z.Z.T.T.T.T.9.9.9.9.d d d d q.q.q.q.+ + * * o o o o : : : : d d d d x x x x + + + +                                 2 2 2 2 # # # # H H H H 6 6 6 6 5 5 5 X X X X p p p p @ @ @ @ # @ @ @ @ # # # # @ @ # O O X X X X X O @ @ @ @ + O O O O O O O g g g g f f f f 5 6 6 5 J H H H - - - - S.S.S.S.!.!.!.!.Y.Y.Y.Y.F.F.F.F.D.D.D.D.e.w.w.w.2.6.2.$.$.$.$.{ { { { *.*.*.*.M M B B ].].].].F F F F s s s s s s s s s s s s l l z z .X.X`.`.wXwXwXwX3X3X3X3XwXwXwXwXwXwXwXwXwXwXwX",
"wXwXwXwXwXwXwXwXwXwX3X3X3X3XwXwXwXwX1X1X2X2X3X3X2X2XXXXX+X+X2X2X2X2X#X#X#X#X7X7X7X].].].].Z Z Z Z ].].].{.T T T T ` ` ` ` { { { { %.%.%.%.6.6.6.6.2.2.2.2.e.e.e.e.D.D.D.D.J.K.K.K.J.J.J.J.R.R.R.R.zXzXzXzXxXxXxXxXbXbXbXbXCXCXCXCXDXDXDXDXFXFXFXFXGXGXGXGXGXGXGXJXJXJXJXKXKXKXKXZ.Z.Z.Z.T.T.T.T.9.9.9.9.d d d d q.q.q.q.+ + * * o o o o : : : : d d d d x x x x + + + +                                 2 2 2 2 # # # # H H H H 6 6 6 6 5 5 5 X X X X p p p p @ @ @ @ # @ @ @ @ # # # # @ @ # O O X X X X X X O @ @ @ O O O O O O O O g g g g f f f f 5 6 6 6 J H H H - - - - S.S.S.S.!.!.!.!.Y.Y.Y.Y.F.F.F.F.D.D.D.D.w.w.w.w.2.6.2.$.$.$.$.{ { { { *.*.*.*.M M B B ].].].].F F F F s s s s s s s s s s s s l z z z `.`.`.`.wXwXwXwX3X3X3X3XwXwXwXwXwXwXwXwXwXwXwX",
"wXwXwXwXwXwXwXwXwXwX3X3X3X3XwXwXwXwX1X1X2X2X2X2X2X2XXXXXXXXX3X3X2X2X+X+X#X+X7X7X7X].].].].Z Z Z Z ].{.{.{.T T T T ` ` ` ` ' { { { -.-.-.%.6.6.6.6.2.2.2.2.e.e.e.e.D.D.D.D.K.J.J.J.J.J.J.J.R.R.R.R.zXzXzXzXvXvXvXxXbXbXbXbXCXCXCXCXDXDXDXDXFXFXFXFXGXGXGXGXGXGXGXJXJXJXJXKXKXKXKXZ.Z.Z.Z.Q.Q.Q.Q.q.q.q.9.d d d d q.q.q.q.* * * * . . o o : : : : h h h d c c c c + + + +                                 2 2 2 2 # # # # H H H H 6 5 6 5 5 5 5 X X X X p p p p @ @ @ @ @ @ # # # @ @ @ # # # # O O O O O X X X O @ @ @ O O O O O O O O g g g g f f f f 6 6 5 5 H J J J - - - - S.S.S.S.!.!.!.!.Y.Y.Y.Y.F.F.F.F.D.D.D.D.w.w.w.w.2.6.2.$.$.$.$.{ { ' ' *.*.*.*.B B B B ].].].].F F F F s s s s s s s s s s s s l z z l `.`.`.`.wXwXwXwX3X3X3X3XwXwXwXwXwXwXwXwXwXwXwX",
"wXwXwXwXwXwXwXwXwXwX3X3X3X3XwXwXwXwX1X1X2X2X2X2X2X2XXXXX+XXX3X3X2X2X+X+X+X+X7X7X7X].].].].Z Z Z Z {.].{.{.T T T T ` ` ` ` ' { { { -.-.-.%.6.6.6.6.2.2.2.2.e.e.e.e.D.D.D.D.K.J.J.K.J.J.J.J.R.R.R.R.zXzXzXzXvXxXvXxXbXbXbXbXCXCXCXCXDXDXDXDXFXFXFXFXGXGXGXGXGXGXGXJXJXJXJXKXKXJXKXZ.Z.Z.Z.Q.Q.Q.Q.q.q.q.9.d d d d q.q.q.q.* * * * . . . o : : : : h h h d c c c c + + + +                                 2 2 2 2 # # # # H H H H 6 6 6 5 5 5 5 X X X X p p p p @ @ @ @ @ # # # # @ @ # # # # # O O O O O X X O @ @ @ @ O O O O + O O O g g g g f f f f 6 6 5 5 H J J J - - - - S.S.S.S.!.!.!.!.Y.Y.Y.Y.F.F.F.F.D.D.D.D.w.w.w.w.2.2.2.$.$.$.$.{ { ' ' *.*.*.*.B B B B ].].].].F F F F s s s s s s s s s s s s l z l l `.`.`.`.wXwXwXwX3X3X3X3XwXwXwXwXwXwXwXwXwXwXwX",
"wXwXwXwXwXwXwXwXwXwX5X5X5X5XwXwXwXwX<X<X<X<X>X>X<X<X<X<X<X<X0X0X0X0X9X9X9X9X%X%X%X*X*X*X*X].'.'.'.Q Q Q Q i.i.i.i.=.=.=.=.#.#.#.#.{ { { { $.$.$.$.4.4.4.4.x.x.x.D.F.D.D.D.H.H.H.H.W.W.W.W.!.!.!.!.bXxXxXxXnXnXnXnXCXCXCXCXDXDXDXDXGXGXGXGXJXJXJXJXHXGXGXGXHXHXHXKXKXJXKXK.K.K.K.!.!.!.!.Q.Q.T.T.* * ; ; e e e e z z c c + + o o 0.0.0.0.e e e e h h h h h h h h 4 4 4 4                                 5 5 5 5 t t t t 2 2 2 2 f f f f 5 5 5 5 3 3 6 < < < < m.N.N.m./ / / / 6 3 3 3 @ # # # # @ @ # p p p p # @ @ @ , , , , , , , , + O O O @ @ @ @ . . . .                 MXMXNXNXzXzXzXzXY.Y.Y.Y.F.F.F.F.u.u.u.u.e.e.e.e.1.1.1.$.$.%.%.} } } } ) ) ) ) n n m n ! ! ! !  X X X X$X$X$X$X:X:X:X:X:X:X:X:X+X+X+X+X>X>X7X7XwXwXwXwXwXwXwXwX4X4X4X4XwXwXwXwXwXwXwX",
"wXwXwXwXwXwXwXwXwXwX5X5X5X5XwXwXwXwX<X<X<X<X<X>X<X<X<X<X<X<X0X0X0X0X9X9X9X9X%X%X%X*X*X*X*X].'.'.'.Q Q Q Q i.i.i.i.=.=.=.=.#.#.#.#.{ { { { $.$.$.$.4.4.4.4.x.x.x.D.F.D.D.D.H.H.H.H.W.W.W.W.!.!.!.!.bXxXxXxXnXnXnXnXCXCXCXCXDXDXDXDXGXGXGXGXJXJXJXJXHXGXGXGXHXHXHXKXKXJXJXK.K.K.K.!.!.!.!.Q.Q.T.T.* * ; ; e e e e z z c c o o o o 0.0.0.0.e e e e h h h h h h h h 4 4 4 4                                 5 5 5 5 t t t t 2 2 2 2 t f f f 5 5 5 5 3 3 6 < < < < m.N.N.m./ / / / 6 3 3 3 @ @ # @ @ # @ # p p p p # @ @ @ , , , , , , , , O O O O @ @ @ @ . . . .                 MXMXNXNXzXzXzXzXY.Y.Y.Y.F.F.F.F.u.u.u.u.e.e.e.e.1.1.1.$.$.%.%.} } } } ) ) ) ) n n m m ! ! ! !  X X X X$X$X$X$X:X:X:X:X:X:X:X:X+X+X+X+X>X>X7X7XwXwXwXwXwXwXwXwX4X4X4X4XwXwXwXwXwXwXwX",
"wXwXwXwXwXwXwXwXwXwX5X5X5X5XwXwXwXwX<X<X<X<X>X<X<X<X<X<X<X<X0X0X0X0X9X9X9X9X%X%X%X*X*X*X*X'.'.'.'.Q Q Q Q i.i.i.i.-.=.=.-.#.#.#.#.{ { { { $.$.$.$.5.5.5.5.D.D.D.D.D.D.D.D.H.H.H.H.W.W.W.W.!.!.!.!.xXxXxXbXnXnXnXnXCXCXCXCXDXDXDXDXGXGXGXGXJXJXJXJXHXHXHXHXHXHXHXKXJXJXJXK.K.K.K.!.!.!.!.T.T.T.T.* * * ; e e e e c c z c o o o o 0.0.0.0.: : : : h h h j h h h h 4 4 4 4                                 5 5 5 5 t t t t 2 2 2 2 t f f f 5 5 5 5 5 5 5 < < < < m.N.m.m./ / / / 6 6 6 6 # @ @ @ @ # # # p p p p @ @ # # , , , , , , , , O + + + @ @ @ @ . . . .                 MXMXMXMXzXzXzXzXY.Y.Y.Y.F.F.F.F.u.u.u.u.e.e.e.e.1.1.1.%.$.$.$.} } } } ) ) ) ) n n n M ! ! ! !  X X X X$X$X$X$X:X:X:X:X:X:X:X:X+X+X+X+X7X7X7X7XwXwXwXwXwXwXwXwX4X4X4X4XwXwXwXwXwXwXwX",
"wXwXwXwXwXwXwXwXwXwX5X5X5X5XwXwXwXwX<X<X<X<X>X>X<X<X<X<X<X<X0X0X0X0X9X9X9X0X%X%X%X*X*X*X*X'.'.'.'.Q Q Q Q i.i.i.i.-.=.=.-.#.#.#.#.{ { { { $.$.$.$.5.4.5.5.D.D.D.D.D.D.D.D.H.H.H.H.W.W.W.W.!.!.!.!.xXxXxXbXnXnXnXnXCXCXCXCXDXDXDXDXGXGXGXGXJXJXJXJXHXGXHXHXHXHXHXKXKXJXJXK.K.K.K.!.!.!.!.T.T.T.T.* * ; ; e e e e c c c c o o o o 0.0.0.0.: : : : h h j j h h h h 4 4 4 4                                 5 5 5 5 t t t t 2 2 2 2 t f f f 5 5 5 5 5 5 5 < < < < m.N.N.m./ / / / 6 6 6 6 # @ @ @ @ # # # p p p p @ # # # , , , , , , , , O + + + @ @ @ @ . . . .                 MXMXMXMXzXzXzXzXY.Y.Y.Y.F.F.F.F.u.u.u.u.e.e.e.e.1.1.1.%.$.$.$.] } } } ) ) ) ) n n n n ! ! ! !  X X X X$X$X$X$X:X:X:X:X:X:X:X:X+X+X+X+X7X7X>X7XwXwXwXwXwXwXwXwX4X4X4X4XwXwXwXwXwXwXwX",
"wXwXwXwXwXwXwXwXwXwX4X4X4X4XwXwXwXwXwXwXwXwX<X<X<X<X-X-X-X-X<X<X<X<XXXXXXXXX|.|.|.8X8X8X8X%X%X%X%Xn n n n *.*.*.*.*.*.*.*.#.#.#.#.$.$.$.$.;.;.;.1.w.w.w.w.x.x.x.x.H.H.H.H.J.J.J.J.Q.Q.Q.Q.Q.Q.Q.Q.xXxXxXxXBXnXnXnXVXVXVXVXGXGXGXGXJXJXJXJXJXJXJXJXKXKXKXKXKXKXKXKXKXKXKX0.0.0.0.(.(.!.(.j j j j e e e e y y e e I.I.I.I.+ + + + 0.0.0.0.j j j j : : : : # # # #                                         f f f f , - * - / / / / 3 3 2 3 6 6 6 6 6 6 6 < < < < < < < < b.b.b.b.D D D D 6 6 6 6 5 5 5 5 @ @ @ @ m.m.m.m./ ^ ^ ^ 6 5 5 3 , , , , X X X X . X . X                 vXbXbXbX!.!.!.!.R.Y.Y.Y.G.G.G.G.x.x.x.x.e.e.e.e.6.6.6.| | | | ] ] ] ] =.=.=.=.n n n n V V V V #X@X#X#XoXoXoXoX9X9X7X7X2X2X2X2X7X;X>X>X1X1X1X1X1X1X1X1X3X3X3X3XwXwXwXwXwXwXwXwXwXwXwX",
"wXwXwXwXwXwXwXwXwXwX4X4X4X4XwXwXwXwXwXwXwXwX<X<X<X<X-X-X-X-X<X<X<X<XXXXXXXXX|.|.|.8X8X8X8X%X%X%X%Xn n n n *.*.*.*.*.*.*.*.#.#.#.#.$.$.$.$.;.;.;.1.w.w.w.w.x.x.x.x.H.H.H.H.J.J.J.J.Q.Q.Q.Q.Q.Q.Q.Q.xXxXxXxXBXBXnXnXVXVXVXVXGXGXGXGXJXJXJXJXJXJXJXJXKXKXKXKXKXKXKXKXKXKXKX0.0.0.0.(.(.(.(.j j j j e e e e y y e e I.I.I.I.+ + + + 0.0.0.0.j j j j : : : : # # # #                                         f f f f , - - - / / / / 3 3 3 3 6 6 6 6 6 6 6 < < < < < < < < b.b.b.b.D D D D 6 6 6 6 5 3 5 5 @ @ @ @ m.m.m.m./ ^ ^ ^ 6 5 5 3 , , , , X X X X . X X X                 bXbXbXbX!.!.!.!.R.Y.Y.Y.G.D.G.G.x.x.x.x.e.e.e.e.6.6.6.| | | | ] ] ] ] =.=.=.=.n n n n V V V V #X#X@X@XoXoXoXoX9X9X8X8X2X2X2X2X;X;X>X>X1X1X1X1X1X1X1X1X3X3X3X3XwXwXwXwXwXwXwXwXwXwXwX",
"wXwXwXwXwXwXwXwXwXwX4X4X4X4XwXwXwXwXwXwXwXwX<X<X<X<X-X-X-X-X<X<X<X<X+X+XXXXX|.|.|.8X8X8X8X%X%X%X%Xn n n n *.*.*.*.*.*.*.*.#.#.#.#.$.$.$.$.;.;.;.;.8.8.8.w.x.x.x.x.H.H.H.H.J.J.J.J.Q.Q.Q.Q.Q.Q.Q.Q.xXxXxXxXBXnXnXnXVXVXVXVXGXGXGXGXJXJXJXJXJXJXJXJXKXKXKXKXKXKXKXKXKXKXKX0.0.0.0.(.(.!.!.j j j j e e e e y y e e I.I.L.L.+ + + + 0.0.0.0.j j j j : : : : # # # #                                         f f f f , , * * / / / / 3 3 2 5 5 5 6 6 6 6 5 < < < < < < < < b.b.b.b.D D D D 6 6 6 6 5 3 3 5 @ @ @ @ m.m.m.n.^ ^ ^ ^ 6 5 5 5 , , , , X O X X . X . .                 bXbXbXbX!.!.!.!.R.Y.Y.Y.G.D.G.G.x.x.x.x.e.e.e.e.6.6.6.| | | | ' ] ] ] =.=.=.-.M M M M V V V V @X@X@X@XXXXXoXoX9X9X9X9X5X5X2X5X>X>X>X>X1X1X1X1X1X1X1X1X3X3X3X3XwXwXwXwXwXwXwXwXwXwXwX",
"wXwXwXwXwXwXwXwXwXwX4X4X4X4XwXwXwXwXwXwXwXwX<X<X<X<X-X-X-X-X<X<X<X<X+X+XXXXX|.|.|.8X8X8X8X%X%X%X%Xn n n n *.*.*.*.*.*.*.*.#.#.#.#.$.$.$.$.1.;.;.;.8.8.8.8.x.x.x.x.H.H.H.H.J.J.J.J.Q.Q.Q.Q.Q.Q.Q.Q.xXxXxXxXBXnXnXnXVXVXVXVXGXGXGXGXJXJXJXJXJXJXJXJXKXKXKXKXKXKXKXKXKXKXKX0.0.0.0.(.(.!.!.j j j j e e e e y y e e I.I.L.L.+ + + + 0.0.0.0.j j j j : : : : # # # #                                         f f f f , , * * / / / / 2 2 2 2 5 5 6 6 6 6 5 < < < < < 1 < < b.b.b.b.D D D D 6 6 6 6 5 5 3 5 @ @ @ @ m.m.m.n.^ ^ ^ ^ 6 5 5 3 , , , , X O X O . X X .                 bXbXbXbX!.!.!.!.R.R.Y.Y.G.D.D.D.x.x.x.x.e.e.e.e.6.6.6.| | | | ' ] ] ] =.=.=.-.n M M M V V V V @X@X@X@XoXXXoXoX9X9X9X9X5X5X5X5X>X>X>X>X1X1X1X1X1X1X1X1X3X3X3X3XwXwXwXwXwXwXwXwXwXwXwX",
"wXwXwXwXwXwXwXwXwXwXwXwXwXwX4X4X4X4XwXwXwXwX4X4X4X4X>X>X>X>X>X>X>X<X4X4X5X5X+X+X#X9X9X9X9XE E E E W W W ! s.s.s.s.p.p.p.p.#.#.#.#.;.;.;.;.1.1.1.1.5.5.5.5.u.u.u.u.x.x.x.x.K.K.J.K.Q.Q.Q.Q.Q.Q.Q.Q.!.!.!.!.BXBXBXBXVXVXVXVXFXFXFXFXJXJXJXJXJXJXJXJXJXJXJXHXKXKXKXLXLXLXLXj j j j L.L.L.L.H.H.H.J.* * * * 0.0.0.0.Z.Z.Z.Z.g.g.g.g.c c c c 0.0.0.0.: : : : h h h h 2 2 2 2 < < < < # # # #         < < < < 7 7 7 7 , = = = + + + = p b.b.b.< < < 1 3 3 3 , < < < + @ @ @ L L L L S S S S 6 6 6 6 6 5 6 6 @ @ @ @ b.b.b.b.G G G G 7 6 6 6 5 6 5 6 6 6 6 6 . . . .                 jXjXjXjX!.!.!.!.R.R.R.R.H.H.H.H.k.k.k.k.5.5.5.5.1.1.1.| | | | %.%.%.%.) ) ) ) M M M M ].].].].'.'.'.'. X X}.}.-X-X-X-X+X+X+X#X4X4X4X4X4X4X4X4X<X<X<X<X2X2X2X2X4X4X4X4XwXwXwXwXwXwXwX",
"wXwXwXwXwXwXwXwXwXwXwXwXwXwX4X4X4X4XwXwXwXwX4X4X4X4X>X>X>X>X>X>X>X>X4X4X5X5X+X+X#X9X9X9X8XE E E E W W W ! s.s.s.s.p.p.p.p.#.#.#.#.;.;.;.;.1.1.1.1.5.5.5.5.u.u.u.u.x.x.x.x.K.K.K.K.Q.Q.Q.Q.Q.Q.Q.Q.!.!.!.!.BXBXBXBXVXVXVXVXFXFXFXFXJXJXJXJXJXJXJXJXJXJXJXHXKXKXKXLXLXLXLXj j j j L.L.L.L.H.H.H.J.* * * * 0.0.0.0.Z.Z.Z.Z.g.g.g.g.c c c c 0.0.0.0.: : : : h h h h 2 2 2 2 < < < < # # # #         < < < < 7 7 7 7 , , = = + + + + p p b.b.< < < 1 3 3 3 , < < < + @ @ @ L L L I S S S S 6 6 6 6 6 5 5 6 @ @ @ @ b.b.b.b.G G G G 7 6 6 6 5 6 6 6 6 6 6 6 . . . .                 jXjXjXjX!.!.!.!.R.R.R.R.H.H.H.H.k.k.k.k.5.5.5.5.1.1.1...| | | %.%.%.%.) ) ) ) M M M M ].].].].'.'.'.'.}.}.|.|.-X-X-X-X+X+X+X#X4X4X4X4X4X4X4X4X<X<X<X<X2X2X2X2X4X4X4X4XwXwXwXwXwXwXwX",
"wXwXwXwXwXwXwXwXwXwXwXwXwXwX4X4X4X4XwXwXwXwX4X4X4X4X>X>X>X>X>X>X>X>X5X5X5X5X#X#X#X9X9X9X9XE E E E W ! ! W s.s.s.s.p.a.a.p.#.#.#.%.;.;.;.;.1.1.1.1.5.5.5.5.u.u.u.u.x.x.x.x.K.K.K.K.Q.Q.Q.Q.Q.Q.Q.Q.!.!.!.!.BXBXBXBXVXVXVXVXFXFXFXFXJXJXJXJXJXJXJXJXJXJXJXJXKXKXKXLXLXLXLXj j j j L.L.L.L.H.H.H.H.* * * * 0.0.0.0.Z.Z.Z.Z.g.g.g.g.c c c c 0.0.0.0.: : : : h h h h 2 2 2 2 < < < < # # # #         < < < < 7 7 7 7 = = = = = = + + b.b.b.b.< < < 1 3 3 3 , , , , + @ @ @ J L L L S f S S 6 6 6 6 6 6 6 6 @ @ @ @ b.b.b.b.G G G G 6 6 6 6 5 5 5 5 6 6 6 6 . . . .                 jXjXjXjX!.!.!.!.R.R.R.R.H.H.H.H.k.k.k.k.5.5.5.5.1.1.1.| | | | %.%.%.%.) ) ) ) M M M M ].].].[.'.'.'.'.}.}.}.}.-X-X-X-X#X#X#X#X5X5X4X4X4XwXwXwX<X<X<X<X2X2X2X2X4X4X4X4XwXwXwXwXwXwXwX",
"wXwXwXwXwXwXwXwXwXwXwXwXwXwX4X4X4X4XwXwXwXwX4X4X4X4X>X>X>X>X>X>X>X>X5X5X5X5X#X#X#X9X9X9X9XE E E E ! ! ! W s.s.s.s.p.a.a.p.#.#.#.%.;.;.;.;.1.1.1.1.5.5.5.5.u.u.u.u.x.x.x.x.K.K.J.K.Q.Q.Q.Q.Q.Q.Q.Q.!.!.!.!.BXBXBXBXVXVXVXVXFXFXFXFXJXJXJXJXJXJXJXJXJXJXJXHXKXKXKXLXLXLXLXj j j j L.L.L.L.H.H.H.H.* * * * 0.0.0.0.Z.Z.Z.Z.g.g.g.g.c c c c 0.0.0.0.: : : : h h h h 2 2 2 2 < < < < # # # #         < < < < 7 7 7 7 = = = = = = = + b.b.b.b.< < < 1 3 3 3 , , , , + @ @ @ J L L L S f S S 6 6 6 6 6 6 6 6 @ @ @ @ b.b.b.b.G G G G 6 6 6 6 5 5 5 3 6 6 6 6 . . . .                 jXjXjXjX!.!.!.!.R.R.R.R.H.H.H.H.k.k.k.k.5.5.5.5.1.1.1.| | | | %.%.#.#.) ) ) ) M M M M ].].[.[.'.'.'.'.}.}.}.}.-X-X-X-X#X#X#X#X5X5X4X4X4X4XwXwX<X<X<X<X2X2X2X2X4X4X4X4XwXwXwXwXwXwXwX",
"wXwXwXwXwXwXwXwXwXwXwXwXwXwXwXwXwXwX4X4X4X4XwXwXwXwX1X1X1X1X>X>X>X>X-X-X-X-X<X<X<X-X-X-X-X2X1X1X1XA Z Z Z M M M M _ _ _ _ [ [ [ [ $.$.$.$.3.3.3.3.w.w.w.w.u.u.u.u.J.J.J.J.F.F.F.F.P.P.P.P.(.(.(.^.nXnXnXnXbXvXvXvXBXBXBXBXGXGXGXGXHXGXGXGXDXFXFXDXGXJXJXJXKXKXKXLXLXLXLXj j j j D.D.D.D.E.E.E.E.e e e e d d j j Z.Z.Z.Z.g g d d x x x x E.E.E.E.v v v v P P P P f f f f 5 5 5 5 # # # # @ @ @ @ = = - - 5 5 5 5 < < < < / / / / p p p p p b.b.b.b.b.b.b.b.b.b.n.n.n.n.n.n.n.n.S f S f 6 6 6 6 6 6 6 6 1 1 1 < O @ @ @ L L L L 7 6 6 6 6 6 6 6 @ @ @ @         S.S.S.S.MXMXMXMXvXvXvXvXjXjXjXjXY.Y.Y.Y.x.c.c.c.c.c.c.c.4.4.5.5.6.6.6.$.$.$.$.' ' ' ' =.=.=.=.+.+.+.+.m m m m '.'.'.'.! ! ! ! }.}.}.}.=X=X*X*X>X>X7X7X7X7X7X7XwXwXwXwXwXwXwXwX4X4X4X4XwXwXwXwXwXwXwX",
"wXwXwXwXwXwXwXwXwXwXwXwXwXwXwXwXwXwX4X4X4X4XwXwXwXwX1X1X1X1X>X>X>X>X-X-X-X-X<X<X<X-X-X-X-X2X1X1X1XA Z Z A M M M B _ _ _ _ [ [ [ [ $.$.$.$.3.3.3.3.w.w.w.w.u.u.u.u.J.J.J.J.F.F.F.F.P.P.P.P.^.(.(.^.nXnXnXnXbXvXvXbXBXBXBXBXGXGXGXGXGXGXGXGXDXFXFXDXGXJXJXJXKXKXKXLXLXLXLXj j j j D.D.D.D.E.E.E.E.e e e e d d j j Z.Z.Z.Z.h g d d x x x x E.E.E.E.0.0.v v P P P P t t f f 5 5 5 5 # # # # @ @ @ @ = = - - 5 5 5 5 < < < < / / / / p p p p b.b.b.b.b.b.b.b.b.b.b.n.n.n.n.n.n.n.n.S S S f 6 6 6 7 7 6 6 6 1 1 1 < @ @ @ @ L L L L 6 6 6 6 6 6 6 6 @ @ @ @         S.S.S.S.MXMXMXMXvXvXvXvXjXjXjXjXY.Y.Y.Y.x.c.c.c.x.c.c.c.5.4.5.5.6.6.6.$.$.$.$.' ' ' ' =.=.=.=.+.+.+.+.m m m m '.'.'.'.! ! ! ! }.}.}.}.=X=X*X*X7X7X7X7X7X7X7X7XwXwXwXwXwXwXwXwX4X4X4X4XwXwXwXwXwXwXwX",
"wXwXwXwXwXwXwXwXwXwXwXwXwXwXwXwXwXwX4X4X4X4XwXwXwXwX1X1X1X1X>X>X>X>X-X-X-X-X<X<X<X-X-X-X-X1X1X1X1XZ Z Z Z M M M M _ _ _ _ [ [ [ [ $.$.$.$.3.3.3.3.w.w.w.w.u.u.u.u.J.J.J.J.F.F.F.F.P.P.P.P.(.(.(.(.nXnXnXnXvXvXvXbXBXBXBXBXGXGXGXGXGXGXGXGXFXFXFXDXJXJXJXJXKXKXKXLXLXLXLXj j j j D.D.D.D.E.E.E.E.e e e e d d d j Z.Z.Z.Z.g g g d x x x x E.E.E.E.0.v v v P P P P t f f f 5 5 5 5 # # # # @ @ @ @ = - - - 5 5 5 5 < < < < / / / / b.p p p b.b.b.b.b.b.b.b.b.b.b.n.n.n.n.n.n.n.n.S S S S 6 7 7 7 7 6 6 6 1 1 1 1 @ @ @ @ L L L L 6 6 6 6 6 6 6 6 @ @ @ @         S.S.S.S.MXMXMXMXvXvXvXvXjXjXjXjXY.R.R.R.x.c.x.x.x.x.x.x.5.5.5.5.6.6.6.$.$.$.$.' ' ) ) =.=.=.=.+.+.+.+.m m m m '.'.'.'.! ! ! ! }.}.}.}.*X*X*X*X7X7X7X7X7X7X7X7XwXwXwXwXwXwXwXwX4X4X4X4XwXwXwXwXwXwXwX",
"wXwXwXwXwXwXwXwXwXwXwXwXwXwXwXwXwXwXwXwXwXwXwXwXwXwXwXwXwXwX2X2X2X2XwXwXwXwX2X2X2XXXXXXXXX-X-X-X-XE E E R W W W W _ _ _ _ ' ' ' ' $.$.$.$.5.5.5.5.w.w.w.w.D.D.D.D.D.D.D.D.K.J.J.K.Q.Q.Q.Q.^.^.^.^.xXxXxXxXmXmXmXCXnXnXnXnXmXmXmXmXZXZXZXZXFXFXFXDXJXJXJXJXLXKXKXLXLXLXLXZ.Z.Z.Z.D.D.D.D.L.L.L.L.S.S.S.S.c c v v g.g.g.g.K K K K x x x x I.I.I.S.l l l l f.f.f.f.H H H H 8 8 8 8 < < < < , , , , < < < < , , , , 7 7 7 7 < < < < N.N.N.( ~ ~ ~ ~ ~ I I J J J J J L L L J J J J m.m.m.m.m.m.m.m.m.m.m.m.m.m.m.m.b.b.b.b.b.b.b.b.8 8 8 8 < < < < 1 1 1 1                 y y y y Y.Y.Y.Y.J.J.J.J.G.G.G.G.H.G.H.H.e.y.y.y.5.8.8.8.;.1.1.| | | | { { { { O.O.O.O.a.a.a.a.n n n n ! ! ! ! W W W W +X+X#X#X4X4X4X4X*X*X*X*X1X1X1X1X1X1X1X1XwXwXwXwX5X5X5X5XwXwXwXwXwXwXwX",
"wXwXwXwXwXwXwXwXwXwXwXwXwXwXwXwXwXwXwXwXwXwXwXwXwXwXwXwXwXwX2X2X2X2XwXwXwXwX2X2X2XXXXXXXXX-X-X-X-XR E E E W W W W +._ _ _ ' ' ' ' $.$.$.$.5.5.5.5.w.w.w.w.D.D.D.D.D.D.D.D.K.K.K.K.^.Q.Q.Q.^.^.^.^.xXxXxXxXmXCXmXmXnXnXnXnXmXmXmXmXAXAXAXZXFXDXFXFXJXJXJXJXLXLXLXLXLXLXLXG.G.G.G.D.D.D.D.L.L.L.L.S.S.S.S.c c c c g.g.g.g.K K K K x x x x I.I.I.I.x x l l f.f.f.f.H H H H 8 8 7 7 < < < < , , , , < < < < , , , , 7 7 7 7 < < 1 1 N.N.N.N.~ ~ ~ ~ L L L J J J J J J J L J J J J m.m.m.m.m.m.m.m.m.m.m.m.m.m.m.m.b.b.b.b.b.b.b.b.8 8 8 8 < < < < 1 1 1 1                 g g g y Y.Y.Y.Y.J.J.J.J.G.G.G.G.G.H.H.H.e.y.y.y.8.8.8.8.;.1.1.| | | | { { { { O.O.O.O.a.a.a.a.n n n n ! ! ! ! W W W W +X+X#X#X4X4X4X4X*X*X*X*X1X1X1X1X1X1X1X1XwXwXwXwX5X5X5X5XwXwXwXwXwXwXwX",
"wXwXwXwXwXwXwXwXwXwXwXwXwXwXwXwXwXwXwXwXwXwXwXwXwXwXwXwXwXwX2X2X2X2XwXwXwXwX2X2X2XXXXXXXXX-X-X-X-XE E E E W W W W +.+.O._ ' ' ' ' $.$.$.$.5.5.5.5.w.w.w.w.D.D.D.D.D.D.D.D.K.K.K.K.^.Q.Q.Q.^.^.^.^.xXxXxXxXCXCXmXnXnXnXnXnXmXmXmXmXAXAXAXZXDXDXFXFXJXJXJXJXLXLXKXLXLXLXLXG.G.G.G.D.D.D.D.L.L.L.L.S.S.S.S.c c c c g.g.g.g.K K K K x x x x I.I.I.I.x x x l f.f.f.f.H H H H 7 7 7 7 < < < < , , , , < < < < , , , , 7 7 7 7 < < 1 1 N.N.N.N.~ ~ ~ ~ L L L J J J J J J J J J J J J m.m.m.m.m.m.m.m.m.m.m.m.m.m.m.m.b.b.b.b.b.b.b.b.8 8 8 8 < < < < 1 1 1 1                 g g g y Y.Y.Y.Y.J.J.J.J.G.G.G.G.H.H.H.H.e.y.y.y.8.8.8.5.;.1.1.| | | | { { { { O.O.O.O.a.a.a.a.n n n n ! ! ! ! W W W W +X+X#X#X4X4X4X5X*X*X*X*X1X1X1X1X1X1X1X1XwXwXwXwX5X5X5X5XwXwXwXwXwXwXwX",
"wXwXwXwXwXwXwXwXwXwXwXwXwXwXwXwXwXwXwXwXwXwXwXwXwXwXwXwXwXwX2X2X2X2XwXwXwXwX2X2X2XXXXXXXXX-X-X-X-XE E E E W W W W _ _ _ _ ' ' ' ' $.$.$.$.5.5.5.5.w.w.w.w.D.D.D.D.D.D.D.D.K.K.K.K.^.^.^.^.^.Q.Q.^.xXxXxXxXmXmXmXmXnXnXnXnXmXmXmXmXAXAXAXAXFXFXFXFXJXJXJXJXKXKXKXLXLXLXLXZ.Z.Z.Z.D.D.D.D.Y.Y.L.L.Z.H.H.H.v v v v g.g.g.g.K K K K x x x x I.I.I.I.l l l l f.f.f.f.H H H H 8 8 8 8 < < < < , , , , < < < < , , , , 8 8 8 7 < < 1 1 N.N.yXyX~ ~ ~ ~ I ~ ~ J J J J J J J J J J J J m.m.m.m.m.m.m.m.m.m.m.m.m.m.m.m.b.b.b.b.b.b.b.b.8 7 7 6 , , < < 3 1 3 1                 g g g y Y.Y.Y.Y.J.J.J.J.D.G.G.G.H.H.H.H.y.y.y.y.5.8.8.8.;.;.;.| | | | { { { { O.O.O.O.a.a.a.a.n n n n ! ! ! ! W W W W #X#X#X#X5X5X4X4X*X*X*X*X1X1X1X1X1X1X1X1XwXwXwXwX5X5X5X5XwXwXwXwXwXwXwX",
"wXwXwXwXwXwXwXwXwXwXwXwXwXwXwXwXwXwXwXwXwXwX4X4X4X4X3X3X3X3XwXwXwXwXwXwXwXwX#X#X#X4X4X4X4X-X-X-X*X'.].'.].C C C C ) ) ) ) { { { { $.$.$.$.5.5.5.5.w.w.w.w.y.y.u.u.D.D.D.D.F.F.F.F.L.P.P.P.P.W.P.P.Q.Q.Q.Q.cXcXcXcXbXbXbXbXzXzXzXzXcXcXcXcX^.^.^.(.DXDXDXDXKXKXKXH.H.H.H.c c c c q.q.q.q.L.L.L.L.E.E.E.E.x x x x t t t t g g g g 4 4 2 2 j.j.j.j.x x x x C.C.C.C.I I I I H H H H 5 5 5 5 1 1 1 1 , , , , = = = = 7 7 6 6 $ $ = = N.( ( ( 6 6 6 6 6 6 6 3 3 3 5 5 5 5 6 5 3 3 3 J L L J ~ ~ ~ ~ J J J L J J J J G G G G G G G G b.b.b.b.p b.b.b.@ @ @ @ @ @ @ @         . . . . Y.Y.Y.Y.I.I.J.J.G.G.G.G.x.c.x.x.x.x.x.x.5.5.5.5.1.1.1.;.;.;.;.' ' ' ' @.@.@.@.+.+.+.+.i i i i B B B B oXoXoXoX}.}.}.}.$X$X$X$X<X<X<X<X>X>X>X>X7X7X7X7X1X1X1X1XwXwXwXwXwXwXwXwXwXwXwX",
"wXwXwXwXwXwXwXwXwXwXwXwXwXwXwXwXwXwXwXwXwXwX4X4X4X4X3X3X3X3XwXwXwXwXwXwXwXwX#X#X#X4X4X4X4X-X-X-X*X'.'.'.'.C C C C ) ) ) ) { { { { $.$.$.$.5.5.5.5.w.w.w.w.y.y.u.u.D.D.D.D.F.F.F.F.L.L.L.L.P.P.P.P.Q.Q.Q.Q.cXcXcXcXbXbXbXbXzXzXzXxXcXcXcXcX(.^.^.(.DXDXDXDXKXKXKXH.H.H.H.0.0.c 0.q.q.q.q.L.L.L.L.E.E.E.E.h h x x t t t t g g g g 2 2 2 2 j.j.j.j.x x x x C.C.C.C.I I I I J H H H 5 5 5 5 1 1 1 1 , , , , $ $ = $ 7 7 7 7 $ $ = = ( ( ( ( 5 6 6 6 6 6 6 5 3 3 3 5 5 5 5 5 5 3 3 J L L J ~ ~ ~ ~ J J J J J J J J G G G G G G G G b.b.b.b.p p p b.@ @ @ @ @ @ @ @         . . . . Y.Y.Y.Y.I.J.J.J.G.G.G.G.x.x.x.x.x.x.x.x.5.5.5.5.3.1.1.;.;.;.;.' ' ' ' @.@.@.@.+.+.+.+.i i i i B B B B oXoXoXoX}.}.}.}.$X$X$X$X<X<X<X<X>X>X>X>X7X7X7X7X1X1X1X1XwXwXwXwXwXwXwXwXwXwXwX",
"wXwXwXwXwXwXwXwXwXwXwXwXwXwXwXwXwXwXwXwXwXwX4X4X4X4X3X3X3X3XwXwXwXwXwXwXwXwX#X#X#X4X4X4X4X-X-X-X*X'.'.'.'.C C C C ) ) ) ) { { { { $.$.$.$.5.5.5.5.w.w.w.w.y.u.u.y.D.D.D.D.F.F.F.F.L.L.L.L.P.P.P.P.Q.Q.Q.Q.cXcXcXcXbXbXbXbXzXzXzXxXcXcXcXcX(.(.(.(.DXDXDXDXKXKXKXH.H.H.H.0.0.0.0.q.q.q.q.L.L.L.L.E.E.E.E.h j x x t t t t g g g g 2 2 2 2 j.j.j.j.x x x x C.C.C.C.I I I I J H H H 5 5 5 5 1 1 1 1 , , , , $ $ $ $ 7 7 7 7 $ $ = = ( ( ( ( 6 6 6 6 6 6 6 5 3 3 3 3 5 5 5 5 3 3 3 J J J J ~ ~ ~ ~ J J J J J J J J G G G G G G G G b.b.b.b.p p p b.@ @ @ @ @ @ @ @         . . . . Y.Y.Y.Y.I.I.J.J.G.G.G.G.x.x.x.x.x.x.x.x.5.5.5.5.3.1.1.;.$.$.;.] ] ' ' @.@.@.@.+.+.+.+.i i i i B B B B oXoXoXoX}.}.}.}.$X$X$X$X<X<X<X<X>X>X>X>X7X7X7X7X1X1X1X1XwXwXwXwXwXwXwXwXwXwXwX",
"wXwXwXwXwXwXwXwXwXwXwXwXwXwXwXwXwXwXwXwXwXwX4X4X4X4X3X3X3X3XwXwXwXwXwXwXwXwX#X#X#X4X4X4X4X-X-X-X-X'.'.'.].C C C C ) ) ) ) { { { { $.$.$.$.5.5.5.5.w.w.w.w.u.u.u.y.D.D.D.D.F.F.F.F.L.L.L.L.Q.Q.Q.W.Q.Q.Q.Q.cXcXcXcXbXbXbXbXxXzXzXzXcXcXcXcX(.(.).^.DXDXDXDXKXLXLXH.H.H.H.<.<.<.<.q.q.q.q.L.L.L.L.E.E.E.E.h h h h t t t t f f f f 2 2 2 2 j.j.j.j.x x x x C.C.C.C.I I I I J J J J 6 6 5 5 1 1 3 3 , , , , $ $ $ $ 6 6 6 6 $ = = = ( ( ( ( 6 6 6 5 6 6 6 5 5 5 5 5 5 5 5 3 3 5 5 L J J J ~ ~ ~ ~ J J J J J J J J G G G G G G G G b.b.b.b.p p p p @ @ @ @ @ @ @ @         . . . . Y.Y.Y.Y.J.J.J.J.G.G.G.G.x.x.x.x.x.x.x.x.5.5.5.5.1.1.1.;.;.;.;.] ] ' ' @.@.@.@.+.@.@.@.i i i i B B B B oXoXoXoX}. X}.}.$X$X$X$X<X<X<X<X>X>X>X>X7X7X7X7X1X1X1X1XwXwXwXwXwXwXwXwXwXwXwX",
"wXwXwXwXwXwXwXwXwXwXwXwXwXwXwXwXwXwXwXwXwXwXwXwXwXwXwXwXwXwX<X<X1X<X-X;X-X-X+X+X+XXXXXXXXX-X-X-X-XZ Z Z Z =.=.=.=.@.@.@.@.) ' ' ) | | | | 3.3.3.3.5.5.5.5.u.u.u.u.D.D.D.D.K.K.K.K.K.K.K.K.Q.Q.Q.Q.(.(.(.(.).).).).(.(.(.(./.^.^.^.).).).).CXCXCXCXZXZXZXZXLXLXLXz z z z j j j j K.K.K.K.!.!.!.!.jXjXjXjXy y y y h h h h h h h h F F F F h.h.h.h.f.f.f.f.h x x x U U U U D D D D 8 8 8 8 6 7 7 7 1 1 1 1 , , , , = = = = yXyXyXyX^ ^ ^ ^ 5 5 5 5 3 5 3 5 5 5 5 1 1 1 1 3 3 3 3 5 3 3 3 5 5 6 5 5 5 5 5 6 6 6 6 6 5 5 5 G G G G J G G G J J J J L J J J O + + + . . . . . . . . + + + + G.G.G.G.k.x.x.x.y.e.e.x.8.8.8.8.7.7.7.7.1.1.1.| | | | { { { { #.#.#.#.p.p.p.p.B B B B M M M M  X X X X+X+X#X#X0X0X0X0X*X*X*X*X$X$X$X$XwXwXwXwXwXwXwXwXwXwXwXwXwXwXwXwXwXwXwX",
"wXwXwXwXwXwXwXwXwXwXwXwXwXwXwXwXwXwXwXwXwXwXwXwXwXwXwXwXwXwX<X<X1X1X-X-X-X-X+X+X+XXXXXXXXX-X-X-X-XZ Z Z Z =.=.=.=.@.@.@.@.) ' ' ) | | | | 3.3.3.3.5.5.5.5.u.u.u.y.D.D.D.D.K.K.K.J.K.K.K.K.Q.Q.Q.Q.(.(.(.(.).).).).(.(.(.(./.^.^.^.).).).).CXCXCXCXZXZXZXZXLXLXLXz z z z j j j j J.J.K.K.!.!.E.!.jXjXjXjXd d y y h h h h h h h h h h F F h.h.h.h.f.f.f.f.h h x x U U U U D D D D 8 8 8 8 6 6 7 7 1 1 1 1 , , , , = = = = yXyXyXyX^ ^ ^ ^ 5 5 5 3 5 5 5 5 6 6 5 1 1 1 1 3 3 3 3 5 3 3 3 5 5 5 5 5 5 5 5 6 6 6 6 6 5 5 3 G G G G J G G G J J J J J J J J O O O + . . . . . . . . + + + + G.G.G.G.x.x.x.x.y.e.k.k.8.8.8.8.7.7.7.7.1.1.1.| | | | { { { { #.#.#.#.p.p.p.p.B B B B M M M M  X X X X+X+X#X#X0X0X0X2X*X*X*X*X$X$X$X$XwXwXwXwXwXwXwXwXwXwXwXwXwXwXwXwXwXwXwX",
"wXwXwXwXwXwXwXwXwXwXwXwXwXwXwXwXwXwXwXwXwXwXwXwXwXwXwXwXwXwX<X<X1X1X-X-X-X-X+X+X+XXXXXXXXX-X-X-X-XZ Z Z Z =.=.=.=.@.@.@.@.) ' ' ' | | | | 3.3.3.3.5.5.5.5.y.u.u.u.D.D.D.D.K.K.K.J.K.K.K.K.Q.Q.Q.Q.(.(.(.(.).).).).(.(.(.(.).^.^.^./.).).).CXCXCXCXZXZXZXZXKXLXLXz z z z j j j j J.J.J.K.!.!.E.E.hXhXjXjXd d d y h h h h h h h h h h F F h.h.h.h.f.f.f.f.h h x x U U U U D D D D 8 8 8 8 6 6 7 7 1 1 1 1 , , , , = = = = yXyXyXyX^ ^ ^ ^ 5 5 3 3 5 5 5 5 5 6 5 1 1 1 1 3 3 3 3 3 3 3 3 5 5 5 5 5 5 5 5 6 6 6 6 6 3 3 3 G G G G G G G G J J J J J J J J O O O O . . . . . . . . + + + + G.G.G.G.x.x.x.x.y.e.k.x.8.8.8.8.7.7.7.7.1.1.1.| | | | { { { { #.#.#.#.p.p.p.p.B B B B M M M M  X X X X+X+X#X#X0X0X2X2X*X*X*X*X$X$X$X$XwXwXwXwXwXwXwXwXwXwXwXwXwXwXwXwXwXwXwX",
"wXwXwXwXwXwXwXwXwXwXwXwXwXwXwXwXwXwXwXwXwXwXwXwXwXwXwXwXwXwX<X<X1X<X-X-X-X-X+X+X+XXXXXXXXX-X-X-X-XZ Z Z Z =.=.=.=.@.@.@.@.) ) ' ' | | | | 3.3.3.3.5.5.5.5.u.u.u.u.D.D.D.D.J.K.K.J.K.K.K.K.Q.Q.Q.Q.(.(.(.(.).).).).(.(.(.(.^.^.^.^.).).).).CXCXCXCXCXCXCXZXLXLXLXz z z z j j j j K.K.K.K.!.!.!.!.hXhXhXhXy y y g h h h h h h h h h h h h h.h.f.f.f.f.f.f.x x x x U U U U D D D D 8 7 7 7 6 6 7 7 1 1 1 1 , , , , = = = = yXyXyXyX^ ^ ^ ^ 5 5 5 5 5 5 5 5 5 5 5 1 1 1 1 3 3 3 3 3 3 3 3 5 5 5 5 5 5 5 5 6 6 6 6 5 5 5 5 G G G G G G G J J J J J J J J J + + + O . . . . . . . . + + + + G.G.G.G.x.x.x.x.k.x.x.x.w.w.w.w.5.7.7.7.1.1.1.| | | | { { { { #.#.#.#.p.p.p.p.B B B B M M M M  X X X X+X+X#X#X2X2X2X2X*X*X*X*X$X$X$X$XwXwXwXwXwXwXwXwXwXwXwXwXwXwXwXwXwXwXwX",
"wXwXwXwXwXwXwXwXwXwXwXwXwXwXwXwXwXwXwXwXwXwXwXwXwXwX2X2X2X2XwXwXwXwX<X<X<X<X5X5X5X-X*X*X*X@X@X@X@XW W W W a.a.a.a.*.*.*.*.) ) ) ) $.$.$.$.2.2.2.2.5.5.3.5.e.e.e.e.F.H.H.F.F.F.F.F.K.K.K.K.Q.Q.Q.Q.^.^.^.Q.Q.^.^.^.^.^.^.^././././.^.^.^.^.).).).).BXBXBXBXJXJXJXj j j j j j j j H.H.H.H.L.L.L.L.E.E.E.E.g.g.g.g.h h h h h h h h H H J J Y Y U U j.j.j.j.h x h h P P P P D D D D 8 8 8 8 6 6 6 6 6 6 6 6 , , , , 1 1 1 1 yXyXyXyX7 7 7 7 3 3 3 5 5 5 5 1 1 1 1 < 1 < 1 3 1 1 1 3 5 3 3 3 3 3 3 3 3 3 3 3 3 3 3 1 1 1 1 5 5 5 3 3 3 3 5 5 5 3 3 3 5 5 5 6 6 6 6 @ @ @ @ X X X X O O O O w.w.w.w.w.w.w.w.7.8.8.8.;.;.;.;.;.;.;.;.$.$.$.] ] ] ] ' ' ] ' O.#.O.O.-.-.-.-.=.=.=.*.B B B B W W W W E E E E oXoXoXoX5X5X5X5X4X4X4X4X*X*X*X*X<X<X<X<X4XwXwXwXwXwXwXwXwXwXwX",
"wXwXwXwXwXwXwXwXwXwXwXwXwXwXwXwXwXwXwXwXwXwXwXwXwXwX2X2X2X2XwXwXwXwX<X<X<X<X4X5X5X-X-X-X-X@X@X@X@XW W W W a.a.a.a.*.*.*.*.) ) ) ) $.$.$.$.2.2.2.2.5.3.3.5.e.e.e.e.F.F.F.F.F.F.F.F.K.K.K.K.Q.Q.Q.Q.Q.^.^.Q.Q.^.Q.^.^.^.^.^././././.^.^.^.^.).).).).BXBXBXBXJXJXJXj j j j j j j j H.H.H.H.L.L.L.L.E.E.E.E.g.g.g.g.h h h h F h D D J J J J Y Y z.z.j.j.j.j.h h h h P P P P D D D D 8 8 8 8 6 6 6 6 6 6 6 6 , , , , 1 1 1 1 yXyXyXyX7 7 8 8 3 3 3 5 5 5 5 1 1 1 1 < 1 1 1 3 1 1 3 3 5 5 3 3 3 3 3 3 3 3 3 3 3 3 3 1 1 1 1 5 5 5 6 6 3 6 6 5 5 5 5 5 5 5 5 6 6 6 6 @ @ @ @ X X X X O O O O w.w.w.w.w.w.w.w.7.8.8.8.;.;.;.;.;.;.;.;.$.;.;.] ] ] ] ' ' ] ' O.#.O.O.-.-.-.-.=.=.=.=.B B B B W W W W E E E E oXoXoXoX5X5X5X5X4X4X4X4X*X*X*X*X<X<X<X<X4X4XwXwXwXwXwXwXwXwXwX",
"wXwXwXwXwXwXwXwXwXwXwXwXwXwXwXwXwXwXwXwXwXwXwXwXwXwX2X2X2X2XwXwXwXwX<X<X<X<X4X5X5X-X-X-X-X@X@X@X@XW W W W a.a.a.a.*.*.*.*.) ) ) ) $.$.$.$.2.2.2.2.3.3.3.5.e.e.e.e.F.F.F.F.F.F.F.F.K.K.K.K.Q.Q.Q.Q.Q.Q.^.Q.^.^.Q.^.^.^.^.^././././.^.^.^.^.).).).).BXBXBXBXJXJXJXj j j j j j j j H.H.H.H.L.L.L.L.E.E.E.E.g.g.g.g.h h h h F D D h K J J J z.z.z.z.j.j.j.j.h h h h P P P P D D D D 8 8 8 8 6 6 6 6 6 6 6 6 , , , , 1 1 1 1 yXyXyXyX8 8 8 8 3 3 3 5 5 5 5 1 1 1 1 < 1 1 1 3 1 1 3 3 5 5 3 3 3 3 3 3 3 3 3 3 3 3 3 1 1 1 3 5 6 6 6 6 3 6 5 5 6 5 5 5 5 5 5 6 6 6 6 @ @ @ @ X X X X O O O O w.w.w.w.w.w.w.w.8.8.8.8.;.;.;.;.;.;.;.;.$.;.;.] ] ' ' ' ' ' ' O.#.O.O.-.-.-.-.=.=.=.=.B B B B W W W W E E E E oXoXoXoX5X5X5X5X4X4X4X4X*X*X*X*X<X<X<X<XwX4XwXwXwXwXwXwXwXwXwX",
"wXwXwXwXwXwXwXwXwXwXwXwXwXwXwXwXwXwXwXwXwXwXwXwXwXwX2X2X2X2XwXwXwXwX<X<X<X<X5X5X4X-X-X-X-X@X@X@X@XW W W W a.a.a.a.*.*.*.*.) ) ) ) $.$.$.$.2.2.2.2.5.3.3.5.e.e.e.e.F.F.F.F.F.F.F.F.K.K.K.K.Q.Q.Q.Q.Q.^.^.^.^.Q.Q.Q.^.^.^.^././././.^.^.^.^.).).).).BXBXBXBXKXJXJXj j j j j j j j H.H.H.H.L.L.L.L.E.E.E.E.g.g.h.h.h h H H F h h h K K H H U Y z.z.j.j.j.j.h h h h P P P P F F F F 8 8 8 8 6 6 6 6 6 5 5 6 , , , , 1 1 1 1 yXyXyXyX7 7 7 7 1 1 3 3 5 5 3 < < < 1 < 1 < < 1 1 1 3 5 5 3 3 3 3 3 3 3 3 3 3 3 3 3 3 1 3 3 3 5 5 5 5 5 6 6 6 6 6 6 6 5 6 6 6 6 6 6 6 @ @ @ @ X X X X + O O O w.w.w.w.w.w.w.w.7.8.8.8.;.;.;.;.;.;.;.;.$.;.;.' ] ] ] ' ' ' ' O.O.O.O.-.-.-.-.=.=.=.=.B B B B W W W W E E E E oXoXoXoX5X5X5X5X4X4X4X4X*X*X*X*X<X<X<X<XwXwXwXwXwXwXwXwXwXwXwX",
"wXwXwXwXwXwXwXwXwXwXwXwXwXwXwXwXwXwXwXwXwXwX3X3X3X3XwXwXwXwXwXwXwXwX*X*X*X*X<X<X<XE E E E [.[.[.[.].].{.].*.*.*.*.) ) ) ) ' ' ' ' } } } } 1.1.1.1.2.2.2.2.w.w.w.8.u.e.e.u.F.F.F.F.F.F.F.F.Q.Q.Q.Q.K.K.K.K.^.^.^.^.^.^.^.^././././.^.^.^.^._._._._.CXBXBXCXFXFXFX* * * * j j j j Z.Z.Z.Z.H.H.H.H.Z.Z.Z.Z.S.S.S.S.h h h h h h h h H H H H / / z.z.U U U P y y g g h h h h H H H H S S S S 8 8 8 8 6 6 6 6 1 1 < < < < < < D D D D 1 1 1 1 S S S S S S 8 < < < < $ $ $ $ 1 1 1 1 1 1 1 1 1 1 1 1 1 1 1 1 1 1 1 1 1 1 1 1 3 1 1 3 1 3 3 3 3 3 3 1 1 3 3 3 X X X X . . . . X X X X @ @ @ @ # # # # 6.6.6.6.;.;.;.;.........$.$.$.$.' { { *.*.#.#.) ) ) ) ) ) ) ) ` ` _ _ =.=.=.=.M M M M V V V V $X$X=X=X'.'.'.'.0X0X2X2X-X-X-X-X4X4X4X4XwXwXwXwX1X1X1X1X3X3X3X3XwXwXwX",
"wXwXwXwXwXwXwXwXwXwXwXwXwXwXwXwXwXwXwXwXwXwX3X3X3X3XwXwXwXwXwXwXwXwX*X*X*X*X<X<X<XE E E E [.[.[.[.].].].].*.*.=.*.) ) ) ) ' ' ' ' } } } } 1.1.1.6.6.2.2.2.w.w.w.8.u.u.y.u.F.F.F.F.F.F.F.F.Q.Q.Q.Q.K.K.K.K.^.^.^.^.^.^.^.^././././.^.^.^.^._._._._.BXBXBXCXFXFXFX* * * * j j j j Z.Z.Z.Z.H.H.H.H.Z.Z.Z.Z.S.S.S.S.h h h h h h h h H H H H / / / / U U P P g g g g h h h h H H H H S f f S 8 8 8 8 6 6 6 6 1 < < < < < < < D D D D 1 1 1 1 S S S S S S S < < < < $ $ $ $ 1 1 1 1 1 1 1 1 1 1 1 1 1 1 1 1 1 1 1 1 1 1 1 1 3 1 1 1 1 3 3 1 1 1 1 1 1 3 3 3 X X X X . . . . X X X X @ @ @ @ @ @ @ # 6.6.6.6.;.;.;.;.........$.$.$.$.{ { ' *.*.#.#.' ) ) ) ) ) ) ) ` ` _ _ =.=.=.=.M M M M V V V V $X$X%X%X'.'.'.'.2X2X2X2X-X-X-X-X4X4X4X4XwXwXwX4X1X1X1X1X3X3X3X3XwXwXwX",
"wXwXwXwXwXwXwXwXwXwXwXwXwXwXwXwXwXwXwXwXwXwX3X3X3X3XwXwXwXwXwXwXwXwX*X*X*X*X<X<X<XE E E E [.[.[.[.].].].].*.*.*.*.) ) ) ) ' ' ' ' } } } } 1.1.1.6.6.2.2.2.w.w.w.8.u.y.y.u.F.F.F.F.F.F.F.F.Q.Q.Q.Q.K.K.K.K.^.^.^.^.^.^.^.^././././.^.^.^.^._._._._.BXBXBXCXFXFXFX* * * * j j j j Z.Z.Z.Z.H.H.H.H.Z.Z.Z.Z.S.S.S.S.h h h h h h h h H H H H / / / / U U U P g g g g h h h h H H H H f f S S 8 8 8 8 6 6 6 6 1 1 < < < < < < D D D D 1 1 1 1 S S S S S S S < < < < $ $ $ $ 1 1 1 1 1 1 1 1 1 1 1 1 1 1 1 1 1 1 1 1 1 1 1 1 3 1 1 1 1 3 3 1 1 1 1 1 1 3 3 3 X X X X . . . . X X X X @ @ @ @ @ @ @ # 6.6.6.6.;.;.;.;.........$.$.$.$.{ ' ' *.*.#.#.) ) ) ) ) ) ) ) ` ` _ _ =.=.=.=.M M M M V V V V $X$X%X%X'.'.'.'.2X2X2X2X-X-X-X-X4X4X4X4XwXwXwX4X1X1X1X1X3X3X3X3XwXwXwX",
"wXwXwXwXwXwXwXwXwXwXwXwXwXwXwXwXwXwXwXwXwXwX3X3X3X3XwXwXwXwXwXwXwXwX*X*X*X*X<X<X<XE E E E [.[.[.[.].].].].*.=.*.*.) ) ) ) ' ) ) ' } } } } 1.1.1.6.6.2.6.6.w.w.w.w.e.e.e.e.F.F.F.F.F.F.F.F.Q.Q.Q.Q.K.K.K.K.^.^.^.^.^.^.^.^././././.^.^.^.^._._._._.BXBXBXBXFXFXFX* * * * j j j j Z.Z.Z.Z.H.H.H.H.Z.Z.Z.Z.S.S.S.S.h h h h h h h h H H H H / / / / U U U U y y y y h h h h H H H H S S S S 8 8 8 8 6 6 6 6 < < < < < < < < D D D D 3 3 3 3 S S S S S S S < < < < $ $ $ $ 1 1 1 1 1 1 1 1 1 1 1 1 1 1 1 1 1 1 1 1 1 1 1 1 3 1 1 1 1 3 1 1 1 1 1 1 3 3 3 3 X X X X . . . . X X X X @ @ @ @ @ @ @ @ 6.6.6.6.;.;.;.;.........$.$.$.$.{ ' { #.#.#.#.) ) ) ) ) ) ) ) _ _ _ _ =.=.=.=.M M M M V V V V %X%X%X%X'.'.'.'.0X0X2X2X-X-X-X-X4X4X4X4XwXwXwXwX1X1X1X1X3X3X3X3XwXwXwX",
"wXwXwXwXwXwXwXwXwXwXwXwXwXwXwXwXwXwX4X4X4X4X2X2X2X2XwXwXwXwXwXwXwXwX<X<X<X<X|.|.|.[.[.[.[.! ! ! ! i i i i =.=.=.*.[ [ O.O.` ` ` { $.$.$.| 1.1.6.6.;.;.;.;.2.2.2.2.w.w.w.w.D.D.D.D.F.F.F.F.K.K.K.K.P.P.P.P.P.P.P.P.^.^.^.^.P.P.P.Q././././.^.^.^.^.bXbXbXbXDXDXDX* * * * c x x x q.q.q.q.Z.Z.Z.Z.e e e e l l l l f f f f h h h h D F D F I I I I I I I I P P P P h h h h I I I I D D D D 7 7 7 7 6 6 6 6 < < < < 1 1 1 1 J J J J 1 1 3 3 D D D 8 7 8 8 1 1 1 1 , , , , < < < < 1 1 1 1 1 1 1 1 1 1 1 1 1 1 1 1 1 1 1 1 1 1 1 1 1 1 1 1 1 1 1 1 1 1 1 1 1 1 1 1 1 1 1 1 O X X @ @ @ @ @ @ @ @ @ | | | | $.$.$.$.| #.| | } } } } ' ] ' { { { { ' ' ' ' ) ) ) ) O.O.O.O.C C C C Q Q ! ! Q Q Q Q ].].].].*X*X*X*X@X@X@X@X;X;X;X;X*X*X*X*X1X1X1X1X2X2X2X2X4X4X4X4X4X4X4X",
"wXwXwXwXwXwXwXwXwXwXwXwXwXwXwXwXwXwX4X4X4X4X2X2X2X2XwXwXwXwXwXwXwXwX<X<X<X<X|.|.|.[.[.[.[.! ! ! ! i =.=.i =.=.=.*.` O.O.O.` ` ` ` $.#.#.| 1.6.6.6.;.;.;.;.2.2.2.2.w.w.w.w.D.D.D.D.F.F.F.F.K.K.K.K.P.P.P.P.P.P.P.P.^.^.^.^.P.P.P.Q././././.^.^.^.^.bXbXbXbXDXDXDX* * * * c c x x q.q.q.q.Z.Z.Z.Z.e e e e l l l l f f f f h h h h D F D F I I I I I I I I P P P P h h h h I I I I D D D D 7 7 7 7 6 5 6 6 < < < < 1 1 1 1 J J J J 1 1 1 1 D D D 8 7 6 8 1 1 1 1 , , , - < < < < 1 < < < 1 1 1 1 1 1 1 1 1 1 1 1 1 1 1 1 1 1 1 1 1 1 1 1 1 1 1 1 1 1 1 1 1 1 1 1 1 1 1 1 O O O O @ @ @ @ @ @ @ @ | | | | $.$.$.$.| | | | } } } } ' ] ] { { { { ' ' ' ' ) ) ) ) O.O.O.O.C C C C ! ! ! ! Q Q Q Q ].].].].*X*X*X*X@X@X@X@X;X;X;X;X*X*X$X$X1X1X1X1X2X2X2X2X4X4X4X4X4X4X4X",
"wXwXwXwXwXwXwXwXwXwXwXwXwXwXwXwXwXwX4X4X4X4X2X2X2X2XwXwXwXwXwXwXwXwX<X<X<X<X|.|.|.[.[.[.[.! ! ! ! =.=.=.i =.=.=.*.` O.O.O.` ` ` { $.#.#.| 1.6.6.6.;.;.;.;.2.2.2.2.w.w.w.w.D.D.D.D.F.F.F.F.K.K.K.K.P.P.P.P.P.P.P.P.^.^.^.^.P.P.P.Q././././.^.^.^.^.bXbXbXbXDXDXDX* * * * c x x x q.q.q.q.Z.Z.Z.Z.e e e e l l l l f f f f f h h h F F D D L I I I I I I I I P P P h h h h I I I I S D D D 7 7 8 8 5 5 6 6 < < < < 1 1 1 1 J J J J 1 1 1 1 D D D 8 6 6 8 1 1 1 1 - , , - < < < < 1 < < < 1 1 1 1 1 1 1 1 1 1 1 1 1 1 1 1 1 1 1 1 1 1 1 1 1 1 1 1 1 1 1 1 1 1 1 1 1 1 1 1 O O O O @ @ @ @ @ @ @ @ | | | | $.$.$.$.| | | | } } } } ] ] ] { { { { ' ' ' ' ) ) ) ) O.O.O.O.T C C C ! ! ! ! Q Q Q Q ].].].].*X*X*X=X@X@X@X@X;X;X;X;X*X*X$X$X<X1X1X1X2X2X2X2X4X4X4X4X4X4X4X",
"wXwXwXwXwXwXwXwXwXwXwXwXwXwXwXwXwXwX4X4X4X4X2X2X2X2XwXwXwXwXwXwXwXwX<X<X<X<X|.|.|.[.[.[.[.! ! W ! =.=.=.i =.=.*.*.O.O.O.O.` ` ` ' ..| | $.6.6.6.6.;.;.;.;.2.2.2.2.w.w.w.w.D.D.D.D.F.F.F.F.K.K.K.K.P.P.P.P.P.P.P.P.^.^.^.^.Q.Q.Q.Q././././.^.^.^.^.bXbXbXbXDXDXDX* * * * x x x x q.q.q.q.Z.Z.Z.Z.e e e e l l l l f f f f h h h h F F F F I I I I I I I I I I I I h h h h I I I I S S S D 7 7 7 8 5 5 6 6 < < < < 1 1 1 1 J J J J 1 1 1 1 D D D 8 6 8 8 1 1 < < - = - = < < < < 1 < < < 1 1 1 1 1 1 1 1 1 1 1 1 1 1 1 1 1 1 1 1 1 1 1 1 1 1 1 1 1 1 1 1 1 1 1 1 1 1 1 1 O O O X @ @ @ @ @ @ @ @ | | | | $.$.$.$.#.| | | } } } } ] ] ' { { { { ' ' ' ' ) ) ) ) O.O.O.O.C C C C ! ! ! ! Q Q Q Q ].].].].*X*X*X*X@X@X@X@X;X;X;X;X*X*X$X$X1X1X1X1X2X2X2X2X4X4X4X4X4X4X4X",
"wXwXwXwXwXwXwXwXwXwXwXwXwXwXwXwXwXwXwXwXwXwX2X2X2X2XwXwXwXwX-X-X-X-XXXXXXXXX%X%X%X|.|.|.|.W W W W V V V V +.+.+.+.O.O.O.O.#.@.@.#.| | | | ........6.6.6.6.1.1.1.1.4.4.4.2.D.D.D.D.D.D.D.D.H.H.H.H.F.D.F.D.P.P.P.P.P.P.P.P.Q.Q.Q.Q././././.^.^.^.^.).).).).nXnXnX* * * * d d g d !.!.!.!.c c c c hXjXlXhXc c c c f f f f h h F F D D D D D D D D D D D D H H H H h h h h U U U U F F G G 6 6 6 7 1 1 1 1 - - , , 1 1 1 1 yXyXyXyX5 3 5 3 7 8 8 @ @ @ @ X X X X = = = = $ $ $ $ 1 1 1 1 1 1 1 1 1 1 1 1 1 1 1 1 1 1 1 1 8 8 8 8 D D D D 1 1 1 1 , , , , < < < < 1 1 1 1 $ $ $ $ # # # @ # # # # u u u u O.#.O.#.' ' ' ' ' ' ] ] #.O.O.*.*.*.*.` ` ` ` ` ` ` ` +.*.+.+.i.i.i.i.T T W W W W W W ;X;X;X;X|.|.|.|.#X#X#X#XXXXXXXXX1X1X1X1XwXwXwXwX<X<X<X<XwXwXwXwX4X4X4X",
"wXwXwXwXwXwXwXwXwXwXwXwXwXwXwXwXwXwXwXwXwXwX2X2X2X2XwXwXwXwX-X-X-X-XXXXXXXXX%X%X%X|.|.|.|.W W W W V V V V +.+.+.+.O.O.O.O.#.#.#.#.| | | | ........6.6.6.6.1.1.1.1.4.4.2.2.D.D.D.D.D.D.D.D.H.H.H.H.D.D.F.F.P.P.P.P.P.P.P.P.P.Q.Q.Q././././.^.^.^.^.).).).).mXmXmX* * * * d d d d !.E.!.!.c c c c jXjXjXjXc c c c g g f f h h D D D D D D D D D D D D D D H H H H h h h h U U U U G G G G 6 6 6 6 1 1 1 1 - - - - 1 1 1 1 yXyXyXyX3 3 3 3 7 7 7 @ # # @ X X X X , - - = $ $ $ $ 1 1 1 1 1 1 1 1 1 1 1 1 1 1 1 1 1 1 1 1 8 8 8 8 D D D D 1 1 1 1 , , , , < < < < 1 1 1 1 $ $ $ $ # # # # # # # # u u u u O.#.#.#.' ' ' ' ' ' ' ] #.O.O.*.*.*.*.` ` ` ` ` ` ` ` +.+.+.+.i.i.i.i.T T T T W W W W ;X;X;X;X|.|.|.|.#X#X#X#XXXXXXXXX1X1X1X1XwXwXwXwX<X<X<X<XwXwXwXwX4X4X4X",
"wXwXwXwXwXwXwXwXwXwXwXwXwXwXwXwXwXwXwXwXwXwX2X2X2X2XwXwXwXwX-X-X-X-XXXXXXXXX%X%X%X|.|.|.|.W W W W V V V V +.+.+.+.O.O.O.O.#.#.#.#.| | | | ........6.6.6.6.1.1.1.1.4.4.2.2.D.D.D.D.D.D.D.D.H.H.H.H.D.D.D.F.P.P.K.K.K.P.P.P.Q.Q.Q.Q././.).)./.^.^.^.).).).).mXmXnX* * * * d d d d E.E.!.!.0.c c c jXjXjXjXc c c c g g g f F D D D D D D D D D D D D D D D H H H H h h h h U U U U G G G G 6 6 6 6 1 1 1 1 - - - - 1 1 1 1 yXyXyXyX3 3 3 3 7 7 7 # # # # X X X X , , = = $ $ $ $ 1 1 1 1 1 1 1 1 1 1 1 1 1 1 1 1 1 1 1 1 8 8 8 8 D D D D 1 1 1 1 , , , , < < < < 1 1 1 1 $ $ $ $ # # # # # # # # u u u u O.#.#.#.' ' ' ' ' ' ' ] #.O.O.*.*.*.*.` ` ` ` ` ` ` ` +.+.+.+.i.i.i.i.T T T T W W W W ;X;X;X;X|.|.|.|.#X#X#X#XXXXXXXXX1X1X1X1XwXwXwXwX<X<X<X<XwXwXwXwX4X4X4X",
"wXwXwXwXwXwXwXwXwXwXwXwXwXwXwXwXwXwXwXwXwXwX2X2X2X2XwXwXwXwX-X-X-X-XXX X X X$X$X$X|.|.|.|.W W W W V V V V +.*.*.+.O.O.O.O.@.@.@.#.| | | | X.X.X.o.6.6.6.6.1.1.1.1.4.4.4.4.D.D.D.D.D.D.D.D.H.H.H.H.D.D.F.F.L.P.P.P.L.L.K.P.Q.Q.P.P././././.^.^.^.^.).).).).nXnXnX* * * * d d d d !.!.!.!.v v v v hXhXhXhXc c c c g g g f F F F F D D D D D D D D D D D D H H H H h h h h U U U U F F F F 6 6 6 6 1 1 1 1 - - - - 1 1 1 1 yXyXyXyX3 3 3 3 7 7 7 @ @ # # X X X X - - - - $ $ $ $ 1 1 1 1 1 1 1 1 1 1 1 1 1 1 1 1 1 1 1 1 8 8 8 8 D D D D 1 1 1 1 , , , , < < < < 1 1 1 1 $ $ $ $ @ @ @ @ # # # # u u u u @.O.O.O.' ' ' ' ' ' ' ' O.O.O.#.#.*.*.` ` ` ` ` ` ` ` *.*.+.+.i.i.i.i.T T T T W W W W ;X;X;X;X|.|.|.|.#X#X#X#XXXXXXXXX1X1X1X1XwXwXwXwX<X<X<X<XwXwXwXwX4X4X4X",
"wXwXwXwXwXwXwXwXwXwXwXwXwXwX4X4X4X4X2X2X3X3X<X<X<X<X>X>X>X>X4X4X4X4X<X9X9X9X-X-X-X%X%X%X%X! ! ! ! V V V V a.a.a.a.) ) ) ) ) ) ) ) #.#.#.#.} } } } ;.;.o.;.7.7.7.7.2.6.2.2.x.k.k.k.u.u.u.u.u.u.u.u.F.F.F.F.K.K.K.K.Q.Q.Q.Q.Q.Q.Q.Q.P.P.P.Q._._._._.bXbXbXxXZXZXZX* * * * - - - - E.E.E.E.h h j j lXlXlXlX4 4 4 4 2 2 2 2 h h h h S S D D ^ ^ ^ ^ S S S S / / / / h h h h K K K K I I I I S S S S 1 1 1 1 8 8 8 8 7 7 7 7 ~ ~ ~ ~ 1 1 1 1 1 1 1 1 1 1 1 1 1 1 1 X X X X , , , , 1 1 1 1 1 1 1 1 1 1 1 1 1 1 1 1 1 1 1 1 D D D S 8 8 8 8 1 1 1 1 < < < < $ $ $ $ 1 1 1 1 , , , , @ @ @ @ # # # # $ $ $ $ @.O.O.O.O.O.O.O.p.p.p.=.` ` ` O.[ O.O.=.=.=.=.s.s.s.s.a.a.a.a.T T C C C C C C Z Z Z Z |.|.|.|.*X*X*X*X%X%X%X#X0X0X0X0X2X2X3X2X-X-X-X-X4X4X4X4X2X2X2X2X4X4X4X",
"wXwXwXwXwXwXwXwXwXwXwXwXwXwX4X4X4X4X2X2X3X3X<X<X<X<X>X>X>X>X4X4X4X4X<X<X9X<X-X-X-X%X%X%X%X! ! ! ! V V V V a.a.a.a.) ) ) ) ) ) ) ) #.#.#.#.} } } { $.$.$.;.7.7.7.7.2.2.2.2.x.x.x.k.u.u.u.u.u.u.u.u.F.F.F.F.K.K.K.K.Q.Q.Q.Q.Q.Q.Q.Q.P.P.P.Q._._._._.bXbXbXxXZXZXZX* * * * : : - - E.E.!.!.j j j j hXjXlXjX4 4 4 4 2 2 2 2 F F h h S S f f ^ ^ ^ ^ D D S S / / / / h h h h K K K K I I I I S S S S 1 1 1 1 8 8 8 8 7 7 7 7 ~ ~ ~ ~ 1 1 1 1 1 1 1 1 1 1 1 1 1 1 1 X X X X - , , , 1 1 1 1 1 1 1 1 1 1 1 1 1 1 1 1 1 1 1 1 D D D D 8 8 8 8 1 1 1 1 < < < < $ $ $ $ 1 1 1 1 , , , , @ @ @ @ # # # # $ $ $ $ @.O.O.O.O.O.O.O.-.p.p.p.` ` ` O.O.O.O.=.=.=.=.s.s.s.s.a.a.a.a.C C C C C C C C Z Z Z Z |.|.|.|.*X*X*X*X%X%X#X#X0X0X0X0X2X2X3X3X-X-X-X-X4X4X4X4X2X2X2X2X4X4X4X",
"wXwXwXwXwXwXwXwXwXwXwXwXwXwX4X4X4X4X2X2X2X2X<X<X<X<X>X>X>X>X4X4X4X4X<X<X<X<X-X-X-X%X%X%X%X! ! ! ! V V V V a.a.a.a.) ) ) ) ) ) ) ) #.#.#.#.} } } { $.$.$.$.7.7.7.7.2.2.2.2.x.x.x.x.u.u.u.u.u.u.u.u.F.F.F.F.K.K.K.K.Q.Q.Q.Q.Q.Q.Q.Q.P.P.P.Q._._._._.bXbXxXbXZXZXZX* * * * : - - - !.!.!.!.j j j h hXjXjXjX4 4 4 4 2 2 2 2 F F h h f f f f ^ ^ ^ ^ D D D S / / / / h h h h K K K K I I I I S S S S 1 1 1 1 8 8 8 8 7 7 7 7 ~ ~ ~ ~ 1 1 1 1 3 3 3 1 1 1 1 1 1 1 1 X X X X - , , , 1 1 1 1 1 1 1 1 1 1 1 1 1 1 1 1 1 1 1 1 D D D D 8 8 8 8 1 1 1 1 < < < < $ $ $ $ 1 1 1 1 , , , , @ @ @ @ # # # # $ $ $ $ @.O.O.O.O.O.O.O.-.p.p.p.` ` ` O.O.O.O.=.=.=.=.s.s.s.s.a.a.a.a.C C C C C C C C Z Z Z Z |.|.|.|.*X*X*X*X%X%X#X#X1X0X0X0X2X2X3X3X-X-X-X-X4X4X4X4X2X2X2X2X4X4X4X",
"wXwXwXwXwXwXwXwXwXwXwXwXwXwX4X4X4X4X2X2X2X2X<X<X<X<X7X7X>X>X4X4X4X4X<X<X<X<X-X-X-X%X%X%X%X! ! ! ! V V V V a.i.a.a.) ) ) ) ) ) ) ) #.#.#.#.} } } { $.$.$.$.7.7.7.7.2.2.2.6.x.x.x.x.u.u.u.u.u.u.u.u.F.F.F.F.K.K.K.K.Q.Q.Q.Q.Q.Q.Q.Q.Q.Q.Q.Q._._._._.xXxXxXxXZXZXZX* * * * : : : : !.!.!.!.j j j j lXhXhXhX4 4 4 4 2 2 2 2 F F F F f f f f ~ ~ ~ ~ D D D D / / / / h h h h K K K K I I I I f f f f 1 1 1 1 8 8 8 8 7 7 7 7 ~ ~ ~ ~ 1 3 3 1 1 1 3 1 1 1 1 1 1 1 1 X X X X - , , , 1 1 1 1 1 1 1 1 1 1 1 1 1 1 1 1 1 1 1 1 D D D D 8 8 8 8 1 1 1 1 < < < < $ $ $ $ 1 1 1 1 , , , , @ @ @ @ # # # # $ $ $ $ +.@.@.@.O.O.O.O.-.p.p.=.` ` ` O.O.O.O.=.=.=.=.s.s.s.s.a.a.a.a.C C C C C C C C Z Z Z Z |.|.|.|.=X=X*X*X%X%X%X%X0X0X0X0X2X2X3X2X-X-X-X-X4X4X4X4X2X2X2X2X4X4X4X",
"wXwXwXwXwXwXwXwXwXwXwXwXwXwXwXwXwXwXwXwXwXwX1X1X1X1X4X4X4X4X2X2X2X2X0X0X0X0X].].].Z Z Z Z ].].].{.a.a.a.a.+.+.+.+.+.+.+.+.*.*.*.*.] ] ] ] { { { { $.$.$.$.;.;.$.$.1.1.1.1.w.w.w.w.e.e.e.u.D.D.D.x.D.D.D.D.F.F.F.F.P.P.P.P.P.P.P.P.^.^.^.^.(.(.(.(.bXbXbXvXZXZXZXv v v v Z.Z.Z.Z.Z.Z.Z.Z.Z.Z.Z.Z.E.E.E.E.x x x x h h h h h h h h / / / / D D D D yXyXyXyXD D D D D D D D F F F F I I I I S S S S 8 8 8 8 8 8 8 8 8 8 8 8 6 6 6 6 5 5 5 5 1 1 1 1 1 1 1 1 < < < 1 1 1 1 1 1 1 1 < < < 1 1 1 1 1 1 1 1 1 1 1 1 1 1 1 1 1 8 8 8 8 @ @ @ @ X X X X O X X O - , , , 1 1 1 < < 1 1 1 X X X X @ @ @ @ $ # # # $ $ $ $ n n n n V V V V M B B a.a.a.a.B B B B s.s.s.s.M M M M T T T T C C C C Z Z Z Z oXoXoXoX#X#X%X%X=X=X=X=X5X5X5X5X5X5X5X5X2X2X2X2X2X2X2X2XwXwXwXwXwXwXwX",
"wXwXwXwXwXwXwXwXwXwXwXwXwXwXwXwXwXwXwXwXwXwX1X1X1X1X4X4X4X4X2X2X2X2X0X0X0X0X].].].Z Z Z Z ].].].{.a.a.a.a.+.+.+.+.+.+.+.+.*.*.*.*.' ] ] ] { { { { $.$.$.$.;.$.$.$.1.1.1.1.w.w.w.w.u.e.e.e.D.D.D.x.D.D.D.D.J.F.F.J.P.P.P.P.P.P.P.P.^.^.^.^.(.(.(.(.bXbXvXbXZXZXZXv v v c Z.Z.Z.Z.S.Z.S.S.Z.Z.Z.Z.E.E.E.E.x x x x h h h h h h h h / / / / D D D D yXyXyXyXD D D D D D D D F F F F I I I I S S S S 8 8 8 8 8 8 8 8 8 8 8 8 6 6 6 6 5 5 5 5 1 1 1 < 1 < 1 < < < < 1 1 1 1 1 1 1 1 < < < 1 1 1 1 1 1 1 1 1 1 1 1 1 1 1 1 1 8 8 8 8 @ @ @ @ X X X X O O O O - = = $ < < < < < 1 1 1 X X X X @ @ @ @ $ # # # $ $ $ $ n n n n V V V V M B B M a.a.a.B B B B s.s.s.s.M M M M T T T T C C C C Z Z Z Z oXoXoXoX#X#X%X%X=X=X=X=X5X5X5X5X5X5X5X5X2X2X2X2X2X2X2X2XwXwXwXwXwXwXwX",
"wXwXwXwXwXwXwXwXwXwXwXwXwXwXwXwXwXwXwXwXwXwX1X1X1X1X4X4X4X4X2X2X2X2X0X0X0X0X].].].Z Z Z Z ].].].].a.a.a.a.+.+.+.+.+.+.+.+.*.*.*.*.' ] ] ] { { { { $.$.$.$.;.$.$.$.1.1.1.1.w.w.w.w.u.e.e.e.D.D.D.x.D.D.D.D.J.F.F.J.P.P.P.P.P.P.P.P.^.^.^.^.(.(.(.(.bXbXvXvXZXVXVXc c v v Z.Z.Z.Z.S.S.S.S.Z.Z.Z.Z.E.E.E.E.x x x x h h h h h h h h / / / / D D D D yXyXyXyXD D D D F h D D F F F F I I I I S S S S 8 8 8 8 8 8 8 8 8 8 8 8 6 6 6 6 5 5 5 5 1 1 1 < < < 1 1 < < < 1 1 1 1 1 1 1 1 < < < 1 1 1 1 1 1 1 1 1 1 1 1 1 1 1 1 1 8 8 8 8 @ @ @ @ X X X X O O O O , $ $ $ < < < < < 1 1 < X X X X @ @ @ @ $ # # # $ $ $ $ n n n n V V V V M B B M a.a.a.B B B B s.s.s.s.M M M M T T T T C C C C Z Z Z Z oXoXoXoX#X%X%X%X=X=X=X=X5X5X5X5X5X5X5X5X2X2X2X2X2X2X2X2XwXwXwXwXwXwXwX",
"wXwXwXwXwXwXwXwXwXwXwXwXwXwXwXwXwXwXwXwXwXwX1X1X1X1X4X4X4X4X2X2X2X2X0X0X0X0X].].[.Z Z Z Z ].].].].a.a.a.M &.&.*.*.+.+.+.+.*.*.*.*.] ] ] ] { { { { $.$.$.$.$.$.$.$.1.1.1.1.w.w.w.w.u.u.u.u.D.D.D.x.D.D.D.D.J.F.F.J.P.P.P.P.P.Q.Q.P.^.^.^.^.(.(.(.(.bXbXbXbXZXZXVXc c c c Z.Z.Z.Z.Z.Z.Z.Z.Z.Z.Z.Z.E.E.E.E.x x x x h h h h h h h h / / / / D D D D yXyXyXyXD D D D F D D D h h h D I I I I S S S S 8 8 8 8 8 8 8 8 8 8 8 8 6 6 6 6 6 6 6 6 1 1 1 < < < 1 < < < < 1 1 1 1 1 1 1 1 < < < < 1 1 1 1 1 1 1 1 1 1 1 1 1 1 1 1 8 8 8 8 @ @ @ @ X X X X X X X X = - , * < < < 1 1 1 1 1 X X X X @ @ @ @ $ # # # $ $ $ $ n n n n V V V V M B B a.a.a.a.B B B B s.s.s.s.M M M M W T T T C C C C Z Z Z Z oXoXoXoX%X%X%X%X=X=X=X=X5X5X5X5X5X5X5X5X2X2X2X2X2X2X2X2XwXwXwXwXwXwXwX",
"wXwXwXwXwXwXwXwXwXwXwXwXwXwX3X3X3X3X5X5X3X5X7X7X7X7X*X*X*X*X+X+X+X+X7X7X7X7X%X%X%XoX X X XOXOXOXOX=.=.=.=.+.+.+.+.O.O.O.O.) ) ) ) @.@.@.@.' { { { | | | | | | | | ;.;.;.;.5.5.5.5.e.e.e.e.u.u.u.u.x.x.D.D.F.F.F.F.K.K.K.K.K.L.L.K.Q.Q.Q.!.!.!.(.(.jXjXjXjXvXvXvX4 4 4 4 f.f.f.f.Z.Z.Z.Z.g.g.g.f.l.l.l.l.h h h h h h h h h h h h A.A.A.A.D D D D         D D D S f f f f K I K I F F F F D D D D S S S S 8 8 8 8 8 8 8 8 6 6 6 6 < < < < < < < < < < < < < < < < < < < < < < < < < < < @ O @ @ :.:.:.:.1 1 1 1 1 1 1 1 1 1 1 1 1 1 1 1 1 1 1 1 < < < < = , , * < < < < 1 1 1 1 @ @ @ @ @ @ @ @ # # # # $ $ $ $  X X X XC C C C  X X XC C C C [.[.[.[. X X|.|. X XoX X[.[.[.[.[.[.[.[.|.|.|.|.8X8X8X8X+X+X+X+X8X8X8X8X5X5X5X5X4X4X4X4X>X>X>X>X<X<X<X<XwXwXwXwXwXwXwX",
"wXwXwXwXwXwXwXwXwXwXwXwXwXwX3X3X3X3X5X5X3X5X7X7X7X7X*X*X*X*X+X+X+X+X7X7X7X7X%X%X%XoX X X X[.OXOXOX=.=.=.=.+.+.+.+.O.O.O.O.) ) ) ) @.@.@.@.' ' ' ' | | | | | | | | 1.;.;.;.5.5.5.5.e.e.e.e.y.u.u.u.x.x.x.x.F.F.F.F.K.K.K.K.K.L.L.L.Q.Q.Q.Q.!.!.!.!.jXjXjXjXvXvXvX4 4 4 4 f.f.f.f.Z.Z.Z.Z.g.g.g.g.l.Z.l.l.h h h h h h h h h h h h A.A.A.A.D D D D         D D S D S S f S I I I I F F F F S S S S S S S S 8 8 8 8 8 8 8 8 6 6 6 6 < < < < < < < < < < < < 1 1 1 1 < < < < < < < < < < < O O O @ :.:.:.:.1 1 1 3 1 1 1 1 1 1 1 < 1 1 1 1 1 1 1 1 < < < < , , , , < < < < 1 1 1 1 @ @ @ @ @ @ @ @ # # # # $ $ $ #  X X X XC C C C  X X XC C C C [.[.[.[. X X|.|. X X X X[.[.[.[.[.[.[.[.|.|.|.|.8X8X8X8X+X+X+X+X8X8X8X8X5X5X5X5X4X4X4X4X>X>X>X>X<X<X<X<XwXwXwXwXwXwXwX",
"wXwXwXwXwXwXwXwXwXwXwXwXwXwX3X3X3X3X5X5X3X3X7X7X7X7X*X*X*X*X+X+X+X+X7X7X7X7X%X%X%XoX X X X[.OXOXOX=.=.=.=.+.+.+.+.O.O.O.O.) ) ) ) @.@.@.@.' ' ' ' | | | | | | | | 1.;.;.;.5.5.5.5.e.e.e.e.u.u.u.u.x.x.x.x.F.F.F.F.K.K.K.K.K.L.L.L.Q.Q.Q.Q.!.!.!.!.jXjXjXjXvXvXvX4 4 4 4 f.f.f.f.Z.Z.Z.Z.g.g.g.g.Z.Z.l.l.h h h h h h h h h h h h A.A.A.A.D D D D . .     D D S S S S f S I I I K F F F F S S S S S S S S 8 8 8 8 8 8 8 8 6 6 6 6 < < < < < < < < < < < < 1 1 1 1 < < < < < < < < < < < O O O @ :.:.:.:.1 1 1 1 1 1 1 1 1 1 1 1 1 1 1 1 1 1 1 1 < < < < , , , , < < < < 1 1 1 1 @ @ @ @ @ @ @ @ # # # # $ $ # #  X X X XC C C C  X X XC C C C [.[.[.[. X X|.|. X X X X[.[.[.[.[.[.[.[.|.|.|.|.8X8X8X9X+X+X+X+X8X8X8X8X5X5X5X5X4X4X4X4X>X>X>X>X<X<X<X<XwXwXwXwXwXwXwX",
"wXwXwXwXwXwXwXwXwXwXwXwXwXwX3X3X3X3X5X5X4X4X>X>X7X7X*X*X*X*X+X+X+X+X7X7X7X7X%X%X%XoXoXoX XOXOXOX X=.=.=.=.+.+.+.+.O.O.O.O.) ) ) ) @.@.@.@.' ' ' ' | | | | | | | | 1.1.1.;.5.5.5.5.u.u.u.e.u.y.u.u.x.x.x.D.F.F.F.F.K.K.K.P.L.L.L.L.Q.Q.Q.Q.!.!.!.!.jXjXjXjXvXvXvX4 4 4 4 f.f.f.f.Z.Z.Z.Z.g.g.g.g.Z.Z.Z.l.h h h h h h h h h h h h A.A.A.A.D D D D . . . . D D D S S D f f I I I I F F F F S S S S f f S S 8 8 8 8 8 8 8 8 6 6 6 6 1 < < < < < < < < < < < 1 < < < 1 1 1 < < < < < < < < @ @ @ @ :.:.:.:.1 1 1 1 1 1 1 1 1 1 1 1 1 1 1 1 1 1 1 1 1 < 1 1 , - , , < < < < 1 1 1 1 + @ @ @ @ @ @ @ # # # # $ $ $ $  X X X XC C C C  X X XC C C C [.[.[.[.|.|.|.|.oXoXoXoX[.[.[.[.[.[.[.[.|.|.|.|.9X9X8X8X+X+X+X+X8X8X8X8X5X5X5X5X4X4X4X4X>X>X>X>X<X<X<X<XwXwXwXwXwXwXwX",
"wXwXwXwXwXwXwXwXwXwXwXwXwXwX3X3X3X3XwXwXwXwX;X;X-X-X-X-X-X-XXXXXXXXX X X X X%X$X$X|.|.|.|.|.|.|.|.T T T T *.*.*.*.O.+.+._ -.p.-.-.) ) ) ) ) ) ) ) | | | } ........o.o.o.o.5.5.5.5.3.3.3.3.k.k.k.k.u.u.u.u.u.u.u.u.F.F.F.F.J.J.J.J.!.!.!.!.R.R.R.R.zXzXzXzXR.R.R.(.(.(.(.h.h.h.h.C.C.Z.Z.c c x c j j j j h h h h h h h h h h h h z.z.z.z.D D D D . . . . S S S S S S S S D D D D A.A.A.A.( ( ( ( yXyXyXyX8 8 8 8 8 8 8 8 8 8 8 8 6 6 6 6 5 5 5 1 1 1 1 < < < < < < < < , , , , @ @ @ # $ # # # $ # # # :.:.:.:.0 0 0 0 G G G G < < < < < < < < < < < < 1 < < < < 1 1 1 < < < < # # # # # # # # $ $ $ $ $ = = $ # # # # R R R R %X%X%XE E E E oXoX@X@X X X X X X X}.}. X X X X[.[.[.[.7X7X7X7XoX@XoXoX;X;X;X;X7X7X7X7X2X2X2X2X4X4X4X4X>X>X>X>X<X<X<X<X2X2X2X2X5X5X5X",
"wXwXwXwXwXwXwXwXwXwXwXwXwXwX3X3X3X3XwXwXwXwX-X-X-X-X-X-X-X-XXXXXXXXX X X X X$X$X$X|.|.|.|.|.|.|.|.T T T T *.*.*.*.+.+.+._ -.-.-.-.) ) ) ) ) ) ) ) | | | } ........o.o.o.o.5.5.5.5.3.3.3.3.k.k.k.k.u.u.u.u.u.u.u.u.F.F.F.F.J.J.J.J.!.!.!.!.R.R.R.R.zXzXzXzXR.R.R.(.(.(.(.h.h.h.h.Z.Z.Z.Z.x c c c j j j j h h h h h h h h h h h h z.z.z.z.D D D D     . . S S S S S S S S D D f D A.A.A.A.( ( ( ( yXyXyXyX8 8 8 8 8 8 8 8 8 8 8 8 6 7 6 6 5 5 5 3 1 1 1 < < < < < < < < , , , , @ # # # $ # # # # # # # :.:.:.:.0 0 0 0 G G G G < < < < < < < < < < < < < < < < < 1 1 < < < < < # # # # # # # # $ $ $ $ $ = = = # # # # R R R R %X%X%XE E E E @X@X@X@X X X X X X X}.}. X X X X[.[.[.[.;X;X7X7XoXoXoXoX;X;X;X;X7X7X7X7X2X2X2X2X4X4X4X4X>X>X>X>X<X<X<X<X2X2X2X2X5X5X5X",
"wXwXwXwXwXwXwXwXwXwXwXwXwXwX3X3X3X3XwXwXwXwX-X-X-X-X-X-X-X-XXXXXXXXX X X X X%X$X$X|.|.|.|.|.|.[.|.T T T T *.*.*.*.+.+.+._ -.-.-.-.) ) ) ) ) ) ) ) | | | } ........o.o.o.o.5.5.5.5.3.3.3.3.k.k.k.k.u.u.u.u.u.u.u.u.F.F.F.F.J.J.J.J.!.!.!.!.R.R.R.R.zXzXzXzXR.R.R.(.(.(.(.h.h.h.h.Z.Z.Z.Z.c c c c j j j j h h h h h h h h h h h h z.z.z.z.D D D D       . S S S S S S S S D D D D A.A.A.A.( ( ( ( yXyXyXyX8 8 8 8 8 8 8 8 8 8 8 8 6 7 7 6 5 5 5 1 1 1 1 < < < < < < < < , , , < # # # # $ # # # # # # # :.:.:.:.0 0 0 0 G G G G < < < < < < < < < < < < < < < 1 1 1 1 < < < < < # # # # # # # # $ $ $ $ $ = = = # # # # R R R R %X%X%XE E E E @X@X@X@X X X X X}.}.}.}. X X X X[.[.[.[.;X;X7X7XoXoXoXoX;X;X;X;X7X7X7X7X2X2X2X2X4X4X4X4X>X>X>X>X<X<X<X<X2X2X2X2X5X5X5X",
"wXwXwXwXwXwXwXwXwXwXwXwXwXwX3X3X3X3XwXwXwXwX-X-X-X-X-X-X-X-XXXXXXXXX X X X X$X$X$X|.|.|.|.[.[.[.|.T T T T *.*.*.*.O.O.O.O.p.p.p.-.) ) ) ) ) ) ) ) } | | | ........o.o.o.o.3.3.5.5.2.3.3.3.k.k.k.k.u.u.u.u.u.u.u.u.F.F.F.F.J.J.J.J.!.!.!.!.R.R.R.R.zXzXzXzXR.R.R.(.(.(.(.g.g.h.h.Z.Z.Z.Z.x x x l j j j j h h h h h h h h h h h h z.z.z.z.D D D D         S S S S S S S S D D D f A.A.A.A.( ( ( ( yXyXyXyX8 8 8 8 8 8 8 8 8 S S S 6 6 6 6 3 3 3 1 3 3 1 < < < < < < < < < < < , @ @ @ # $ $ $ $ $ # $ $ :.:.:.:.0 0 0 0 G G G G < < < < < < < < < < < < < 1 1 1 1 < < < < < < < # # # # # # # # $ $ $ $ = = $ $ # # # # R R W W %X#X%XE E E E @X@X@X@X X X X X}.}.}.}. X X X X[.[.[.[.7X7X7X7XoXoXoXoX;X;X;X;X7X7X7X7X2X2X2X2X4X4X4X4X>X>X>X>X<X<X<X<X2X2X2X2X5X5X5X",
"wXwXwXwXwXwXwXwXwXwXwXwXwXwXwXwXwXwX2X2X2X2X4X4X4X4X4X4X5X5X#X#X#X#X7X7X7X7X].].].#X#X#X@X%X%X%X%XW W W W V V V V +.+.+.+.) ) ) ) @.*.*.*.{ ` ` [ #.#.#.#.] ] ] ] ;.;.;.;.;.....$.6.6.6.6.4.4.4.4.5.5.5.5.u.u.u.u.H.H.H.H.G.G.G.G.J.J.J.J.Y.Y.Y.J.J.J.J.J.!.!.!.Y.Y.Y.K.j.j.j.A.S.S.S.S.x x x c * * * * h h h g h h h h h h h h A.A.A.A.f f f f         U U U U S S S S S S S S S S S S ^ ^ ^ ^ G G G G fXfXfXfXgXgXgXgXgXgXgXgXgXgXgXgXgXgXgXgXgXgXgX1 1 1 1 1 1 1 1 1 3 3 1 1 1 1 3 3 3 3 3 1 1 1 1 $ # $ $ # # # # $ $ $ $ 1 1 1 1 < < < < , , , , < < < < < < < < = , , = $ $ $ $ $ $ $ $ = , , , = $ $ $ # # # # +X+X#X#X0X2X2X7X7X7X7X-X-X-X-X8X8X8X8X#X#X#X#XXXXX X X7X7X7X7X*X*X*X*X0X0X0X0XXXXXXXXX7X7X8X7X*X*X*X*X4X4X4X4X4X4X4X4X1X1X1X1XwXwXwXwX3X3X3X",
"wXwXwXwXwXwXwXwXwXwXwXwXwXwXwXwXwXwX2X2X2X2X4X4XwXwX4X4X5X5X#X#X#X#X7X7X7X7X].].].#X#X#X@X%X%X%X%XW W W W V V V V +.+.+.+.) ) ) ) @.*.*.*.{ ` ` [ #.#.#.#.] ' ' ] ;.;.;.;.;.;.;.$.6.6.6.6.4.4.4.4.5.5.5.5.u.u.u.u.H.H.H.H.G.D.G.G.J.J.J.J.J.K.Y.J.J.J.J.J.!.!.!.Y.Y.K.K.j.j.C.A.S.S.S.S.x x c c * * * * h h h h h h h h h h h h A.A.A.A.f f f f         U U U U S S S S S S S S S S S S ^ ^ ^ ^ G G G G fXfXfXfXgXgXgXgXgXgXgXgXgXgXgXgXgXgXgXgXgXgXgX1 1 1 1 1 1 1 1 1 3 1 1 1 3 3 3 3 3 3 3 1 1 1 1 $ $ $ $ # # # # $ $ $ $ 1 1 1 1 < < < < , , , , < < < < < < < < = , , , $ $ $ $ $ $ $ $ , , , , $ $ $ $ # # # # +X+X+X#X0X2X2X7X7X7X7X-X-X-X-X8X8X8X8X#X#X#X#X X X X X7X7X7X7X*X*X*X*X0X0X0X0XXXXXXXXX7X7X8X7X*X*X*X*X4X4X4X4X4X4X4X4X1X1X1X1XwXwXwXwX3X3X3X",
"wXwXwXwXwXwXwXwXwXwXwXwXwXwXwXwXwXwX2X2X2X2X4X4XwXwX5X5X5X5X#X#X#X#X7X7X7X7X].].].#X#X#X@X%X%X%X%XW W W W V V V V +.+.+.+.) ) ) ) #.*.*.*.{ ` ` ` #.#.#.#.] ' ' ] ;.;.;.;.;.;.;.;.6.6.6.6.4.4.4.4.5.5.5.5.u.u.u.u.H.H.H.H.D.D.D.G.J.J.J.J.J.K.K.J.J.J.J.J.!.!.!.Y.Y.K.K.j.j.C.C.S.S.S.S.x x c c * * * * h h h h h h h h h h h h A.A.A.A.f f f f         U U U U S S S S S S S S S S S S ~ ^ ^ ^ G G G G fXfXfXfXgXgXgXgXgXgXgXgXgXgXgXgXgXgXgXgXgXgXgX1 1 1 1 1 1 1 1 1 3 3 1 1 3 3 3 3 3 3 3 1 1 1 1 $ $ $ $ # # # # $ $ $ $ 1 1 1 1 < < < < , , , , < < < < < < < < = , , , $ $ $ $ = $ $ $ , = = , = $ $ $ # # # # +X+X+X#X0X2X2X7X7X7X7X-X-X-X-X8X8X8X8X#X#X#X#X X X X X7X7X7X7X*X*X*X*X0X0X0X0XXXXXXXXX7X7X7X7X*X*X*X*X4X4X4X4X4X4X4X4X1X1X1X1XwXwXwXwX3X3X3X",
"wXwXwXwXwXwXwXwXwXwXwXwXwXwXwXwXwXwX2X2X2X2X4X4X4X4X5X5X5X5X#X#X#X#X7X7X7X7X].].].@X#X#X#X%X%X%X%XW W W W V V V V +.+.+.+.) ) ) ) *.@.@.@.` ` ` ` #.#.#.#.' ' ' ] ;.;.;.;.;.;.;.;.6.6.6.6.5.3.3.4.5.5.5.5.u.u.u.u.H.H.H.H.D.D.D.G.J.J.J.J.J.J.K.J.J.J.J.J.Q.!.!.Y.Y.Y.Y.A.A.A.C.S.S.S.S.x c c c * * * * h h h h h h h h h h h h A.A.A.A.f f f f         U U U U S S S S S S S S S S S S ~ ~ ~ ^ G G G G fXfXfXfXgXgXgXgXgXgXgXgXgXgXgXgXgXgXgXgXgXgXgX1 1 1 1 1 1 1 1 1 1 1 1 1 3 3 1 1 1 1 3 1 1 1 1 $ $ $ $ # # # # $ $ $ $ 1 1 1 1 < < < < , , , , < < < < < < < < = = = = $ $ $ $ $ $ $ $ = = = = $ $ $ $ # # # # +X+X+X+X0X2X2X7X7X7X7X-X-X-X-X8X8X8X8X#X#X#X#X X X X X7X7X7X7X*X*X*X*X0X0X0X0XXXXXXXXX7X7X7X7X*X*X*X*X4X4X4X4X4X4X4X4X1X1X1X1XwXwXwXwX3X3X3X",
"wXwXwXwXwXwXwXwXwXwXwXwXwXwXwXwXwXwXwXwXwXwX4X4X4X4X5X5X5X5X1X1X0X0X7X7X7X7X-X-X-X%X%X%X%X[.[.[.[.B B B B M M M M +.+.+.+.+.+.*.+.{ { { [ { { { { ] ] ] ] #.#.#.#.%.%.%.%.| | | | ;.;.;.o.o.o.o.o.;.;.;.;.8.8.8.8.w.e.w.e.x.x.x.x.x.x.x.x.D.D.D.G.J.J.J.J.J.J.J.H.H.H.H.4 4 2 2 j.j.j.j.- - - - * * * * 4 4 4 4 h h h h h h h h z.z.z.z.5 5 5 5 X X X X / / Y Y < < < < S S S S S S S S HXHXHXHXfXfXfXfX6 6 6 6 D D D D gXgXgXgXgXgXgXgXgXgXgXgXfXfXfXaXaXaXaXuXyXyXyXyXyXyXyX^ / / / 6 6 6 6 1 1 1 1 1 1 1 1 1 1 1 1 1 1 1 1 1 1 1 1 1 1 1 1 , , , , , , , , , , , , , , , , , , , , - - - - = = = = = = = , # # # # 4X4X4X4X4X4X4X+X+X+X+X4X4X4X4X1X1X1X1X4X4X4X4X$X$X$X$X+X+X+X+X7X7X7X7XwXwX4X4X>X>X>X>X2X2X2X2X-X-X-X-X4X4X4X4X4X4X4X4X4X4X4X4XwXwXwXwXwXwXwX",
"wXwXwXwXwXwXwXwXwXwXwXwXwXwXwXwXwXwXwXwXwXwX4X4X4X4X5X5X5X5X1X1X0X0X7X7X7X7X-X-X-X%X%X%X%X[.[.[.[.B B B B M M M M +.+.+.+.+.+.+.+.{ { { [ { { { { ] ] ] ] #.#.#.#.%.%.%.#.} } | | o.;.;.;.o.o.o.o.;.;.;.;.8.8.8.8.w.w.w.e.x.x.x.x.x.x.x.x.G.G.G.G.J.J.J.J.J.J.J.H.H.H.H.4 4 4 4 j.j.j.j.- - - - * * * * 4 4 4 4 h h h h h h F F z.z.z.z.5 5 5 5 X X X X / / / / < < < < S S S S S S S S HXHXHXHXfXfXfXfX6 6 6 6 D D D D gXgXgXgXgXgXgXgXgXgXgXgXfXfXfXaXaXaXaXuXyXyXyXyXyXyXyX^ / / / 6 6 6 6 1 1 1 1 1 1 1 1 1 1 1 1 1 1 1 1 1 1 1 1 1 1 1 1 , , , , , , , , , , , , , , , , , , , , - - - - , , , = = = , , # # # # 4X4X4X4X4X4X4X+X+X+X+X4X4X4X4X1X1X1X1X4X4X4X4X$X$X$X$X+X+X+X+X7X7X7X7XwXwX4X4X>X>X>X>X2X2X2X2X-X-X-X-X4X4X4X4X4X4X4X4X4X4X4X4XwXwXwXwXwXwXwX",
"wXwXwXwXwXwXwXwXwXwXwXwXwXwXwXwXwXwXwXwXwXwX4X4X4X4X5X5X5X5X1X1X0X0X7X7X7X7X-X-X-X%X%X%X%X[.[.[.[.B B B B M M M M +.+.+.+.+.+.+.+.[ [ { [ { { { { ] ] ] ] #.#.#.#.%.%.%.#.} } } | o.;.;.;.o.o.o.o.;.;.;.;.8.8.8.8.w.w.w.e.x.x.x.x.x.x.x.x.G.G.G.G.J.J.J.J.J.J.J.H.H.H.H.4 4 4 4 j.j.j.j.- - - - * * * * 4 4 4 4 h h h h h h F F z.z.z.z.5 5 5 5 X X X X / / / / < < < < S S S S S S S S HXHXHXHXaXfXfXfX6 6 6 6 D D D D gXgXgXgXgXgXgXgXgXgXgXgXfXfXfXaXaXaXaXuXyXuXuXyXyXyXyX^ / / / 6 6 6 6 1 1 1 1 1 1 1 1 1 1 1 1 1 1 1 1 1 1 1 1 1 1 1 1 , , , , , , , , , , , , , , , , , , , , - - - - , , = = = , , , # # # # 4X4X4X4X4X4X4X+X+X+X+X4X4X4X4X1X1X1X1X4X4X4X4X$X$X$X$X+X+X+X+X7X7X7X7XwXwX4X4X>X>X>X>X2X2X2X2X-X-X-X-X4X4X4X4X4X4X4X4X4X4X4X4XwXwXwXwXwXwXwX",
"wXwXwXwXwXwXwXwXwXwXwXwXwXwXwXwXwXwXwXwXwXwX4X4X4X4X5X5X5X5X1X1X1X1X7X7X7X7X-X-X-X%X%X%X%X[.[.[.[.B B B B M M M M +.+.+.+.+.+.+.+.{ { { { { { { { ] ] ] ] #.#.#.#.#.#.#.#.| | | | o.;.;.;.o.o.o.o.;.;.;.;.8.8.8.8.e.e.e.e.x.x.x.x.x.x.x.x.D.D.G.D.J.J.J.J.J.J.J.H.H.J.J.4 4 4 4 j.j.j.j.- - - - * * * * 4 4 4 4 h h h h h h h h z.z.z.z.5 5 5 5 X X X X / / / / < < < < S S S S S S S S HXHXHXHXaXaXfXfX6 6 6 6 D D D D gXgXgXgXgXgXgXgXgXgXgXfXfXfXgXfXfXaXaXuXuXuXyXyXyXyXyX^ / / / 6 6 6 6 1 1 1 1 1 1 3 3 1 1 1 1 1 1 1 1 1 1 1 1 1 1 1 1 , , , , , , , , , , , , , , , , , , , , , - - - = , , = = = = = # # # # 4X5X5X4X4X4X4X+X+X+X+X4X4X4X4X1X1X1X1X4X4X4X4X$X$X$X$X+X+X+X+X7X7X7X7X4X4X4X4X>X>X>X>X2X2X2X2X-X-X-X-X4X4X4X4X4X4X4X4X4X4X4X4XwXwXwXwXwXwXwX",
"wXwXwXwXwXwXwXwXwXwXwXwXwXwXwXwXwXwXwXwXwXwX4X4X4X4X7X7X7X7X-X-X*X*XXXXX+X+X$X$X$X;X;X;X;X X X X XC C C C W W W W i.i.i.i.O.O.O.O.@.@.@.@.O.O.#.#.) ) ) ) ' ' ' ' { { { { ] ' ' ] [ O.O.O.@.@.@.@.%.%.%.%.;.;.;.;.1.1.1.1.8.8.8.8.x.G.x.G.x.x.x.x.x.x.x.x.k.x.k.q.q.q.q.h.h.h.h.- - - - 4 4 4 4 * * * * 4 4 4 4 h h h h h h h h I I I I - - - - X X X X z.z.z.Y S S S S 7 7 7 7 S S S S SXSXSXSXaXaXaXaXfXfXfXfXgXgXgXfX8 8 8 8 SXHXHXHXgXgXgXfXfXfXgXfXfXfXaXuXuXuXuX( yXyX( ^ / / / , , , , J J J J J J J J f S S S 3 1 1 3 1 1 1 1 - = = - < 1 1 1 1 < < < < < < < < < < < < < < < < < < < , , , , , , , , , , , , > > > > <X<X<X2X2X2X2X4X4X4X4X1X1X<X<XwXwXwXwX*X*X*X*X4X4X4X4X;X;X;X;X1X1X1X1X1X1X1X1X<X<X<X<X7X7X7X7X<X<X<X<XwXwXwXwXwXwXwXwX3X3X3X3X4X4X4X",
"wXwXwXwXwXwXwXwXwXwXwXwXwXwXwXwXwXwXwXwXwXwX4X4X4X4X7X7X7X7X-X-X*X*X+X+X+X+X$X$X$X;X;X;X;X X X X XC C C C W W W W i.i.i.i.O.O.O.O.@.@.@.@.O.O.O.#.) ) ) ) ' ' ' ' { { { { ' ' ' ] [ [ O.{ @.@.@.@.%.%.%.%.;.;.;.;.1.1.1.1.8.8.8.8.x.x.x.x.x.x.x.x.x.x.x.x.k.k.k.q.q.q.q.f.f.h.h.- - - - 4 4 4 4 * * * * 4 4 4 4 h h h h h h h h I I I I - - - - X X X X z.z.Y Y S S S S 6 6 7 7 S S S S SXSXSXSXaXaXaXaXfXfXfXfXgXgXgXgX8 8 8 8 SXSXHXHXgXgXgXfXfXfXfXfXaXaXaXuXuXuXuXyXyXyXyX/ / / / , , , , J J J J J J J J S S S S 3 1 3 3 1 1 1 1 - = , - < 1 1 1 1 1 1 < < < < < < < < < < < < < < < < < , , , , , , , , , , , , > > > > <X<X<X2X2X2X2X4X4X4X4X1X1X1X1XwXwXwXwX*X*X*X*X4X4X4X4X7X7X;X;X1X1X1X1X1X1X1X1X<X<X<X<X7X7X7X7X<X<X<X<XwXwXwXwXwXwXwXwX3X3X3X3X4X4X4X",
"wXwXwXwXwXwXwXwXwXwXwXwXwXwXwXwXwXwXwXwXwXwX4X4X4X4X7X7X7X7X-X-X*X-X+X+X+X+X$X$X$X;X;X;X;X X X X XC C C C W W W W i.i.i.i.O.O.O.O.@.@.@.@.O.O.O.#.) ) ) ) ' ' ' ' { { { { ] ' ' ] [ O.O.#.@.@.@.@.%.%.%.%.;.;.;.;.1.1.1.1.w.8.8.8.x.x.x.x.x.x.x.x.x.x.x.x.k.k.k.q.q.q.q.f.h.h.h.- - - - 4 4 4 4 * * * * 4 4 4 4 h h h h F h h h I I I I - - - - X X X X z.Y Y Y S S S S 6 6 6 6 S S S S SXSXSXSXaXaXaXaXfXfXfXfXgXgXgXgX8 8 8 8 HXHXHXHXgXgXgXfXfXfXfXfXaXaXaXuXuXuXuXyXyXyXyX/ / / / , , , , J J J J J J J J S S S S 3 1 3 3 1 1 1 1 , , , - < 1 1 1 1 1 1 < < < < < < < < < < < < < < < < < , , , , , , , , , , , , > > > > <X<X<X2X2X2X2X4X4X4X4X1X1X1X1XwXwXwXwX*X*X*X*X4X4X4X4X7X7X7X;X1X1X1X1X1X1X1X1X<X<X<X<X7X7X7X7X<X<X<X<XwXwXwXwXwXwXwXwX3X3X3X3X4X4X4X",
"wXwXwXwXwXwXwXwXwXwXwXwXwXwXwXwXwXwXwXwXwXwX4X4X4X4X7X7X7X7X-X*X-X-X+X+X@XoX$X$X$X;X;X;X;X X X X}.C C C C W W W W i.i.i.i.O.O.O.[ @.@.@.@.{ { { #.) ) ) ) ' ' ' ' { { { { ' ' ' ' O.O.[ #.%.%.%.@.%.%.%.%.;.;.;.;.1.1.1.1.8.8.8.8.c.D.c.x.x.x.x.x.x.x.x.x.k.k.k.q.q.q.q.h.h.h.h.- - - - 4 4 4 4 * * * * 4 4 4 4 h h h h F F F F I I I I * * * - X X . . Y Y Y Y S S S S 6 6 6 6 S S S S SXSXSXSXfXfXaXfXfXfXfXfXgXgXgXgX8 8 8 8 HXHXHXHXgXgXgXfXfXfXfXaXaXaXaXuXuXuXuXyXyXyXyX/ / / / , , , , J J J J J J J J S S S S 3 3 3 3 1 1 1 1 - , , , < < < < < 1 < < < < < < < < < < < < < < < < < < , , , , , , , , , , , , > > > > <X<X<X2X2X2X2X4X4X4X4X1X1X1X1XwXwXwXwX*X*X*X*X4X4X4X4X>X7X;X;X1X1X1X1X1X1X1X1X<X1X1X1X7X7X7X7X<X<X<X<XwXwXwX4XwXwXwXwX3X3X3X3X4X4X4X",
"wXwXwXwXwXwXwXwXwXwX4X4X4X4X3X3X3X3XwXwXwXwXwXwX4XwX5X5X5X5X2X2X3X3X-X-X*X*X7X8X8X@X@X@X@X|.|.|.[.Z Z Z Z V V V V V V V V M M M M *.*.*.*.*.*.*.*.-.-.-.-.*.*.*.*.*.#.*.*.%.%.%.%.=.=.=.=._ _ _ _ _ _ _ ` } } } } ;.;.;.;.2.2.2.2.8.8.5.5.8.8.8.w.e.e.e.e.x.x.x.w.w.w.w.C.C.S.C.4 4 t t # # # * 4 4 4 4 h h h h F F F h K K K K @ @ @ @ 2 2 2 2 - - - - G G G H S S S S 8 8 8 8 gXgXgXgXyXyXyXyXaXaXaXaXfXfXfXfXfXfXfXfXS S S S KXKXKXKXgXgXfXfXfXfXfXaXaXaXaXuXyXyXyXyXyXyXyX/ / / / < < < < ^ ^ ^ ^ D D D D 8 8 8 8 3 3 3 3 1 1 1 1 $ $ $ $ ~ ~ ~ ~ J J J J 6 5 5 5 , , , , , , , , $ $ $ $ < < < < < < < < , , , , < < < < <X<X<X-X-X-X-XwXwXwXwX>X>X>X>XwXwXwXwX>X>X>X>XwXwXwXwX>X>X>X>X<X<X<X<X2X2X2X2X<X<X<X<X1X1X<X<XwXwXwXwXwXwXwXwX5X5X5X5XwXwXwXwXwXwXwX",
"wXwXwXwXwXwXwXwXwXwX4X4X4X4X3X3X3X3XwXwXwXwXwX4X4X4X5X5X5X5X2X2X3X3X*X*X*X*X8X8X8X@X@X@X@X|.[.[.[.C Z Z Z V V V V V V V V B M M M @.*.*.*.*.*.*.*.-.-.-.-.*.*.*.*.#.*.*.#.%.%.%.%.=.=.=.=._ _ _ _ _ ` ` ` } } } } ;.;.;.;.2.2.2.2.5.5.5.5.w.8.8.w.e.e.e.e.x.x.x.y.y.w.w.S.S.S.S.4 4 4 4 # # * * 4 4 4 4 h h h h F F h h K K K K @ @ @ @ 2 2 2 2 - - - - G G G G S S S S 8 8 8 8 gXgXgXgXyXyXyXyXaXaXaXaXfXfXfXfXfXfXfXfXS S S S KXKXKXLXgXgXfXfXfXfXfXaXaXaXaXuXyXyXyXyXyXyXyX/ / / / < < < < ^ ^ ^ ^ D D D D 8 8 8 8 3 3 3 3 1 1 1 1 $ $ $ $ ~ ~ ~ ~ J J J J 5 5 5 5 , , , , , , , , $ $ $ $ < < < < < < < < , , , , < < < < <X<X<X-X-X-X-XwXwXwXwX>X>X>X>XwXwXwXwX>X>X>X>XwXwXwXwX>X>X>X>X<X<X<X<X2X2X2X2X<X<X<X<X<X<X<X<XwXwXwXwXwXwXwXwX5X5X5X5XwXwXwXwXwXwXwX",
"wXwXwXwXwXwXwXwXwXwX4X4X4X4X3X3X3X3XwXwXwXwXwX4X4X4X5X5X5X5X2X2X3X2X*X*X*X*X7X7X8X@X@X@X@X|.|.[.[.C Z Z Z V V V V V V V V M M M M @.*.*.*.*.*.*.*.-.-.-.-.*.*.*.*.#.#.#.*.%.%.%.%.=.=.=.=._ _ _ _ ` ` [ [ } } } } ;.;.;.;.2.2.2.2.5.5.5.5.w.w.8.w.e.e.e.e.x.x.x.y.y.w.w.S.S.S.S.4 4 4 4 # # * * 4 4 4 4 h h h h h F h h K K K K @ @ @ @ 2 2 2 2 - - - - G G G G S S S S 8 8 8 8 gXgXgXgXyXyXyXyXaXaXaXaXfXfXfXfXfXfXfXfXS S S S KXKXLXLXgXgXfXfXfXfXfXaXaXaXaXuXyXyXyXyXyXyXyX/ / / / < < < < ^ ^ ^ ^ D D D D 8 8 8 8 3 3 3 3 1 1 1 1 $ $ $ $ ~ ~ ~ ~ J J J J 5 5 5 5 , , , , , , , , $ $ $ $ < < < < < < < < , , , , < < < < <X<X<X-X-X-X-XwXwXwXwX>X>X>X>XwXwXwXwX>X>X>X>XwXwXwXwX>X>X>X>X<X<X<X<X2X2X2X2X<X<X<X<X<X<X<X<XwXwXwX4X4XwXwXwX5X5X5X5XwXwXwXwXwXwXwX",
"wXwXwXwXwXwXwXwXwXwX4X4X4X4X3X3X3X3XwXwXwXwXwXwXwXwX5X5X5X5X2X2X2X2X*X*X*X*X7X7X8X@X@X@X@X|.|.|.|.Z Z Z Z V V V V V V V V M M M B *.*.*.*.*.*.*.*.-.-.-.-.*.*.*.*.#.#.#.#.%.%.%.%.=.=.=.=._ _ _ _ _ _ _ _ } } } } ;.;.;.;.1.1.1.2.8.8.8.8.w.w.w.w.e.e.e.e.x.x.x.y.y.y.y.C.C.C.C.4 4 4 7 - - - - 4 4 4 4 h h h h h h h h K K K K @ @ @ @ 2 2 2 2 - - - - G G G G S f f f 8 8 8 8 gXgXgXgXyXyXyXyXaXaXaXaXfXfXfXfXfXfXfXfXS S S S LXLXKXKXfXfXfXfXfXfXfXfXfXfXiXyXyXyXyXyXyXyXyX/ / / / < < < < ^ ^ ^ ^ D D D D 8 8 8 8 3 3 3 3 1 1 1 1 $ $ $ $ ~ ~ ~ ~ J J J J 5 5 5 5 , , , , , , , , $ $ $ $ < < < < < < < < , , , , < < < < <X<X<X-X-X-X-X4X4XwXwX>X>X>X>XwXwXwXwX>X>X>X>XwXwXwXwX>X>X>X>X<X<X<X<X2X2X2X2X<X<X<X<X<X<X<X<XwXwXwXwXwXwXwXwX5X5X5X5XwXwXwXwXwXwXwX",
"wXwXwXwXwXwXwXwXwXwX4X4X4X4X3X3X3X3XwXwXwXwXwXwXwXwX5X5X5X5X5X5X5X5X3X3X3X3X+X+X+X*X*X*X*XoXoXoXoX[.[.[.[.@X@X@X@X X X XOXn n n n V V V V s.s.s.s.@.+.+.+.+.+.+.+.=.=.=.=.=.=.=.=.m n n n m m m m n n n M [ [ [ [ $...$...o.o.o.;.7.8.8.8.3.3.3.3.e.e.e.w.w.w.w.5.5.5.5.Z.Z.Z.Z.h h H H - - - - 7 7 7 7 h h h h h h h h f f f f X X X X t t t t h.h.h.h.D D D D J J J J 8 8 8 8 iXiXiXiXN.N.N.N.uXuXuXuXaXaXaXaX8 8 8 8 SXSXHXHXfXfXfXfXaXaXiXiXiXiXiXyXuXuXyX( ( ( OX^ ^ ^ / < < < < ^ ^ ^ ^ ^ ^ ^ ^ D D D D 8 8 8 8 3 3 3 3 1 1 1 1 # # # # f S S S < < < < $ $ $ $ $ $ $ $ $ $ $ $ # # # # # # # # @ @ @ @ . . . . . . . . b b b 4X4X4X4XwX4XwXwXwXwXwXwX3X3X3X3X1X1X1X1XwXwXwXwX3X3X3X3XwXwXwXwX4X4X4X4XwXwXwXwXwXwXwXwXwXwXwXwX3X3X3X3XwXwXwXwXwXwXwXwXwXwXwX",
"wXwXwXwXwXwXwXwXwXwX4X4X4X4X3X3X3X3XwXwXwXwXwXwX4XwX5X5X5X5X5X5X5X5X3X3X3X3X+X+X+X*X*X*X*XoXoXoXoX[.[.[.[.@X@X@X@X X X X Xn n n n V V V V s.s.s.s.+.+.+.+.+.+.+.+.=.=.=.=.=.=.=.=.m m m m m m m m n n n m [ [ [ [ $.$.$.$.o.o.o.;.7.7.7.7.3.3.3.3.e.e.e.w.w.w.w.5.5.5.5.Z.Z.l.l.h h h H - - - - 7 7 7 7 h h h h h h h h f h f f X . X X t t t t h.h.h.h.D D D D J J J J 8 8 8 8 iXiXiXiX( ( N.A.uXuXuXuXaXaXaXaX8 8 8 8 SXSXSXSXfXfXfXfXaXaXiXiXiXiXiXyXuXuXyXN.( N.( / ^ ^ ^ < < < < ^ ^ ^ ^ ^ ^ ^ ^ D D D D 8 8 8 8 3 3 3 3 1 1 1 1 # # # # S S S f < < < < $ $ $ $ $ $ $ $ $ $ $ $ # # # # # # # # @ @ @ @ . . . . . . . . b b b wXwXwXwXwXwXwXwXwXwXwXwX3X3X3X3X1X1X1X1XwXwXwXwX3X3X3X3XwXwXwXwX4X4X4X4XwXwXwXwXwXwXwXwXwXwXwXwX3X3X3X3XwXwXwXwXwXwXwXwXwXwXwX",
"wXwXwXwXwXwXwXwXwXwX4X4X4X4X3X3X3X3XwXwXwXwXwXwX4XwX5X5X5X5X5X5X5X5X3X3X3X3X+X+X+X*X*X*X*XoXoXoXoX[.[.[.[.@X@X@X@X X X X Xn n n n V V V V s.s.s.s.+.+.+.+.+.+.+.+.=.=.=.=.=.=.=.=.m m m m m m m m n n n M [ [ [ [ $.$.$.$.o.o.o.;.7.7.7.7.3.3.3.3.e.e.e.w.w.w.w.5.5.5.5.Z.Z.Z.l.h h h H - - - - 7 7 7 7 h h h h h h h h f f f h . . X X t t t t h.h.h.h.D D D D J J J J 8 8 8 8 iXiXiXiX( ( z.z.uXuXuXuXaXaXaXaX8 8 8 8 SXSXSXSXfXfXfXfXaXaXaXiXiXiXiXyXuXuXyXN.N.( OX/ ^ ^ ^ < < < < ^ ^ ^ ^ ^ ^ ^ ^ D D D D 8 8 8 8 3 3 3 3 1 1 1 1 # # # # S f f f < < < < $ $ $ $ $ $ $ $ $ $ $ $ # # # # # # # # @ @ @ @ . . . . . . . . b b b wXwXwXwXwXwXwXwXwXwXwXwX3X3X3X3X1X1X1X1XwXwXwXwX3X3X3X3XwXwXwXwX4X4X4X4XwXwXwXwXwXwXwXwXwXwXwXwX3X3X3X3XwXwXwXwXwXwXwXwXwXwXwX",
"wXwXwXwXwXwXwXwXwXwX4X4X4X4X3X3X3X3XwXwXwXwXwXwX4X4X5X5X5X5X5X5X5X5X3X3X3X3X+X+X+X*X*X*X*XoXoXoXoX[.[.[.[.@X@X@X@X X X X Xn n n n V V V V s.s.s.s.+.+.+.+.+.+.+.+.=.=.=.=.=.=.=.=.m m m m m m m m n n n n [ [ [ [ $.$.$.$.o.o.o.o.7.7.7.8.3.3.3.3.e.w.w.w.w.w.w.5.5.5.5.Z.Z.Z.l.h h h h - - - - 6 6 6 7 h h h h h h h h f f f h . . . . t t t t h.h.h.h.D D D D J J J J 8 8 8 8 iXiXiXiX( ( ( ( uXuXuXuXaXaXaXaX8 8 8 8 SXSXSXSXfXfXfXfXfXfXfXiXiXiXiXyXyXyXyX( N.N.( ^ ^ ^ ^ < < < < ^ ^ ^ ^ ^ ^ ^ ^ D D D D 8 8 8 8 3 3 3 3 1 1 1 1 # # # # S f f f < < < < = = = $ $ $ $ $ $ $ $ $ # # # # # # # # @ @ @ @ . . . . . . . . b b b wXwXwXwXwXwXwXwXwXwXwXwX3X3X3X3X1X1X1X1XwXwXwXwX3X3X3X3XwXwXwXwX4X4X4X4XwXwXwXwXwXwXwXwXwXwXwXwX3X3X3X3XwXwXwXwXwXwXwXwXwXwXwX",
"wXwXwXwXwXwXwXwXwXwXwXwXwXwX3X3X3X3X1X1X1X1X>X>X>X>X5X5X5X5X5X5X5X5X2X2X2X2X3X3X3X7X7X7X7X].].].].! E ! E C C C Z [.[.[.[.{.{.{.{.B B B B C C C C Q Q Q Q Q Q Q ! V V V V ! W W W  X X X XV V V V W W W W O.O.O.+.' ' ' ' $.$.$.$.o.o.o.X.1.1.1.1.1.1.1.1.1.;.;.;.;.;.;.g.g.g.g.P P P P - - - - 4 4 4 4 h h h F D D D D < < < < . . . . t t t t z.z.z.z.D D D D L L L L S S S S 6 6 6 7 ( ( ( ( yXyXyXyXuXuXuXuX1 1 1 1 gXgXgXgXiXiXiXiXaXfXfXuXyXyXyXN.yXyXyX( N.N.OX~ ~ ~ ~ S S S S ^ ^ ^ ^ D D D D 8 8 8 8 6 3 3 3 1 1 1 1 @ @ @ @ # # # # , , , , $ $ $ $ # # $ # # # # # # # # # # # # # O O O O S S S S 8 8 8 8 < < < < X X X 4X4X4X4X1X1X1X1X4X4X4X4X4X4X4X4XwXwXwXwXwXwXwXwXwXwXwXwX2X2X2X2XwXwXwXwXwXwXwXwXwXwXwXwXwXwXwXwXwXwXwXwX4X4X4X4XwXwXwXwXwXwXwX",
"wXwXwXwXwXwXwXwXwXwXwXwXwXwX3X3X3X3X1X1X1X1X>X>X>X>X5X5X5X5X5X5X5X5X2X2X2X2X3X3X3X7X7X7X7X].].].].! ! ! E Z Z C Z [.[.[.[.{.{.{.{.B B B B C C C C Q Q Q Q Q Q Q ! V V V V W W W R  X X X XV V V V W W W W O.O.O.+.' ' ' ' $.$.$.$.o.o.o.X.1.1.1.1.;.;.1.1.1.1.;.;.;.;.;.g.g.g.g.P P P P - - - - 4 4 4 4 h h F F D D D D < < < < . . . . t t t t A.A.A.A.D D D D L L L L S S S S 6 6 7 7 yXyX( ( yXyXyXyXuXuXuXuX1 1 1 1 gXgXgXgXiXiXiXiXiXiXaXyXyXyXyXyXyXyXN.( N.N.( ~ ~ ~ ~ S S S S ^ ^ ^ ^ D D D D 8 8 8 8 6 3 3 3 1 1 1 1 @ @ @ @ # # # # , , , , $ $ $ $ # $ $ $ # # # # # # # # # # # # O O O O S S S S 8 8 8 8 < < < < X X X 4X4X4X4X1X1X1X1X4X4X4X4X4X4X4X4XwXwXwXwXwXwXwXwXwXwXwXwX2X2X2X2XwXwXwXwXwXwXwXwXwXwXwXwXwXwXwXwXwXwXwXwX4X4X4X4XwXwXwXwXwXwXwX",
"wXwXwXwXwXwXwXwXwXwXwXwXwXwX3X3X3X3X1X1X1X1X>X>X>X>X5X5X5X5X5X5X5X5X2X2X2X2X3X3X3X7X7X7X7X].].].].! ! ! E Z Z C Z [.[.[.[.{.{.{.{.B B B B C C C C Q Q Q Q Q Q Q ! V V V V W W W R  X X X XV V V V W W W W O.O.O.O.' ' ' ' $.$.$.$.o.o.X.X.1.1.1.1.;.;.1.1.1.;.;.;.;.;.;.g.g.g.g.P P P P - - - - 4 4 4 4 h h h h D D D D < < < < . . . . t t t t A.A.A.A.D D D D L L L L S S S S 6 6 7 7 yXyXyXyXyXyXyXyXuXuXuXuX1 1 1 1 gXgXgXgXiXiXiXiXiXiXaXyXyXyXyXyXyXyXN.( N.N.( ~ ~ ~ ~ S S S S ^ ^ ^ ^ D D D D 8 8 8 8 6 3 3 3 1 1 1 < @ @ @ @ # # # # , , , , $ $ $ $ # $ $ $ # # # # # # # # # # # # O O O O S S S S 8 8 8 8 < < < < X X X 4X4X4X4X1X1X1X1X4X4X4X4X4X4X4X4XwXwXwXwXwXwXwXwXwXwXwXwX2X2X2X2XwXwXwXwXwXwXwXwXwXwXwXwXwXwXwXwXwXwXwXwX4X4X4X4XwXwXwXwXwXwXwX",
"wXwXwXwXwXwXwXwXwXwXwXwXwXwX3X3X3X3X1X1X1X1X>X>X7X7X5X5X5X5X5X5X5X5X1X1X2X2X3X3X3X7X7X7X7X].].].].E E E E C C C Z [.[.[.[.{.{.{.{.B B B B C C C C Q Q Q Q Q Q Q ! V V V V ! ! ! !  X X X XV V V V W W W W O.+.+.O.' ' ' ' $.$.$.$.X.X.X.X.1.1.1.1.1.1.1.1.;.;.;.;.;.;.;.g.g.g.g.P P P P - - - - 4 4 4 4 h h h h h h h F < < < < . . . . t t t t A.A.A.A.D D D D L L L L S S S S 6 6 6 6 N.N.N.N.yXyXyXyXuXuXuXuX1 1 1 1 gXgXgXgXiXiXiXiXaXaXaXuXuXuXuXyXN.N.N.( ( ( ( ~ ~ ~ ~ S S S S ^ ^ ^ ^ D D D D 8 8 8 8 6 3 3 3 1 1 1 1 @ @ @ @ # # # # , , , , $ $ $ $ # # # # # # # # # # # # # # # # O O O O S S S S 8 8 8 8 < < < < X X X 4X4X4X4X1X1X1X1X4X4X4X4X4X4X4X4XwXwXwXwXwXwXwXwXwXwXwXwX2X2X2X2XwXwXwXwXwXwXwXwXwXwXwXwXwXwXwXwXwXwXwXwX4X4X4X4XwXwXwXwXwXwXwX",
"wXwXwXwXwXwXwXwXwXwXwXwXwXwXwXwXwXwX1X1X1X1X>X>X7X7X5X5X4X4X8X8X8X8X$X$X$X$X*X*X*X|.|.|.|. XoXoX X].].].].%X%X%X%X|.|.|.[.E '.! '.C C C C Z Z Z Z  X X X XZ Z Z A E E E E  XXXXXXX$X%X%X%X X X X XV V V V B B B B ' ' ' ' ' ' ' ' ] ' ' ' | | | | X.X.X.X.;.;.;.........e e e e g.g.j.j.4 4 4 4 t t t t f f f f 4 4 5 5 , , - - . . . . t t t t z.z.z.z.8 8 S S J J J J gXgXgXgX3 3 5 5 6 6 6 6 3 3 3 3 3 3 3 3 3 3 3 3 5 5 5 5 6 6 6 6 iXiXiX^ ^ ^ ^ ( ( ( ( ^ ^ ^ ^ J J J J 1 1 1 1 ^ ^ ^ ^ S S S S 6 6 6 6 1 1 1 1 < < < < @ @ @ @ 7 7 7 7 = = = = $ $ $ $ # # # # # # # # # # # # . . . . < < < < @ # # # # @ @ @ X @ X X       2X2X2X2X3X3X3X3X3X3X3X3X4X4X4X4XwXwXwXwXwXwXwXwX5X5X5X5XwXwXwXwX3X3X3X3XwXwXwXwXwXwXwXwX4X4X4X4XwXwXwXwXwXwXwXwXwXwXwXwXwXwXwX",
"wXwXwXwXwXwXwXwXwXwXwXwXwXwXwXwXwXwX1X1X1X1X>X>X>X>X5X5X4X4X8X8X8X8X$X$X$X$X*X*X*X|.|.|.|. X X X X].].].].#X%X%X%X|.|.|.|.'.'.'.'.C C C C Z Z Z Z  X X X XZ Z Z Z E E E E  X X X X%X%X%X%X X X X XV V V V B B B B ' ' ' ' ' ' ' ' ' ] ] ] | | | | X.X.X.X.;.;.;.........e e e e j.j.g.j.4 4 4 4 t t f f f f f f 4 4 5 5 , , - - . . . . t t t t z.z.z.z.8 8 f f J J J J gXgXgXgX5 5 5 5 6 6 6 6 3 3 3 3 3 3 3 3 3 3 3 3 5 5 5 5 6 6 6 6 iXiXiX^ ^ ^ ^ ( ( ( ( ^ ^ ^ ^ J J J J 1 1 1 1 ^ ^ ^ ^ S S S S 6 6 6 6 1 1 1 1 < < < < @ @ @ @ 7 7 7 6 = = = = $ $ $ $ # # # # # # # # # # # # . . . . < < < < # # @ @ @ @ # @ X @ O X       2X2X2X2X3X3X3X3X3X3X3X3X4X4X4X4XwXwXwXwXwXwXwXwX5X5X5X5XwXwXwXwX3X3X3X3XwXwXwXwXwXwXwXwX4X4X4X4XwXwXwXwXwXwXwXwXwXwXwXwXwXwXwX",
"wXwXwXwXwXwXwXwXwXwXwXwXwXwXwXwXwXwX1X1X1X1X>X>X>X>X5X5X5X4X8X8X8X8X$X$X$X$X*X*X*X|.|.|.|. X X X X].].].].#X%X%X%X|.|.|.|.'.'.'.'.C C C C Z Z Z Z  X X X XZ Z Z Z E E E E  X X XXX%X%X%X%X X X X XV V V V B B B B ' ' ' ' ' ' ' ' ] ] ] ] | | | | X.X.X.X.;.;.;.........e e e e j.j.g.j.4 4 4 4 t f f f f f f f 5 4 5 5 , , - - . . . . t t t t z.z.z.z.8 f f f J J J J gXgXgXgX5 5 3 5 6 6 6 6 3 3 3 3 3 3 3 3 3 3 3 3 3 5 5 5 6 6 6 6 iXiXiX^ ^ ^ ^ ( ( ( ( ^ ^ ^ ^ J J J J 1 1 1 1 ^ ^ ^ ^ S S S S 6 6 6 6 1 1 1 1 < < < < @ @ @ @ 7 6 6 6 = = = = $ $ $ $ # # # # # # # # # # # # . . . . < < < < # # @ @ @ # # @ O X X X       2X2X2X2X3X3X3X3X3X3X3X3X4X4X4X4XwXwXwXwXwXwXwXwX5X5X5X5XwXwXwXwX3X3X3X3XwXwXwXwXwXwXwXwX4X4X4X4XwXwXwXwXwXwXwXwXwXwXwXwXwXwXwX",
"wXwXwXwXwXwXwXwXwXwXwXwXwXwXwXwXwXwX1X1X1X1X>X>X>X>X4X4X5X4X8X8X8X8X$X$X$X$X*X*X*X|.|.|.|. X X X X].].].].%X%X%X%X[.[.[.|.'.'.'.'.C C C C Z Z Z Z  X X X XZ Z Z Z E E E E  X X XXX%X%X%X%X X X X XV V V V B B B B ' ' ' ' ' ' ' ' ] ] ] ] X.X.X.| X.X.X.X.;.;.;...X.X...e e e e g.g.g.g.4 4 4 4 f f f f f f f f 5 5 5 5 - - - - . . . . t t t t z.z.z.z.8 8 f f J J J J gXgXgXgX5 5 5 5 6 6 6 6 3 3 3 3 3 3 3 3 3 3 3 3 5 5 5 5 6 6 6 6 iXiXiX^ ^ ^ ^ ( ( ( ( ^ ^ ^ ^ J J J J 1 1 1 1 ^ ^ ^ ^ S S S S 6 6 6 6 1 1 1 1 < < < < + @ @ O 6 6 6 7 = = = = $ $ $ $ # # # # # # # # # # # # . . . . < < < < # # # # # # # # O O X X       2X2X2X2X3X3X3X3X3X3X3X3X4X4X4X4XwXwXwXwXwXwXwXwX5X5X5X5XwXwXwXwX3X3X3X3XwXwXwXwXwXwXwXwX4X4X4X4XwXwXwXwXwXwXwXwXwXwXwXwXwXwXwX",
"wXwXwXwXwXwXwXwXwXwXwXwXwXwXwXwXwXwXwXwXwXwXwXwXwXwX3X3X3X3X2X2X2X2X2X2X2X2X4X4X4X5X5X5X5X#X#X#X#X$X$X$X$X@X@X@X@X[.[.[.[.%X%X%X%X[.[.|.|.].].].].E E E '.-X-X-X-X;X;X;X;X1X1X1X1X|.|.|.|.|.|.|.|.V V V V V V V V p.p.p.p.*.*.*.*.{ { { { ' ' ' ' { { { { } } } ' { { { * * * * Z.Z.Z.Z.g g g g f f f f t f f f < < < < O O O O         4 t 4 t z.z.z.z.S S S S D D D D yXyXyXyX6 6 6 6 6 6 5 5 5 5 5 5 3 3 3 3 3 3 3 3 3 3 3 3 3 3 3 3 3 3 3 5 3 3 3 3 5 5 3 6 6 6 6 3 3 3 3 5 5 5 5 5 5 5 5 1 1 1 1 < < < < $ $ $ = $ $ $ $ @ @ @ @ 6 6 6 6 $ # # # # # # # # # # # @ @ @ # @ @ @ @ . . . . = $ $ = @ # # # @ @ @ @ O O O X       5X5X5X5XwXwXwXwX4X4X4X4X4X4X4X4X4X4X4X4X4X4X4X4X4X4X4X4X4X4X4X4XwXwXwXwX4X4X4X4XwXwXwXwXwXwXwXwXwXwXwXwXwXwXwXwXwXwXwXwXwXwXwX",
"wXwXwXwXwXwXwXwXwXwXwXwXwXwXwXwXwXwXwXwXwXwXwXwXwXwX3X3X3X3X2X2X2X2X2X2X2X2X4X4X4X3X3X5X5X#X#X#X#X$X$X$X$X@X@X@X@X[.[.[.[.%X%X%X%X[.[.[.[.].].].].E E E E *X*X*X*X;X;X;X;X1X1X1X1X|.|.|.|.|.|.|.|.V V V V V V V V p.p.p.p.*.*.*.*.{ { { { ' ' ' ' { { { { } } } { { { { * * * * Z.Z.Z.Z.g g g g f f f f t t f f < < < < O O O O         t t 4 t z.z.z.z.S S S S D D D D yXyXyXyX6 6 6 6 5 5 5 5 5 5 5 5 3 3 3 3 3 3 3 3 3 3 3 3 3 3 3 3 3 3 3 5 3 3 3 3 5 5 5 6 5 5 6 3 3 3 3 5 5 5 5 5 5 5 5 1 1 1 1 < < < < $ - - = $ $ $ $ @ @ @ @ 6 6 6 6 $ # # # # # # # # # # # @ @ # @ @ @ @ @ . . . . = $ $ $ @ # # @ @ @ @ @ X O O O       5X5X5X5XwXwXwXwX4X4X4X4X4X4X4X4X4X4X4X4X4X4X4X4X4X4X4X4X4X4X4X4XwXwXwXwX4X4X4X4XwXwXwXwXwXwXwXwXwXwXwXwXwXwXwXwXwXwXwXwXwXwXwX",
"wXwXwXwXwXwXwXwXwXwXwXwXwXwXwXwXwXwXwXwXwXwXwXwXwXwX3X3X3X3X2X2X2X2X2X2X2X2X4X4X4X3X5X5X5X#X#X#X#X$X$X$X$X@X@X@X@X[.[.[.[.%X%X%X%X[.[.[.[.].].].].E E E E *X*X*X*X;X;X;X;X1X1X1X1X|.|.|.|.|.|.|.|.V V V V V V V V p.p.p.p.*.*.*.*.{ { { { ' ' ' ' { { { { } } } { { { { * * * * Z.Z.Z.Z.g g g g f f f f 8 8 f f < < < < O O O O         t 4 t 4 z.z.z.z.S S S S D D D D yXyXyXyX6 6 6 6 5 5 5 5 5 5 5 5 3 3 3 3 3 3 3 3 3 3 3 3 3 3 3 3 3 3 3 5 3 3 3 3 5 5 5 6 5 5 5 3 3 3 3 5 5 5 5 5 5 5 6 1 1 1 1 < < < < = - - - $ $ $ $ @ @ @ @ 6 6 6 6 $ # # # # # # # # # # # @ @ @ @ @ @ @ @ . . . . = $ $ $ # # # @ @ @ @ @ X O O O       5X5X5X5XwXwXwXwX4X4X4X4X4X4X4X4X4X4X4X4X4X4X4X4X4X4X4X4X4X4X4X4XwXwXwXwX4X4X4X4XwXwXwXwXwXwXwXwXwXwXwXwXwXwXwXwXwXwXwXwXwXwXwX",
"wXwXwXwXwXwXwXwXwXwXwXwXwXwXwXwXwXwXwXwXwXwXwXwXwXwX3X3X3X3X2X2X2X2X2X2X3X3X4X4X4X5X5X5X5X#X#X#X#X$X$X%X$X@X@X@X@X[.[.[.[.%X%X%X%X[.[.[.[.].].].].'.'.'.E *X*X*X*X;X;X;X;X1X1X1X1X|.|.|.|.|.|.|.|.V V V V V V V V p.p.p.p.*.*.*.*.{ { { { ' ' ' ' { { { { } } } { { ' ' * * * * Z.Z.Z.Z.d g g g f f f f t t t t < < < < + + O O         4 4 4 4 z.z.z.z.D D D D D D D D yXyXyXyX7 7 6 6 3 3 5 5 3 3 3 5 3 3 3 3 3 3 3 3 3 3 3 3 3 3 3 3 3 3 3 5 5 5 5 5 5 5 5 6 5 5 6 3 3 3 3 5 5 5 5 5 5 5 5 1 1 1 1 < < < < $ $ $ $ $ $ $ $ @ @ @ @ 6 6 6 6 # $ $ $ # # # # # # # # @ @ @ @ @ @ @ @ . . . . = $ $ $ @ @ @ # @ @ @ @ X X X O       5X5X5X5XwXwXwXwX4X4X4X4X4X4X4X4X4X4X4X4X4X4X4X4X4X4X4X4X4X4X4X4XwXwXwXwX4X4X4X4XwXwXwXwXwXwXwXwXwXwXwXwXwXwXwXwXwXwXwXwXwXwXwX",
"wXwXwXwXwXwXwXwXwXwXwXwXwXwX5X5X5X5X2X2X2X2X2X2X2X2X4X4X4X4X7X7X7X7X#X#X#X#X=X$X$XXXXXXX+X4X4X4X4X7X7X7X7X|.|.|.|.@X@X@X@X;X;X;X;X%X$X$X%X+X+X+X+XXXXXXXXX7X-X-X7X-X-X-X-X1X1X1X1X+X+X+X+X|.|.|.}.XXXXXXXX[.[.[.[.i.i.i.i.@.@.@.@.) ) ) ) O.O.O.O.` ' ' ' ) ) ) #.#.#.#.Z.Z.Z.Z.g.g.g.g.P P P P 7 7 7 7 f f f f . . . .         - - - - # # # # K K K K S S S S 6 6 6 6 G G G G 7 7 6 6 6 6 6 6 5 5 5 5 6 6 6 6 5 3 5 5 6 6 6 6 3 3 3 3 3 3 3 3 3 3 3 3 3 3 3 3 3 3 3 3 3 3 3 5 5 5 5 6 6 6 6 5 5 5 5 3 3 3 3 3 3 3 3 5 5 5 5 @ @ @ @ = = = = $ $ $ $ $ $ $ $ $ $ $ $ , , , , @ @ @ @ . . . . # # # # @ @ @ @ @ @ @ @ X X X X       wXwXwXwXwXwXwXwX4X4X4X4XwXwXwXwXwXwXwXwXwXwXwXwXwX4XwXwXwXwXwXwX5X5X5X5X4X4X4X4XwXwXwXwXwXwXwXwXwXwXwXwXwXwXwXwXwXwXwXwXwXwXwX",
"wXwXwXwXwXwXwXwXwXwXwXwXwXwX5X5X5X5X2X2X2X2X2X2X2X2X4X4X4X4X7X7X7X7X#X#X#X#X$X$X$X+XXXXX+X4X4X4X5X;X7X7X7X|.|.|.|.@X@X@X@X;X;X;X;X%X%X%X%X+X+X+X+XXXXXXXXX7X7X7X7X-X-X-X-X1X1X1X1X+X+X+X+X|.|.|.}.XXXXXXXX[.[.[.[.i.i.i.i.@.@.@.@.) ) ) ) O.O.O.O.` ` ` ' ) ) ) #.#.#.#.Z.Z.Z.Z.g.g.g.g.P P P P 7 7 7 7 S f f f . . . .         - - - - # # # # K K K K S S S S 6 6 6 6 G G G G 7 6 6 6 6 6 6 6 5 5 6 6 6 6 6 6 5 5 5 5 6 6 6 6 3 3 3 3 3 3 3 3 3 3 3 3 3 3 3 3 3 3 3 3 3 3 3 5 5 5 5 6 6 6 6 5 5 5 5 3 3 3 3 3 3 3 3 5 5 5 5 @ @ @ @ = = = = $ $ $ $ $ $ $ $ $ $ $ $ , , , , @ @ @ @ . . . . # # # # @ @ @ @ @ @ @ @ X X X X       wXwXwXwXwXwXwXwX4X4X4X4XwXwXwXwXwXwXwXwXwXwXwXwXwXwXwXwXwXwX4X4X5X5X5X5X4X4X4X4XwXwXwXwXwXwXwXwXwXwXwXwXwXwXwXwXwXwXwXwXwXwXwX",
"wXwXwXwXwXwXwXwXwXwXwXwXwXwX5X5X5X5X2X2X2X2X2X2X2X2X4X4X4X4X7X7X7X7X#X#X#X#X$X$X=X+XXXXXXX5X4X4X5X;X7X7X7X|.|.|.|.@X@X@X@X;X;X;X;X%X%X%X%X+X+X+X+XXXXXXXXX7X7X7X7X-X-X-X-X1X1X1X1X+X+X+X+X|.|.|.}.XXXXXXXX[.[.[.[.i.i.i.i.@.@.@.@.) ) ) ) O.O.O.O.` ` ` ' ) ) ) #.#.#.#.Z.Z.Z.Z.g.g.g.g.P P P P 7 7 7 7 S f f f . . . .         - - - - # # # # K K K K S S S S 6 6 6 6 G G G G 7 7 6 6 6 6 6 6 5 5 6 6 6 6 6 6 5 5 5 5 6 6 6 6 3 3 3 3 3 3 3 3 3 3 3 3 3 3 1 1 3 3 3 3 3 3 3 5 5 5 5 6 6 6 6 5 5 5 5 3 3 3 3 3 3 3 3 5 5 5 5 @ @ @ @ = = = = $ $ $ $ $ $ $ $ $ $ $ $ , , , , @ @ @ @ . . . . # # # # @ @ @ @ @ @ @ @ X X X X       wXwXwXwXwXwXwXwX4X4X4X4XwXwXwXwXwXwXwXwXwXwXwXwXwXwXwXwXwXwXwX4X5X5X5X5X4X4X4X4XwXwXwXwXwXwXwXwXwXwXwXwXwXwXwXwXwXwXwXwXwXwXwX",
"wXwXwXwXwXwXwXwXwXwXwXwXwXwX5X5X5X5X2X2X2X2X2X2X2X2X4X4X4X4X7X7X7X7X#X#X#X#X$X$X=X+X+X+X+X4X4X4X5X;X7X7X7X}.|.|.|.@X@X@X@X;X;X;X;X$X%X%X$X+X+X+X+XXXXXXXXX7X7X7X7X-X-X-X-X1X1X1X1X+X+X+X+X|.|.|.|. X X X X[.[.[.[.i.i.i.i.@.@.@.@.) ) ) ) [ [ [ [ ` ` ` ` ) ) ) #.#.@.#.Z.Z.Z.Z.g.g.g.g.P P P P 7 7 7 7 S S S S . . . .         - - - - # # # # K K K K S S S S 6 6 6 6 G G G G 6 6 6 6 6 6 6 6 5 6 6 6 6 6 6 6 5 5 6 6 6 6 6 6 3 3 3 3 3 3 3 3 3 3 3 3 3 3 1 1 3 3 3 3 3 3 3 5 5 5 5 6 6 6 6 5 5 5 5 3 3 3 3 3 3 3 3 5 5 5 5 @ @ @ @ = = = = $ $ $ $ $ $ $ $ $ = = * , , , , @ @ @ @ . . . . # # # # @ @ @ @ @ @ @ @ X X X X       wXwXwXwXwXwXwXwX4X4X4X4XwXwXwXwXwXwXwXwXwXwXwXwXwXwXwXwXwXwXwXwX5X5X5X5X4X4X4X4XwXwXwXwXwXwXwXwXwXwXwXwXwXwXwXwXwXwXwXwXwXwXwX",
"wXwXwXwXwXwXwXwXwXwXwXwXwXwX4X4X4X4XwXwXwXwX1X1X1X1X>X>X>X>X5X5X5X5X;X;X;X;X1X1X1X2X2X2X2X;X;X;X;X0X2X0X2X@X@X@X+X7X7X7X7X=X=X=X*X X X X X+X+X+X+XwXwXwXwXwXwXwXwX$X$X$X$X3X3X3X3X-X-X-X-X+X+X+X+X8X8X8X8X'.'.'.'.B B B B a.a.a.a.` ` ` ` ) ) ) ) -.-.-.-.*.*.*.@.@.@.@.Z.Z.l.l.g.g.g.g.x x x x - - - - 7 7 6 6 . . .   @ @ @ @ - - - - h h h h f f f f 1 1 3 3 . . . .         D D D D D D D D S S S S 7 7 7 7 6 6 6 6 6 6 6 6 5 5 5 5 3 3 3 5 5 5 5 6 6 6 6 5 5 5 5 6 6 6 6 3 3 3 3 5 5 5 5 3 3 3 3 5 5 5 5 3 3 3 3 3 3 3 3 5 3 3 3 3 5 5 5 3 3 3 3 5 5 5 5 3 3 3 5 6 3 3 5 - - - - , , , , , , , , , , , , < < < <               wXwXwXwX4X4X4X4XwXwXwXwX4X4X4X4XwXwXwXwXwXwXwXwXwXwXwXwXwXwXwXwXwXwXwXwXwXwXwXwXwXwXwXwXwXwXwXwXwXwXwXwXwXwXwXwXwXwXwXwXwXwXwX",
"wXwXwXwXwXwXwXwXwXwXwXwXwXwX4X4X4X4XwXwXwXwX1X1X1X1X>X>X>X>X5X5X5X5X;X;X;X;X1X1X1X2X2X2X0X;X;X;X;X0X0X0X2X@X@X@X+X7X7X7X7X=X=X=X*X X X X X+X+X+X+XwXwXwXwXwXwXwXwX$X$X$X$X3X3X3X3X-X-X-X-X+X+X+X+X8X8X8X8X'.'.'.'.B B B B a.a.a.a.` ` ` ` ) ) ) ) -.-.-.-.*.*.*.@.@.@.@.Z.Z.l.l.g.g.g.g.x x x x - - - - 6 6 6 6 . . . . @ @ @ @ - - - - h h h h f f f f 1 1 1 1 . . . .         D D D D D D D D 8 S 8 8 7 7 7 7 6 6 6 6 6 6 6 6 5 5 5 5 3 3 3 5 5 5 5 6 6 6 6 6 5 5 6 6 6 6 6 3 3 3 3 5 5 5 3 1 3 3 3 5 5 5 5 3 3 3 3 3 3 3 5 5 3 3 3 3 5 5 5 3 3 3 3 5 5 5 5 3 3 5 3 6 3 1 3 - - - - , , , , , , , , , , , , < < < <               wXwXwXwX4X4X4X4XwXwXwXwX4X4X4X4XwXwXwXwXwXwXwXwXwXwXwXwXwXwXwXwXwXwXwXwXwXwXwXwXwXwXwXwXwXwXwXwXwXwXwXwXwXwXwXwXwXwXwXwXwXwXwX",
"wXwXwXwXwXwXwXwXwXwXwXwXwXwX4X4X4X4XwXwXwXwX1X1X1X1X>X>X>X>X5X5X5X3X-X;X;X;X1X1X1X2X2X2X2X;X;X;X;X0X0X0X2X@X@X@X@X7X7X7X7X=X=X=X=X X X X X+X+X+X+XwXwXwXwXwXwXwXwX$X$X$X$X3X3X3X3X-X-X-X-X+X+X+X+X8X8X8X8X'.'.'.'.B B B B a.a.a.a.` ` ` ` ) ) ) ) -.-.-.-.*.*.*.@.@.@.@.Z.Z.Z.l.g.g.g.g.x x h h * - * * 6 6 6 6 . . . . @ @ @ @ - - - - h h h h f f f f 1 1 1 1 . . . .         D D D D D D D D 8 8 8 8 6 7 7 7 6 6 6 6 6 6 6 6 5 5 5 5 3 3 3 5 5 5 5 6 6 6 6 6 5 5 5 6 6 6 6 3 3 3 3 5 5 5 3 1 3 3 3 5 5 5 5 3 3 3 3 3 3 3 5 5 3 3 3 3 5 5 5 3 3 3 3 5 5 5 5 3 3 3 3 6 3 3 1 - - - - , , , , , , , , , , , , < < < <               wXwXwXwX4X4X4X4XwXwXwXwX4X4X4X4XwXwXwXwXwXwXwXwXwXwXwXwXwXwXwXwXwXwXwXwXwXwXwXwXwXwXwXwXwXwXwXwXwXwXwXwXwXwXwXwXwXwXwXwXwXwXwX",
"wXwXwXwXwXwXwXwXwXwXwXwXwXwX4X4X4X4XwXwXwXwX1X1X1X1X>X>X>X>X5X5X5X5X;X;X;X;X1X1X1X2X2X0X0X;X7X7X;X2X2X2X2X@X@X@X@X7X7X7X7X*X*X*X=X X X X X+X+X+X+XwXwXwXwXwXwXwXwX$X$X$X$X3X3X3X2X-X-X-X-X+X+X+X+X8X9X9X8X'.'.'.'.B B B B a.a.a.a.` ` ` ` ) ) ) ) -.-.-.-.*.*.*.@.@.@.@.Z.Z.Z.Z.g.g.g.g.h h h h * * * * 6 6 6 7 . . . . @ @ @ @ - - - - h h h h f f f f 3 3 1 1 . . . .         D D D D D D D D S 8 S S 6 6 6 6 6 6 6 6 6 5 6 6 5 5 5 5 3 3 3 5 3 3 3 6 6 6 6 6 5 6 6 6 6 6 6 3 3 3 3 5 5 5 5 1 3 3 3 5 6 6 5 3 3 3 3 3 3 3 3 3 3 3 3 5 5 5 5 3 3 3 3 3 3 3 5 3 3 3 3 3 3 3 3 - - , , , , , , , , , , , , , , < < < <               wXwXwXwX4X4X4X4XwXwXwXwX4X4X4X4XwXwXwXwXwXwXwXwXwXwXwXwXwXwXwXwXwXwXwXwXwXwXwXwXwXwXwXwXwXwXwXwXwXwXwXwXwXwXwXwXwXwXwXwXwXwXwX",
"wXwXwXwXwXwXwXwXwXwXwXwXwXwXwXwXwXwX3X3X3X3X2X2X1X1X<X<X<X<X4X4X4X4X8X8X8X8X5X5X5X2X2X0X0X#X#X#X#X#X#X#X#XXXXXXXXX;X;X;X;X[.[.[.[.{.{.{.{.7X7X7X7X-X-X-X-XwXwXwXwXwXwXwXwX<X<X<X<X>X>X>X>X<X<X<X<X+X+X+X+XR R R R OXOXOXOXi.i.i.i.C C C C *.=.=.=.@.@.@.@.` ` ` *.*.*.*.0.0.0.0.0.0.0.0.: : : : . . . . 3 3 3 3         2 2 2 2 D D D D 7 7 7 7 8 8 8 8 X X X X                                                                 1 1 1 1 < < < < < < < = = = = $ $ $ $ # # # # 5 5 5 5 7 7 7 6 5 6 6 6 6 6 6 6 6 6 6 6 7 6 6 6 5 3 3 3 1 1 1 1 5 5 5 5 3 3 3 3 3 3 3 3 3 3 3 3 5 3 5 5 5 5 5 5 3 3 3 3 3 3 3 3 1 1 1 1 3 3 3 3 1 1 1 wXwXwXwXwXwXwXwX4X4X4X4X4X4X4X4X5X5X5X5XwXwXwXwXwXwXwXwXwXwXwXwX4X4X4X4XwXwXwXwXwXwXwXwXwXwXwXwXwXwXwXwXwXwXwXwXwXwXwXwXwXwXwX",
"wXwXwXwXwXwXwXwXwXwXwXwXwXwXwXwXwXwX3X3X3X3X1X1X1X1X<X<X<X<X4X4X4X4X8X8X8X8X5X5X5X2X2X2X0X#X#X#X#X#X#X#X#X+XXXXXXX;X;X;X;X[.[.[.[.{.{.{.{.7X7X7X7X-X-X-X-XwXwXwXwXwXwXwXwX<X<X<X<X>X>X>X>X<X<X<X<X+X+X+X+XR R R R OXOXOXOXi.i.i.i.C C C C *.*.*.*.O.@.@.@.` ` ` &.*.*.i 0.0.0.0.0.0.0.0.: : : : . . . . 3 3 3 3         5 5 5 5 D D D D 7 7 7 7 8 8 8 8 X X X X                                                                 1 1 1 1 < < < < < < < = = = = $ $ $ $ # # # # 5 5 5 5 7 7 7 7 6 6 6 6 6 6 6 6 7 6 6 6 7 6 6 6 5 3 3 3 1 1 1 1 5 6 6 6 5 3 3 3 3 3 3 3 3 3 3 3 5 5 5 5 5 5 5 5 3 3 3 3 3 3 3 3 1 1 1 1 3 3 3 3 1 1 1 wXwXwXwXwXwXwXwX4X4X4X4X4X4X4X4X5X5X5X5XwXwXwXwXwXwXwXwXwXwXwXwX4X4X4X4XwXwXwXwXwXwXwXwXwXwXwXwXwXwXwXwXwXwXwXwXwXwXwXwXwXwXwX",
"wXwXwXwXwXwXwXwXwXwXwXwXwXwXwXwXwXwX3X3X3X3X1X1X2X1X<X<X<X<X4X4X4X4X8X8X8X8X5X5X5X2X2X2X0X#X#X#X#X#X#X#X#X+XXXXXXX;X;X;X;X[.[.[.[.{.{.{.{.7X7X7X7X-X-X-X-XwXwXwXwXwXwXwXwX<X<X<X<X>X>X>X>X<X<X<X<X+X+X+X+XR R R R OXOXOXOXi.i.i.i.C C C C *.*.*.*.@.@.@.@.` ` ` &.*.*.*.0.0.0.0.0.0.0.0.: : : : . . . . 3 3 3 3         5 5 5 5 D D D D 7 7 7 7 8 8 8 8 X X X X                                                                 1 1 1 1 < < < < < < < = = = = $ $ $ $ # # # # 5 5 5 5 7 7 7 7 6 6 6 6 6 6 6 6 6 6 6 6 7 6 6 6 5 3 3 3 1 1 1 3 5 6 6 6 5 3 3 3 3 3 3 3 3 3 3 3 5 5 5 5 5 5 5 5 3 3 3 3 3 3 3 3 1 1 1 1 3 3 3 3 1 1 1 wXwXwXwXwXwXwXwX4X4X4X4X4X4X4X4X5X5X5X5XwXwXwXwXwXwXwXwXwXwXwXwX4X4X4X4XwXwXwXwXwXwXwXwXwXwXwXwXwXwXwXwXwXwXwXwXwXwXwXwXwXwXwX",
"wXwXwXwXwXwXwXwXwXwXwXwXwXwXwXwXwXwX3X3X3X3X1X1X2X2X<X<X<X<X4X4X4X4X8X8X8X8X5X5X5X2X2X2X2X#X#X#X#X#X#X#X#XXXXXXXXX;X;X;X;X].].].].{.{.{.{.7X7X7X7X-X-X-X-XwXwXwXwXwXwXwXwX<X<X<X<X>X>X>X>X<X<X<X<X#X+X+X+XR R R A OXOXOXOXi.n i.i.C C C C *.*.*.*.@.@.@.@.` ` ` i i *.*.0.0.0.0.0.0.0.0.: : : : . . . . 3 3 3 3         2 2 2 2 D D D D 7 7 7 7 8 8 8 8 X X X X                                                                 1 1 1 1 < < < < < < < = = = = $ $ $ $ # # # # 5 5 5 5 7 7 7 7 6 6 5 6 6 6 6 6 6 6 6 7 6 6 6 6 5 3 3 5 3 1 1 1 5 5 5 5 5 3 3 3 3 3 3 3 3 3 3 3 5 5 5 5 6 5 5 5 3 3 3 3 3 3 3 3 1 3 1 1 3 3 3 3 1 1 1 wXwXwXwXwXwXwXwX4X4X4X4X4X4X4X4X5X5X5X5XwXwXwXwXwXwXwXwXwXwXwXwX4X4X4X4XwXwXwXwXwXwXwXwXwXwXwXwXwXwXwXwXwXwXwXwXwXwXwXwXwXwXwX",
"wXwXwXwXwXwXwXwXwXwXwXwXwXwXwXwXwXwXwXwXwXwX3X3X3X3X1X1X1X1X<X<X<X<X<X<X<X<X5X5X5X7X7X7X7X2X2X2X2X#X#X#X#X2X2X2X2X-X-X-X-X%X%X%X%X&X&X&X&X0X0X0X0X4X4X4X4XwXwXwXwX4X4X4X4X8X8X8X8X-X-X-X-X4X4X4X4X1X1X1X1X}.}. X}.].].].].T C T T a.a.a.a.n n n n C C C C +.+.+.+.&.&.&.T T T T 0.0.0.0.. . . .         # # # #         D D D D D D D D f f f f 6 6 6 5 . . .                                                                                                                 @ @ @ @ @ @ @ @ X X X X X X X X . . . X 6 6 6 6 6 6 6 6 6 6 6 6 6 6 6 7 6 6 6 6 6 6 6 6 3 3 3 3 3 3 3 3 3 3 3 3 3 3 3 3 3 3 3 3 5 5 5 6 3 3 3 3 5 5 5 wXwXwXwX4X4X4X4XwXwXwXwX4X4X4X4X4X4X4X4X4X4X4X4XwXwXwXwXwXwXwXwXwXwXwXwX4X4X4X4XwXwXwXwXwXwXwXwXwXwXwXwXwXwXwXwXwXwXwXwXwXwXwX",
"wXwXwXwXwXwXwXwXwXwXwXwXwXwXwXwXwXwXwXwXwXwX3X3X3X3X1X1X1X2X<X<X<X<X<X<X<X<X5X5X5X7X7X7X7X2X2X2X2X#X#X#X#X2X2X2X2X-X-X-X-X%X%X%X%X&X&X&X&X9X0X0X0X4X4X4X4XwXwXwXwX4X4X4X4X8X8X8X8X-X-X-X-X5X4X4X4X1X1X1X1X X X X}.].].].].T T T T a.a.a.a.n n n n C C C C +.+.+.&.&.&.&.T T T T 0.0.0.0.. . . .         # # # #         D D D D D D D D f f f f 6 6 6 6     .                                                                                                                 @ @ @ @ @ @ @ @ X X X X X X X X . . . . 6 6 6 6 6 6 6 6 6 6 6 6 6 6 6 6 6 6 6 6 6 6 6 6 3 3 3 3 3 3 3 3 3 3 3 3 3 3 3 3 3 3 3 3 5 5 5 6 3 3 3 3 5 5 5 wXwXwXwX4X4X4X4XwXwXwXwX4X4X4X4X4X4X4X4X4X4X4X4XwXwXwXwXwXwXwXwXwXwXwXwX4X4X4X4XwXwXwXwXwXwXwXwXwXwXwXwXwXwXwXwXwXwXwXwXwXwXwX",
"wXwXwXwXwXwXwXwXwXwXwXwXwXwXwXwXwXwXwXwXwXwX3X3X3X3X1X1X1X1X<X<X<X<X<X<X<X<X5X5X5X7X7X7X7X2X2X2X2X#X#X#X#X2X2X2X2X-X-X-X-X%X%X%X%X&X&X&X&X9X0X0X0X4X4X4X4XwXwXwXwX4X4X4X4X8X8X8X8X-X-X-X-X5X4X4X4X1X1X1X1X X X X}.].].].].T T T T a.a.a.a.n n n n C C C C +.+.+.&.&.&.&.T T T T 0.0.0.0.. . . .         # # # #         D D D D D D D D f f f f 6 6 6 6   .   .                                                                                                               @ @ @ @ @ @ @ @ X X X X X X X X . . . . 6 6 6 6 6 6 6 6 6 6 6 6 7 6 6 6 6 6 6 6 6 6 6 6 3 3 3 3 3 3 3 3 3 3 3 3 3 3 3 3 3 3 3 3 5 5 5 6 3 3 3 3 5 5 5 wXwXwXwX4X4X4X4XwXwXwXwX4X4X4X4X4X4X4X4X4X4X4X4XwXwXwXwXwXwXwXwXwXwXwXwX4X4X4X4XwXwXwXwXwXwXwXwXwXwXwXwXwXwXwXwXwXwXwXwXwXwXwX",
"wXwXwXwXwXwXwXwXwXwXwXwXwXwXwXwXwXwXwXwXwXwX3X3X3X3X1X1X1X1X<X<X<X<X<X<X<X<X5X5X5X7X7X7X7X2X2X2X2X#X#X#X#X2X2X2X2X-X-X-X-X%X%X%X%X&X&X&X&X9X0X0X0X4X4X4X4XwXwXwXwX4X4X4X4X8X8X8X8X-X-X-X-X4X4X4X4X1X1X1X1X}.}.}.}.].].].].T T T T a.a.a.a.n n n n C C C C +.+.+.*.+.+.*.T T T T 0.0.0.0.. . . .         # # # #         D D D D D D D D f f f f 6 6 6 6       .                                                                                                               @ @ @ @ @ @ @ @ X X X X X X X X . . . . 7 7 7 7 6 6 6 6 6 6 6 6 6 6 6 6 7 7 6 6 6 6 6 6 3 3 3 5 5 5 5 5 5 3 3 3 3 3 3 3 3 3 3 3 5 5 5 5 3 3 3 3 5 5 5 wXwXwXwX4X4X4X4XwXwXwXwX4X4X4X4X4X4X4X4X4X4X4X4XwXwXwXwXwXwXwXwXwXwXwXwX4X4X4X4XwXwXwXwXwXwXwXwXwXwXwXwXwXwXwXwXwXwXwXwXwXwXwX",
"wXwXwXwXwXwXwXwXwXwXwXwXwXwXwXwXwXwXwXwXwXwXwXwXwXwXwXwXwXwXwXwXwXwXwXwXwXwXwXwXwXwXwXwXwX>X>X>X>XwXwXwXwXwXwXwXwXwXwXwXwX+X+X+X+X0X0X9X0X*X*X*X*X>X>X>X>XwXwXwXwX1X1X1X1X9X9X9X9X-X-X-X-XwXwXwXwX+X+X+X+X X X X XW W W W ].].].].W W W Q C C C C M M M M B B B ! ! ! Q V V V V q.q.q.q.                f g g g 2 2 2 2 D D D D D D D D 7 7 7 7 , , , ,                                                                                                                                                               . . . . . . . . . . . .       . . . .           6 6 6 7 7 7 7 7 6 6 6 6 6 6 6 6 8 8 8 8 8 8 8 8 5 5 5 5 7 7 7 4X4X4X4X4X4X4X4XwXwXwXwXwXwXwXwXwXwXwXwX5X5X5X5X3X3X3X3X4X4X4X4X5X5X5X5X5X5X5X5X4X4X4X4XwXwXwXwXwXwXwXwXwXwXwXwXwXwXwXwXwXwXwX",
"wXwXwXwXwXwXwXwXwXwXwXwXwXwXwXwXwXwXwXwXwXwXwXwXwXwXwXwXwXwXwXwXwXwXwXwX4X4XwXwXwXwXwXwXwX>X>X>X>XwXwXwXwXwXwXwXwXwXwXwXwX+X+X+X+X0X0X0X0X*X*X*X*X;X>X>X>XwXwXwXwX1X1X1X1X9X9X9X9X-X-X-X-XwXwXwXwX+X+X+X+X XXXoX XW W W W ].].].].W W W Q C C C C M M M M M B B ! ! Q Q V V V V q.q.q.q.                f f g g 2 2 2 2 D D D D D D D D 7 7 7 7 - , - -                                                                                                                                                               . . . . . . . . . . . .       . . .             6 6 6 6 7 6 6 6 6 6 6 6 6 6 6 6 8 8 8 8 8 8 8 8 5 5 5 5 7 7 7 4X4X4X4X4X4X4X4XwXwXwXwXwXwXwXwXwXwXwXwX5X5X5X5X3X3X3X3X4X4X4X4X5X5X5X5X5X5X5X5X4X4X4X4XwXwXwXwXwXwXwXwXwXwXwXwXwXwXwXwXwXwXwX",
"wXwXwXwXwXwXwXwXwXwXwXwXwXwXwXwXwXwXwXwXwXwXwXwXwXwXwXwXwXwXwXwXwXwXwXwX4X4XwXwXwXwXwXwXwX>X>X>X>XwXwXwXwXwXwXwXwXwXwXwXwX+X+X+X+X0X0X0X0X*X*X*X*X>X>X>X>XwXwXwXwX1X1X1X1X9X9X9X9X-X-X-X-XwXwXwXwX+X+X+X+X XXXXXXXW W W W ].].].].W Q Q Q C C C C M M M M M B B ! ! Q Q V V V V g.q.q.q.                f f g g 2 2 2 2 D D D D D D D D 7 7 7 7 - - - -                                                                                                                                                               . . . . . . . . . . . . .     . .               6 6 6 6 6 6 6 6 6 6 6 6 6 6 6 6 8 8 8 8 8 8 8 8 5 5 5 5 7 7 7 4X4X4X4X4X4X4X4XwXwXwXwXwXwXwXwXwXwXwXwX5X5X5X5X3X3X3X3X4X4X4X4X5X5X5X5X5X5X5X5X4X4X4X4XwXwXwXwXwXwXwXwXwXwXwXwXwXwXwXwXwXwXwX",
"wXwXwXwXwXwXwXwXwXwXwXwXwXwXwXwXwXwXwXwXwXwXwXwXwXwXwXwXwXwXwXwXwXwX3X3X2X3XwXwXwX2X2X2X2XwXwXwXwX<X<X<X<XwXwXwXwX-X-X-X-X4X4X4X5X;X;X;X-X-X-X-X-X;X>X>X7XwXwXwXwXwXwXwXwX<X<X<X<X>X>X>X>X3X3X3X3X4X4X4X4XXXXXXX}.E E E E @X@X@X@XoXoXoXoX! ! ! ! [.[.[.[.Q Q Q V V V V C C C C Z.Z.Z.Z.                2 4 4 : K K K K 6 6 6 6 5 5 5 5 X X X X . . . .                                                                                                                                                                                                                                                               6 6 6 6 8 8 8 ,X,X,X,X4X4X4X4XwXwXwXwX4X4X4X4X4X4X4X4X4X4X4X4X4X4X4X4X4X4X4X4XwXwXwXwXwXwXwXwXwXwXwXwXwXwXwXwXwXwXwXwXwXwXwXwXwXwXwXwXwXwXwX",
"wXwXwXwXwXwXwXwXwXwXwXwXwXwXwXwXwXwXwXwXwXwXwXwXwXwXwXwXwXwXwXwXwXwX3X3X3X3XwXwXwX2X2X2X2XwXwXwXwX<X<X<X<XwXwXwXwX-X-X-X-X4X4X4X5X-X-X;X-X-X-X-X-X-X>X>X7XwXwXwXwXwXwXwXwX<X<X<X<X>X>X>X>X3X3X3X3X4X4X4X4X XXXXX}.E E E E @X@X@X@XoXoXoXoX! ! ! ! [.[.[.[.Q Q Q V V V V C C C C Z.Z.Z.Z.                2 2 : : K K K K 6 6 6 6 5 5 5 5 X X X X . . . .                                                                                                                                                                                                                                                               6 6 6 6 8 8 8 ,X,X,X,X4X4X4X4XwXwXwXwX4X4X4X4X4X4X4X4X4X4X4X4X4X4X4X4X4X4X4X4XwXwXwXwXwXwXwXwXwXwXwXwXwXwXwXwXwXwXwXwXwXwXwXwXwXwXwXwXwXwXwX",
"wXwXwXwXwXwXwXwXwXwXwXwXwXwXwXwXwXwXwXwXwXwXwXwXwXwXwXwXwXwXwXwXwXwX3X3X3X3XwXwXwX2X2X2X2XwXwXwXwX<X<X<X<XwXwXwXwX-X-X-X-X5X4X4X5X-X-X-X-X-X-X-X-X-X-X>X7XwXwXwXwXwXwXwXwX<X<X<X<X>X>X>X>X3X3X3X3X5X4X4X4X X X X XE E E E @X@X@X@XoXoXoXoX! ! ! ! [.[.[.[.Q ! ! V V V V C C C C Z.Z.Z.Z.                2 2 2 2 K K K K 6 6 7 7 5 5 6 6 X X X X . . . .                                                                                                                                                                                                                                                               7 6 6 6 8 8 8 ,X,X,X,X4X4X4X4XwXwXwXwX4X4X4X4X4X4X4X4X4X4X4X4X4X4X4X4X4X4X4X4XwXwXwXwXwXwXwXwXwXwXwXwXwXwXwXwXwXwXwXwXwXwXwXwXwXwXwXwXwXwXwX",
"wXwXwXwXwXwXwXwXwXwXwXwXwXwXwXwXwXwXwXwXwXwXwXwXwXwXwXwXwXwXwXwXwXwX3X3X3X3XwXwXwX2X2X2X2XwXwXwXwX<X<X<X<XwXwXwXwX-X-X-X-X5X5X5X5X-X-X-X-X-X-X-X-X-X-X;X7XwXwXwXwXwXwXwXwX<X<X<X<X>X>X>X>X3X3X3X3X4X4X4X4X X X X XE E E E @X@X@X@XoXoXoXoX! ! ! ! [.[.[.[.Q ! ! V V V V C C C C Z.Z.Z.Z.                2 2 2 2 K K K K 6 6 6 7 3 5 6 6 X X X X . . . .                                                                                                                                                                                                                                                               7 7 6 6 8 8 8 ,X,X,X,X4X4X4X4XwXwXwXwX4X4X4X4X4X4X4X4X4X4X4X4X4X4X4X4X4X4X4X4XwXwXwXwXwXwXwXwXwXwXwXwXwXwXwXwXwXwXwXwXwXwXwXwXwXwXwXwXwXwXwX",
"wXwXwXwXwXwXwXwXwXwXwXwXwXwXwXwXwXwXwXwXwXwXwXwXwXwXwXwXwXwX4X4X4X4XwXwXwXwXwXwXwXwXwXwXwXwXwXwXwXwXwXwXwXwXwXwXwX3X3X3X3X>X>X>X>X<X<X<X<XwXwXwXwX2X1X1X1X2X2X2X2X1X1X1X1XwXwXwXwX<X<X<X<X<X<X<X<X%X$X$X$XXXXXXXXX[.[.[.[.$X$X$X%X|.|.|.|.E E E E oXoXoXoX{.[.[.[.[.{.{.N N N N                 D.D.D.D.3.3.3.3.q q q q w w w w # # # # . . . . @ @ @ @                                                                                                                                                                                                                                                               `.`.`.`.wXwXwXwXwXwXwXwXwXwXwXwXwXwXwXwXwXwXwXwXwXwXwXwXwXwXwXwXwXwXwXwXwXwXwXwXwXwXwXwXwXwXwXwXwXwXwXwXwXwXwXwXwXwXwXwXwXwXwXwXwXwXwXwXwXwX",
"wXwXwXwXwXwXwXwXwXwXwXwXwXwXwXwXwXwXwXwXwXwXwXwXwXwXwXwXwXwX4X4X4X4XwXwXwXwXwXwXwXwXwXwXwXwXwXwXwXwXwXwXwXwXwXwXwX3X3X3X3X>X>X>X>X<X<X<X<XwXwXwXwX2X2X1X1X2X2X2X2X1X1X1X1XwXwXwXwX<X<X<X<X<X<X<X<X%X$X$X$XXXXXXXXX[.[.[.[.$X$X$X%X|.|.|.|.E E E E @XoXoXoX{.[.[.[.[.{.{.N N N N                 D.D.D.D.3.3.3.3.q q q q w w w w # # # # . . . . @ @ @ @                                                                                                                                                                                                                                                               `.`.`.`.wXwXwXwXwXwXwXwXwXwXwXwXwXwXwXwXwXwXwXwXwXwXwXwXwXwXwXwXwXwXwXwXwXwXwXwXwXwXwXwXwXwXwXwXwXwXwXwXwXwXwXwXwXwXwXwXwXwXwXwXwXwXwXwXwXwX",
"wXwXwXwXwXwXwXwXwXwXwXwXwXwXwXwXwXwXwXwXwXwXwXwXwXwXwXwXwXwX4X4X4X4XwXwXwXwXwXwXwXwXwXwXwXwXwXwXwXwXwXwXwXwXwXwXwX3X3X3X3X>X>X>X>X<X<X<X<XwXwXwXwX2X1X1X1X2X2X2X2X1X1X1X1XwXwXwXwX>X<X<X<X<X<X<X<X%X%X$X%XXXXXXX X[.[.[.[.$X$X$X%X|.|.|.|.E E E E @X@X@XoX{.{.[.[.[.[.[.N N N N                 D.D.D.D.1.3.3.3.q q q q w w w w # # # # . . . . + @ @ @                                                                                                                                                                                                                                                               `.`.`.`.wXwXwXwXwXwXwXwXwXwXwXwXwXwXwXwXwXwXwXwXwXwXwXwXwXwXwXwXwXwXwXwXwXwXwXwXwXwXwXwXwXwXwXwXwXwXwXwXwXwXwXwXwXwXwXwXwXwXwXwXwXwXwXwXwXwX",
"wXwXwXwXwXwXwXwXwXwXwXwXwXwXwXwXwXwXwXwXwXwXwXwXwXwXwXwXwXwX4X4X4X4XwXwXwXwXwXwXwXwXwXwXwXwXwXwXwXwXwXwXwXwXwXwXwX3X3X3X3X>X>X>X>X<X<X<X<XwXwXwXwX2X1X1X1X2X2X2X2X1X1X1X1XwXwXwXwX<X<X<X<X<X<X<X<X%X$X$X%XXXXXXX X[.[.[.[.$X$X$X%X|.|.|.|.E E E E @X@X@XoX{.[.[.[.[.[.[.N N N N                 D.D.D.D.1.3.3.3.q q q q w w w w # # # # . . . . + @ @ @                                                                                                                                                                                                                                                               `.`.`.`.wXwXwXwXwXwXwXwXwXwXwXwXwXwXwXwXwXwXwXwXwXwXwXwXwXwXwXwXwXwXwXwXwXwXwXwXwXwXwXwXwXwXwXwXwXwXwXwXwXwXwXwXwXwXwXwXwXwXwXwXwXwXwXwXwXwX",
"wXwXwXwXwXwXwXwXwXwXwXwXwXwXwXwXwXwXwXwXwXwXwXwXwXwXwXwXwXwXwXwXwXwXwXwXwXwXwXwXwXwXwXwXwXwXwXwXwX4X4X4X4XwXwXwXwXwXwXwXwXwXwXwX4XwXwXwXwXwXwXwXwX2X2X2X2X2X2X2X2X3X3X3X3X2X2X2X2XwXwXwXwX4X4X4X4X<X<X<X>X*X*X*X*X3X3X3X3X9X9X9X9X|.|.|.[.E E E E *X*X*X=X=X=X=X*X*X*X*X=X=X=X=X[.[.[.[.y.y.y.y.3.3.3.3. . . . .q q q q         5 5 5 5 I I I I + + @ @                                                                                                                                                                                                                                                               wXwXwXwXwXwXwXwXwXwXwXwXwXwXwXwXwXwXwXwXwXwXwXwXwXwXwXwXwXwXwXwXwXwXwXwXwXwXwXwXwXwXwXwXwXwXwXwXwXwXwXwXwXwXwXwXwXwXwXwXwXwXwXwXwXwXwXwXwXwX",
"wXwXwXwXwXwXwXwXwXwXwXwXwXwXwXwXwXwXwXwXwXwXwXwXwXwXwXwXwXwXwXwXwXwXwXwXwXwXwXwXwXwXwXwXwXwXwXwXwX4X4X4X4XwXwXwXwXwXwXwXwXwX4X4X4XwXwXwXwXwXwXwXwX2X2X2X2X2X2X2X2X3X3X3X3X2X2X2X2XwXwXwXwX4X4X4X4X<X<X<X>X*X*X*X*X3X3X3X3X9X9X9X9X|.|.|.[.E E E E *X*X*X=X=X=X=X=X*X*X*X=X=X=X=X[.{.[.[.y.y.y.y.3.3.3.3. . . . .q q q q         5 5 5 5 I I I I + + @ @                                                                                                                                                                                                                                                               wXwXwXwXwXwXwXwXwXwXwXwXwXwXwXwXwXwXwXwXwXwXwXwXwXwXwXwXwXwXwXwXwXwXwXwXwXwXwXwXwXwXwXwXwXwXwXwXwXwXwXwXwXwXwXwXwXwXwXwXwXwXwXwXwXwXwXwXwXwX",
"wXwXwXwXwXwXwXwXwXwXwXwXwXwXwXwXwXwXwXwXwXwXwXwXwXwXwXwXwXwXwXwXwXwXwXwXwXwXwXwXwXwXwXwXwXwXwXwXwX4X4X4X4XwXwXwXwXwXwXwXwX4X4X4X4XwXwXwXwXwXwXwXwX2X2X2X2X2X2X2X2X3X3X3X3X2X2X2X2XwXwXwXwX4X4X4X4X>X<X<X<X*X*X*X*X3X3X3X3X9X9X9X9X|.|.|.|.E E E E *X*X=X=X=X=X=X=X=X*X*X=X=X=X=X{.{.{.{.y.y.y.y.3.3.3.3. . . . .q q q q         5 5 5 5 I I I I + + + @                                                                                                                                                                                                                                                               wXwXwXwXwXwXwXwXwXwXwXwXwXwXwXwXwXwXwXwXwXwXwXwXwXwXwXwXwXwXwXwXwXwXwXwXwXwXwXwXwXwXwXwXwXwXwXwXwXwXwXwXwXwXwXwXwXwXwXwXwXwXwXwXwXwXwXwXwXwX",
"wXwXwXwXwXwXwXwXwXwXwXwXwXwXwXwXwXwXwXwXwXwXwXwXwXwXwXwXwXwXwXwXwXwXwXwXwXwXwXwXwXwXwXwXwXwXwXwXwX4X4X4X4XwXwXwXwXwXwXwXwX4X4X4X4XwXwXwXwXwXwXwXwX2X2X2X2X2X2X2X2X3X3X3X3X2X2X2X2XwXwXwXwX4X4X4X4X>X<X<X<X*X*X*X*X3X3X3X3X9X9X9X9X[.|.|.|.E E E E *X*X=X=X=X=X=X=X=X*X*X=X=X=X=X{.{.{.{.y.y.y.y.3.3.3.3. . . . .q q q q         5 5 5 5 I I I I + + @ @                                                                                                                                                                                                                                                               wXwXwXwXwXwXwXwXwXwXwXwXwXwXwXwXwXwXwXwXwXwXwXwXwXwXwXwXwXwXwXwXwXwXwXwXwXwXwXwXwXwXwXwXwXwXwXwXwXwXwXwXwXwXwXwXwXwXwXwXwXwXwXwXwXwXwXwXwXwX",
"wXwXwXwXwXwXwXwXwXwXwXwXwXwXwXwXwXwXwXwXwXwXwXwXwXwXwXwXwXwXwXwXwXwXwXwXwXwXwXwXwXwXwXwXwXwXwXwXwXwXwXwXwXwXwXwXwXwXwXwXwXwXwXwXwXwXwXwXwX4X4X4X4X4X4X4X4XwXwXwXwXwXwXwXwXwXwXwXwX1X1X1X2X2X2X2X2XwXwXwXwX2X2X3X3X=X=X=X*XXXXXXXXX;X;X;X;X X X X X[.[.|.|.7X7X7X[.[.[.[.[.[.[.[.rXrXrXrXt.t.t.t. . . . .q q 9 9 9 9 9 9         7 7 7 7 H H H H . . . .                                                                                                                                                                                                                                                       wXwXwXwXwXwXwXwXwXwXwXwXwXwXwXwXwXwXwXwXwXwXwXwXwXwXwXwXwXwXwXwXwXwXwXwXwXwXwXwXwXwXwXwXwXwXwXwXwXwXwXwXwXwXwXwXwXwXwXwXwXwXwXwXwXwXwXwXwXwXwXwXwXwX",
"wXwXwXwXwXwXwXwXwXwXwXwXwXwXwXwXwXwXwXwXwXwXwXwXwXwXwXwXwXwXwXwXwXwXwXwXwXwXwXwXwXwXwXwXwXwXwXwXwXwXwXwXwXwXwXwXwXwXwXwXwXwXwXwXwXwXwXwXwX4X4X4X4X4X4X4X4XwXwXwXwXwXwXwXwXwXwXwXwX1X1X1X2X2X2X2X2XwXwXwXwX2X2X3X3X=X=X=X*XXXXXXXXX;X;X;X7X X X X X[.|.|.|.7X7X7X[.[.[.[.[.[.[.[.rXrXrXrXt.t.t.t. . . . .q q q q 9 9 9 9         7 7 7 7 H H H H . . . .                                                                                                                                                                                                                                                       wXwXwXwXwXwXwXwXwXwXwXwXwXwXwXwXwXwXwXwXwXwXwXwXwXwXwXwXwXwXwXwXwXwXwXwXwXwXwXwXwXwXwXwXwXwXwXwXwXwXwXwXwXwXwXwXwXwXwXwXwXwXwXwXwXwXwXwXwXwXwXwXwXwX",
"wXwXwXwXwXwXwXwXwXwXwXwXwXwXwXwXwXwXwXwXwXwXwXwXwXwXwXwXwXwXwXwXwXwXwXwXwXwXwXwXwXwXwXwXwXwXwXwXwXwXwXwXwXwXwXwXwXwXwXwXwXwXwXwXwXwXwXwXwX4X4X4X4X4X4X4X4XwXwXwXwXwXwXwXwXwXwXwXwX1X1X1X1X2X2X2X2XwXwXwXwX2X3X3X3X=X=X=X*XXXXXXXXX;X;X;X7X X X X X|.|.|.|.7X7X7X[.[.[.[.[.[.[.[.rXrXrXrXt.t.t.t. . . . .q q q q 9 9 9 9         7 7 7 7 H H H H . . . .                                                                                                                                                                                                                                                       wXwXwXwXwXwXwXwXwXwXwXwXwXwXwXwXwXwXwXwXwXwXwXwXwXwXwXwXwXwXwXwXwXwXwXwXwXwXwXwXwXwXwXwXwXwXwXwXwXwXwXwXwXwXwXwXwXwXwXwXwXwXwXwXwXwXwXwXwXwXwXwXwXwX",
"wXwXwXwXwXwXwXwXwXwXwXwXwXwXwXwXwXwXwXwXwXwXwXwXwXwXwXwXwXwXwXwXwXwXwXwXwXwXwXwXwXwXwXwXwXwXwXwXwXwXwXwXwXwXwXwXwXwXwXwXwXwXwXwXwXwXwXwXwX4X4X4X4X4X4X4X4XwXwXwXwXwXwXwXwXwXwXwXwX2X1X1X1X2X2X2X2XwXwXwXwX3X3X3X3X=X=X=X=XXXXXXXoX;X;X;X7X X X X X|.|.|.|.7X7X7X[.[.[.[.[.[.[.[.rXrXrXrXt.t.t.t. . . . .q q q q 9 9 9 9         4 7 7 7 H H H H . . . .                                                                                                                                                                                                                                                       wXwXwXwXwXwXwXwXwXwXwXwXwXwXwXwXwXwXwXwXwXwXwXwXwXwXwXwXwXwXwXwXwXwXwXwXwXwXwXwXwXwXwXwXwXwXwXwXwXwXwXwXwXwXwXwXwXwXwXwXwXwXwXwXwXwXwXwXwXwXwXwXwXwX",
"wXwXwXwXwXwXwXwXwXwXwXwXwXwXwXwXwXwXwXwXwXwXwXwXwXwXwXwXwXwXwXwXwXwXwXwXwXwXwXwXwXwXwXwXwXwXwXwXwXwXwXwXwXwXwXwXwXwXwXwXwXwXwXwXwXwXwXwXwXwXwXwXwXwXwXwXwXwXwXwXwXwXwXwXwX5X5X5X4X2X2X2X2X<X<X<X<X2X2X2X2X*X*X*X*X*X*X*X*X3X2X2X2X;X;X;X;X$X$X$X%X$X$X=X=X0X0X0XoXoXXXXX3X3X3X3X:X:X:X:XX.X.X.X.' ' ' ' 9 9 9 9 9 9 & &     . . h h h h 5 5 5 4                                                                                                                                                                                                                                               ,X,X,X,XwXwXwXwXwXwXwXwXwXwXwXwXwXwXwXwXwXwXwXwXwXwXwXwXwXwXwXwXwXwXwXwXwXwXwXwXwXwXwXwXwXwXwXwXwXwXwXwXwXwXwXwXwXwXwXwXwXwXwXwXwXwXwXwXwXwXwXwXwXwXwXwXwXwXwXwXwXwX",
"wXwXwXwXwXwXwXwXwXwXwXwXwXwXwXwXwXwXwXwXwXwXwXwXwXwXwXwXwXwXwXwXwXwXwXwXwXwXwXwXwXwXwXwXwXwXwXwXwXwXwXwXwXwXwXwXwXwXwXwXwXwXwXwXwXwXwXwXwXwXwXwXwXwXwXwXwXwXwXwXwXwXwXwXwX5X5X5X4X2X2X2X2X<X<X<X<X2X2X2X2X*X*X*X*X*X*X*X*X2X2X2X2X;X;X;X;X$X$X$X%X$X$X$X=X0X0X0XoXoXXXXX3X3X3X3X:X:X:X:XX.X.X.X.' ' ' ' 9 9 9 9 9 9 9 9         h h h h 5 5 5 4                                                                                                                                                                                                                                               ,X,X,X,XwXwXwXwXwXwXwXwXwXwXwXwXwXwXwXwXwXwXwXwXwXwXwXwXwXwXwXwXwXwXwXwXwXwXwXwXwXwXwXwXwXwXwXwXwXwXwXwXwXwXwXwXwXwXwXwXwXwXwXwXwXwXwXwXwXwXwXwXwXwXwXwXwXwXwXwXwXwX",
"wXwXwXwXwXwXwXwXwXwXwXwXwXwXwXwXwXwXwXwXwXwXwXwXwXwXwXwXwXwXwXwXwXwXwXwXwXwXwXwXwXwXwXwXwXwXwXwXwXwXwXwXwXwXwXwXwXwXwXwXwXwXwXwXwXwXwXwXwXwXwXwXwXwXwXwXwXwXwXwXwXwXwXwXwX5X5X5X5X2X2X2X2X<X<X<X<X2X2X2X2X*X*X*X*X*X*X*X*X2X2X2X2X;X;X;X;X%X$X$X%X$X$X$X=X0X0X0XoXoXoXXX3X3X3X3X:X:X:X:XX.X.X.X.' ' ' ' 9 9 9 9 9 9 9 9         F F h H 5 5 5 5                                                                                                                                                                                                                                               ,X,X,X,XwXwXwXwXwXwXwXwXwXwXwXwXwXwXwXwXwXwXwXwXwXwXwXwXwXwXwXwXwXwXwXwXwXwXwXwXwXwXwXwXwXwXwXwXwXwXwXwXwXwXwXwXwXwXwXwXwXwXwXwXwXwXwXwXwXwXwXwXwXwXwXwXwXwXwXwXwXwX",
"wXwXwXwXwXwXwXwXwXwXwXwXwXwXwXwXwXwXwXwXwXwXwXwXwXwXwXwXwXwXwXwXwXwXwXwXwXwXwXwXwXwXwXwXwXwXwXwXwXwXwXwXwXwXwXwXwXwXwXwXwXwXwXwXwXwXwXwXwXwXwXwXwXwXwXwXwXwXwXwXwXwXwXwXwX5X5X5X5X2X2X2X2X<X<X<X<X2X2X2X2X*X*X*X*X*X*X*X*X2X2X2X2X;X;X;X;X%X$X$X%X$X$X$X$X0X0X0XoXoXXXXX3X3X3X3X:X:X:X:X .X.X.X.' ' ' ' 9 9 9 9 9 9 9 9         F H H H 5 5 5 5                                                                                                                                                                                                                                               ,X,X,X,XwXwXwXwXwXwXwXwXwXwXwXwXwXwXwXwXwXwXwXwXwXwXwXwXwXwXwXwXwXwXwXwXwXwXwXwXwXwXwXwXwXwXwXwXwXwXwXwXwXwXwXwXwXwXwXwXwXwXwXwXwXwXwXwXwXwXwXwXwXwXwXwXwXwXwXwXwXwX",
"wXwXwXwXwXwXwXwXwXwXwXwXwXwXwXwXwXwXwXwXwXwXwXwXwXwXwXwXwXwXwXwXwXwXwXwXwXwXwXwXwXwXwXwXwXwXwXwXwXwXwXwXwXwXwXwXwXwXwXwXwXwXwXwXwXwXwXwXwXwXwXwXwXwXwXwXwXwXwXwXwXwXwXwXwXwXwXwXwXwXwXwXwX1X1X1X1XwXwXwXwX4X4X4X4X5X5X5X5X+X+X+X+X$X$X$X$X9X0X0X0X|.|.|.|.7X7X7XXXXXXXXX#X#X#X#X$X$X$X$X1.1.1.1. . . . .r r r r 9 & & & & & & & K K K K < < < <                                                                                                                                                                                                                                       4X4X4X4XwXwXwXwXwXwXwXwXwXwXwXwXwXwXwXwXwXwXwXwXwXwXwXwXwXwXwXwXwXwXwXwXwXwXwXwXwXwXwXwXwXwXwXwXwXwXwXwXwXwXwXwXwXwXwXwXwXwXwXwXwXwXwXwXwXwXwXwXwXwXwXwXwXwXwXwXwXwXwXwXwXwX",
"wXwXwXwXwXwXwXwXwXwXwXwXwXwXwXwXwXwXwXwXwXwXwXwXwXwXwXwXwXwXwXwXwXwXwXwXwXwXwXwXwXwXwXwXwXwXwXwXwXwXwXwXwXwXwXwXwXwXwXwXwXwXwXwXwXwXwXwXwXwXwXwXwXwXwXwXwXwXwXwXwXwXwXwXwXwXwXwXwXwXwXwXwX1X1X1X1XwXwXwXwX4X4X4X4X5X5X5X5X+X+X+X+X$X$X$X$X9X0X0X0X|.|.|.|.7X7X7XXXXXXXXX#X#X#X#X$X$X$X$X1.1.1.1. . . . .r r r r 9 & & & & & & & K K K K < < < <                                                                                                                                                                                                                                       4X4X4X4XwXwXwXwXwXwXwXwXwXwXwXwXwXwXwXwXwXwXwXwXwXwXwXwXwXwXwXwXwXwXwXwXwXwXwXwXwXwXwXwXwXwXwXwXwXwXwXwXwXwXwXwXwXwXwXwXwXwXwXwXwXwXwXwXwXwXwXwXwXwXwXwXwXwXwXwXwXwXwXwXwXwX",
"wXwXwXwXwXwXwXwXwXwXwXwXwXwXwXwXwXwXwXwXwXwXwXwXwXwXwXwXwXwXwXwXwXwXwXwXwXwXwXwXwXwXwXwXwXwXwXwXwXwXwXwXwXwXwXwXwXwXwXwXwXwXwXwXwXwXwXwXwXwXwXwXwXwXwXwXwXwXwXwXwXwXwXwXwXwXwXwXwXwXwXwXwX1X1X1X1XwXwXwXwX5X4X4X4X5X5X5X5X+X+X+X+X$X$X$X$X9X9X0X0X|.|.|.|.7X7X7XXXXXXXXX#X#X#X#X$X$X$X$X1.1.1.1. . . . .r r r r 9 9 & & & & & & K K K K 2 2 < <                                                                                                                                                                                                                                       4X4X4X4XwXwXwXwXwXwXwXwXwXwXwXwXwXwXwXwXwXwXwXwXwXwXwXwXwXwXwXwXwXwXwXwXwXwXwXwXwXwXwXwXwXwXwXwXwXwXwXwXwXwXwXwXwXwXwXwXwXwXwXwXwXwXwXwXwXwXwXwXwXwXwXwXwXwXwXwXwXwXwXwXwXwX",
"wXwXwXwXwXwXwXwXwXwXwXwXwXwXwXwXwXwXwXwXwXwXwXwXwXwXwXwXwXwXwXwXwXwXwXwXwXwXwXwXwXwXwXwXwXwXwXwXwXwXwXwXwXwXwXwXwXwXwXwXwXwXwXwXwXwXwXwXwXwXwXwXwXwXwXwXwXwXwXwXwXwXwXwXwXwXwXwXwXwXwXwXwX1X1X1X1XwXwXwXwX5X4X4X4X5X5X5X5X+X+X+X+X$X$X$X$X9X9X0X9X|.|.|.|.7X7X7XXXXXXXXX#X#X#X#X$X$X$X$X1.1.1.1. . . . .r r r r 9 9 & & + + & & K K K K 2 < < <                                                                                                                                                                                                                                       4X4X4X4XwXwXwXwXwXwXwXwXwXwXwXwXwXwXwXwXwXwXwXwXwXwXwXwXwXwXwXwXwXwXwXwXwXwXwXwXwXwXwXwXwXwXwXwXwXwXwXwXwXwXwXwXwXwXwXwXwXwXwXwXwXwXwXwXwXwXwXwXwXwXwXwXwXwXwXwXwXwXwXwXwXwX",
"wXwXwXwXwXwXwXwXwXwXwXwXwXwXwXwXwXwXwXwXwXwXwXwXwXwXwXwXwXwXwXwXwXwXwXwXwXwXwXwXwXwXwXwXwXwXwXwXwXwXwXwXwXwXwXwXwXwXwXwXwXwXwXwXwXwXwXwXwXwXwXwXwXwXwXwXwXwXwXwXwXwXwXwXwX4X4X4X4X5X5X5X4XwXwXwXwX<X<X<X<X4X4X4X4X7X7X7X7X4X4X4X4X*X*X*X-X+X+X+X+X8X8X8X8X#X#X#X5X5X5X5X$X$X$X$X1X0X0X0Xx.x.x.x.x.x.x.x.r r r r q q q q r r r u k k k k d d d d ; ; ; ;                         . . . .                                                                                                                                                                                               wXwXwXwXwXwXwXwXwXwXwXwXwXwXwXwXwXwXwXwXwXwXwXwXwXwXwXwXwXwXwXwXwXwXwXwXwXwXwXwXwXwXwXwXwXwXwXwXwXwXwXwXwXwXwXwXwXwXwXwXwXwXwXwXwXwXwXwXwXwXwXwXwXwXwXwXwXwXwXwXwXwXwXwXwXwX",
"wXwXwXwXwXwXwXwXwXwXwXwXwXwXwXwXwXwXwXwXwXwXwXwXwXwXwXwXwXwXwXwXwXwXwXwXwXwXwXwXwXwXwXwXwXwXwXwXwXwXwXwXwXwXwXwXwXwXwXwXwXwXwXwXwXwXwXwXwXwXwXwXwXwXwXwXwXwXwXwXwXwXwXwXwX4X4X4X4X5X5X5X5XwXwXwXwX<X<X<X<X4X4X4X4X7X7X7X7X4X4X4X4X-X-X-X-X+X+X+X+X8X8X8X8X#X#X#X5X5X5X5X$X$X$X$X1X0X0X0Xx.x.x.x.x.x.x.x.r r r r q q q q r r r r k k k k d d d d ; ; ; ;                         . . . .                                                                                                                                                                                               wXwXwXwXwXwXwXwXwXwXwXwXwXwXwXwXwXwXwXwXwXwXwXwXwXwXwXwXwXwXwXwXwXwXwXwXwXwXwXwXwXwXwXwXwXwXwXwXwXwXwXwXwXwXwXwXwXwXwXwXwXwXwXwXwXwXwXwXwXwXwXwXwXwXwXwXwXwXwXwXwXwXwXwXwXwX",
"wXwXwXwXwXwXwXwXwXwXwXwXwXwXwXwXwXwXwXwXwXwXwXwXwXwXwXwXwXwXwXwXwXwXwXwXwXwXwXwXwXwXwXwXwXwXwXwXwXwXwXwXwXwXwXwXwXwXwXwXwXwXwXwXwXwXwXwXwXwXwXwXwXwXwXwXwXwXwXwXwXwXwXwXwX4X4X4X4X5X5X5X5XwXwXwXwX<X<X<X<X4X4X4X4X7X7X7X7X4X4X4X4X-X-X-X-X#X+X+X+X8X8X8X8X#X#X#X5X5X5X5X$X$X$X$X<X<X0X0Xx.x.x.x.x.x.x.x.r r r r q q q q r r r r k k k k d d d d ; ; ; ;                         . . . .                                                                                                                                                                                               wXwXwXwXwXwXwXwXwXwXwXwXwXwXwXwXwXwXwXwXwXwXwXwXwXwXwXwXwXwXwXwXwXwXwXwXwXwXwXwXwXwXwXwXwXwXwXwXwXwXwXwXwXwXwXwXwXwXwXwXwXwXwXwXwXwXwXwXwXwXwXwXwXwXwXwXwXwXwXwXwXwXwXwXwXwX",
"wXwXwXwXwXwXwXwXwXwXwXwXwXwXwXwXwXwXwXwXwXwXwXwXwXwXwXwXwXwXwXwXwXwXwXwXwXwXwXwXwXwXwXwXwXwXwXwXwXwXwXwXwXwXwXwXwXwXwXwXwXwXwXwXwXwXwXwXwXwXwXwXwXwXwXwXwXwXwXwXwXwXwXwXwX4X4X4X4X5X5X5X5XwXwXwXwX<X<X<X<X4X4X4X4X7X7X7X7X4X4X4X4X-X-X-X-X#X+X+X+X8X8X8X8X#X#X#X5X5X5X5X$X$X$X$X<X<X0X0Xx.x.x.x.x.x.x.x.r r r r q q q q r r r r k k k k d d d d ; ; ; ;                         . . . .                                                                                                                                                                                               wXwXwXwXwXwXwXwXwXwXwXwXwXwXwXwXwXwXwXwXwXwXwXwXwXwXwXwXwXwXwXwXwXwXwXwXwXwXwXwXwXwXwXwXwXwXwXwXwXwXwXwXwXwXwXwXwXwXwXwXwXwXwXwXwXwXwXwXwXwXwXwXwXwXwXwXwXwXwXwXwXwXwXwXwXwX",
"wXwXwXwXwXwXwXwXwXwXwXwXwXwXwXwXwXwXwXwXwXwXwXwXwXwXwXwXwXwXwXwXwXwXwXwXwXwXwXwXwXwXwXwXwXwXwXwXwXwXwXwXwXwXwXwXwXwXwXwXwXwXwXwXwXwXwXwXwXwXwXwXwXwXwXwXwXwXwXwXwXwXwXwXwXwXwXwXwX5X5X5X5XwXwXwXwX1X1X1X1X4X4X4X4X4X4X4X4X4X4X4X4X-X-X-X-X4X4X4X4X#X#X#X#X7X7X7X3X3X3X3X5X5X5X5XU.U.U.U.v.v.v.v.G.G.c.c.J.J.J.J.D.D.D.x.x.x.c.c.c.x.x.x.k.k.k.l.<.<.<.<.. . . .         . . . . # # # # . . . .                                                                                                                                                                               b b b b wXwXwXwXwXwXwXwXwXwXwXwXwXwXwXwXwXwXwXwXwXwXwXwXwXwXwXwXwXwXwXwXwXwXwXwXwXwXwXwXwXwXwXwXwXwXwXwXwXwXwXwXwXwXwXwXwXwXwXwXwXwXwXwXwXwXwXwXwXwXwXwXwXwXwXwXwXwXwXwXwXwXwXwXwXwX",
"wXwXwXwXwXwXwXwXwXwXwXwXwXwXwXwXwXwXwXwXwXwXwXwXwXwXwXwXwXwXwXwXwXwXwXwXwXwXwXwXwXwXwXwXwXwXwXwXwXwXwXwXwXwXwXwXwXwXwXwXwXwXwXwXwXwXwXwXwXwXwXwXwXwXwXwXwXwXwXwXwXwXwXwXwXwXwXwXwX5X5X5X5XwXwXwXwX1X1X1X2X4X4X4X4X4X4X4X4X4X4X4X4X-X-X-X-X4X4X4X4X#X#X#X#X7X7X7X3X3X3X3X5X5X5X5XU.U.U.U.v.v.v.v.G.G.c.c.J.J.J.J.D.D.D.D.x.x.c.c.c.c.x.x.k.k.l.l.<.<.<.<.. . . .         . . . . # # # # . . . .                                                                                                                                                                               b b b b wXwXwXwXwXwXwXwXwXwXwXwXwXwXwXwXwXwXwXwXwXwXwXwXwXwXwXwXwXwXwXwXwXwXwXwXwXwXwXwXwXwXwXwXwXwXwXwXwXwXwXwXwXwXwXwXwXwXwXwXwXwXwXwXwXwXwXwXwXwXwXwXwXwXwXwXwXwXwXwXwXwXwXwXwXwX",
"wXwXwXwXwXwXwXwXwXwXwXwXwXwXwXwXwXwXwXwXwXwXwXwXwXwXwXwXwXwXwXwXwXwXwXwXwXwXwXwXwXwXwXwXwXwXwXwXwXwXwXwXwXwXwXwXwXwXwXwXwXwXwXwXwXwXwXwXwXwXwXwXwXwXwXwXwXwXwXwXwXwXwXwXwXwXwXwXwX5X5X5X5XwXwXwXwX1X1X1X1X4X4X4X4X4X4X4X4X4X4X4X4X-X-X-X-X4X4X4X4X#X#X#X#X7X7X7X3X3X3X3X5X5X5X5XU.U.U.U.v.v.v.v.G.G.c.c.J.J.J.J.D.D.x.x.c.c.c.c.c.c.x.x.k.k.k.k.<.<.<.<.. . . .         . . . . # # # # . . . .                                                                                                                                                                               b b b b wXwXwXwXwXwXwXwXwXwXwXwXwXwXwXwXwXwXwXwXwXwXwXwXwXwXwXwXwXwXwXwXwXwXwXwXwXwXwXwXwXwXwXwXwXwXwXwXwXwXwXwXwXwXwXwXwXwXwXwXwXwXwXwXwXwXwXwXwXwXwXwXwXwXwXwXwXwXwXwXwXwXwXwXwXwX",
"wXwXwXwXwXwXwXwXwXwXwXwXwXwXwXwXwXwXwXwXwXwXwXwXwXwXwXwXwXwXwXwXwXwXwXwXwXwXwXwXwXwXwXwXwXwXwXwXwXwXwXwXwXwXwXwXwXwXwXwXwXwXwXwXwXwXwXwXwXwXwXwXwXwXwXwXwXwXwXwXwXwXwXwXwXwXwXwXwX5X5X5X5XwXwXwXwX1X1X1X1X4X4X4X4X4X4X4X4X4X4X4X4X-X-X-X-X4X4X4X4X#X#X#X#X7X7X7X3X3X3X3X5X5X5X5XU.U.U.U.v.v.v.v.G.G.c.c.J.J.J.J.D.D.x.x.c.c.c.c.c.x.x.x.k.k.k.k.<.<.<.<.. . . .         . . . . # # # # . . . .                                                                                                                                                                               b b b b wXwXwXwXwXwXwXwXwXwXwXwXwXwXwXwXwXwXwXwXwXwXwXwXwXwXwXwXwXwXwXwXwXwXwXwXwXwXwXwXwXwXwXwXwXwXwXwXwXwXwXwXwXwXwXwXwXwXwXwXwXwXwXwXwXwXwXwXwXwXwXwXwXwXwXwXwXwXwXwXwXwXwXwXwXwX",
"wXwXwXwXwXwXwXwXwXwXwXwXwXwXwXwXwXwXwXwXwXwXwXwXwXwXwXwXwXwXwXwXwXwXwXwXwXwXwXwXwXwXwXwXwXwXwXwXwXwXwXwXwXwXwXwXwXwXwXwXwXwXwXwXwXwXwXwXwXwXwXwXwXwXwXwXwXwXwXwXwXwXwXwXwXwXwXwXwXwXwXwXwXwXwXwXwXwXwXwXwX<X<X<X<X4X4X4X4X4X4X4X4X-X-X-X-X7X7X7X7X<X<X<X<X4X4X4X;X;X;X;XG.G.G.G.I.I.I.I.x.x.c.c.x.x.D.D.c.c.c.c.c.c.c.c.v.v.v.v.v.v.v.v.l.l.l.k.k.k.k.k.k k k k e e e e # # # # 3 3 3 3 6 6 7 7 1 1 1 1                                                                                                                                                                       ,X,X,X,XwXwXwXwXwXwXwXwXwXwXwXwXwXwXwXwXwXwXwXwXwXwXwXwXwXwXwXwXwXwXwXwXwXwXwXwXwXwXwXwXwXwXwXwXwXwXwXwXwXwXwXwXwXwXwXwXwXwXwXwXwXwXwXwXwXwXwXwXwXwXwXwXwXwXwXwXwXwXwXwXwXwXwXwXwXwX",
"wXwXwXwXwXwXwXwXwXwXwXwXwXwXwXwXwXwXwXwXwXwXwXwXwXwXwXwXwXwXwXwXwXwXwXwXwXwXwXwXwXwXwXwXwXwXwXwXwXwXwXwXwXwXwXwXwXwXwXwXwXwXwXwXwXwXwXwXwXwXwXwXwXwXwXwXwXwXwXwXwXwXwXwXwXwXwXwXwXwXwXwXwXwXwXwXwXwXwXwXwX<X<X<X<X4X4X4X4X4X4X4X4X-X-X-X-X7X7X7X7X<X<X<X<X4X4X4X7X7X;X;XG.G.G.G.I.I.I.I.x.x.c.c.x.x.x.D.c.c.c.c.c.c.c.c.v.v.v.v.v.v.v.v.l.l.l.l.k.k.k.k.k k k k e : e e # # # # 3 3 3 3 6 6 7 7 1 1 1 1                                                                                                                                                                       ,X,X,X,XwXwXwXwXwXwXwXwXwXwXwXwXwXwXwXwXwXwXwXwXwXwXwXwXwXwXwXwXwXwXwXwXwXwXwXwXwXwXwXwXwXwXwXwXwXwXwXwXwXwXwXwXwXwXwXwXwXwXwXwXwXwXwXwXwXwXwXwXwXwXwXwXwXwXwXwXwXwXwXwXwXwXwXwXwXwX",
"wXwXwXwXwXwXwXwXwXwXwXwXwXwXwXwXwXwXwXwXwXwXwXwXwXwXwXwXwXwXwXwXwXwXwXwXwXwXwXwXwXwXwXwXwXwXwXwXwXwXwXwXwXwXwXwXwXwXwXwXwXwXwXwXwXwXwXwXwXwXwXwXwXwXwXwXwXwXwXwXwXwXwXwXwXwXwXwXwXwXwXwXwXwXwXwXwXwXwXwXwX<X<X<X<X4X4X4X4X4X4X4X4X-X-X-X-X7X7X7X7X<X<X<X<X4X4X4X7X7X7X7XG.J.G.G.I.I.I.I.x.x.x.c.x.x.D.D.c.c.c.c.c.c.G.G.v.v.v.v.v.v.v.v.l.l.l.l.k.k.k.k.k k k k e e : : # # # # 3 3 3 3 6 6 6 7 1 1 1 1                                                                                                                                                                       ,X,X,X,XwXwXwXwXwXwXwXwXwXwXwXwXwXwXwXwXwXwXwXwXwXwXwXwXwXwXwXwXwXwXwXwXwXwXwXwXwXwXwXwXwXwXwXwXwXwXwXwXwXwXwXwXwXwXwXwXwXwXwXwXwXwXwXwXwXwXwXwXwXwXwXwXwXwXwXwXwXwXwXwXwXwXwXwXwXwX",
"wXwXwXwXwXwXwXwXwXwXwXwXwXwXwXwXwXwXwXwXwXwXwXwXwXwXwXwXwXwXwXwXwXwXwXwXwXwXwXwXwXwXwXwXwXwXwXwXwXwXwXwXwXwXwXwXwXwXwXwXwXwXwXwXwXwXwXwXwXwXwXwXwXwXwXwXwXwXwXwXwXwXwXwXwXwXwXwXwXwXwXwXwXwXwXwXwXwXwXwXwX<X<X<X<X4X4X4X4X4X4X4X4X-X-X-X-X7X7X7X7X<X<X<X<X4X4X4X7X7X7X7XJ.J.G.G.I.I.I.I.x.x.x.c.x.x.D.D.G.c.c.c.G.G.G.G.v.v.v.v.v.v.v.v.l.l.l.l.l.k.k.k.k k k k : : e : # # # # 3 3 3 3 6 6 6 6 1 1 1 1                                                                                                                                                                       ,X,X,X,XwXwXwXwXwXwXwXwXwXwXwXwXwXwXwXwXwXwXwXwXwXwXwXwXwXwXwXwXwXwXwXwXwXwXwXwXwXwXwXwXwXwXwXwXwXwXwXwXwXwXwXwXwXwXwXwXwXwXwXwXwXwXwXwXwXwXwXwXwXwXwXwXwXwXwXwXwXwXwXwXwXwXwXwXwXwX",
"wXwXwXwXwXwXwXwXwXwXwXwXwXwXwXwXwXwXwXwXwXwXwXwXwXwXwXwXwXwXwXwXwXwXwXwXwXwXwXwXwXwXwXwXwXwXwXwXwXwXwXwXwXwXwXwXwXwXwXwXwXwXwXwXwXwXwXwXwXwXwXwXwXwXwXwXwXwXwXwXwXwXwXwXwXwXwXwXwX4X4X4X4XwXwXwXwX3X3X3X3X1X1X2X2X4X4X4X4X<X<X<X<X4X4X4X4X;X;X;X;X5X5X5X5X4X4X4X5X5X5X5Xc.c.c.c.c.c.c.c.c.c.c.c.c.c.c.x.D.D.D.D.D.x.x.x.c.c.c.c.c.c.c.c.l.l.l.l.l.l.k.k.d.d.d.d.k k k k F F F F 7 7 7 7 8 8 8 8 1 1 1 1 < < < <                                                                                                                                                       . . . . X X X X wXwXwXwXwXwXwXwXwXwXwXwXwXwXwXwXwXwXwXwXwXwXwXwXwXwXwXwXwXwXwXwXwXwXwXwXwXwXwXwXwXwXwXwXwXwXwXwXwXwXwXwXwXwXwXwXwXwXwXwXwXwXwXwXwXwXwXwXwXwXwXwXwXwXwXwXwXwXwXwXwXwXwXwXwXwX",
"wXwXwXwXwXwXwXwXwXwXwXwXwXwXwXwXwXwXwXwXwXwXwXwXwXwXwXwXwXwXwXwXwXwXwXwXwXwXwXwXwXwXwXwXwXwXwXwXwXwXwXwXwXwXwXwXwXwXwXwXwXwXwXwXwXwXwXwXwXwXwXwXwXwXwXwXwXwXwXwXwXwXwXwXwXwXwXwXwX4X4X4X4XwXwXwXwX3X3X3X3X1X1X1X2X4X4X4X4X<X<X<X<X4X4X4X4X;X;X;X;X5X5X5X5X4X5X5X5X5X5X5Xc.c.c.c.c.c.c.c.c.c.c.c.c.c.x.x.D.x.D.D.D.x.x.x.c.c.c.c.c.c.c.c.l.l.l.l.l.l.l.l.d.d.d.d.k k k k F F F F 6 7 7 7 8 8 8 8 1 1 1 1 < < < <                                                                                                                                                       . . . . X X X X wXwXwXwXwXwXwXwXwXwXwXwXwXwXwXwXwXwXwXwXwXwXwXwXwXwXwXwXwXwXwXwXwXwXwXwXwXwXwXwXwXwXwXwXwXwXwXwXwXwXwXwXwXwXwXwXwXwXwXwXwXwXwXwXwXwXwXwXwXwXwXwXwXwXwXwXwXwXwXwXwXwXwXwXwXwX",
"wXwXwXwXwXwXwXwXwXwXwXwXwXwXwXwXwXwXwXwXwXwXwXwXwXwXwXwXwXwXwXwXwXwXwXwXwXwXwXwXwXwXwXwXwXwXwXwXwXwXwXwXwXwXwXwXwXwXwXwXwXwXwXwXwXwXwXwXwXwXwXwXwXwXwXwXwXwXwXwXwXwXwXwXwXwXwXwXwX4X4X4X4XwXwXwXwX3X3X3X3X1X1X1X1X4X4X4X4X<X<X<X<X4X4X4X4X7X;X;X;X5X5X5X5X5X5X5X4X4X4X4Xc.c.c.c.c.c.c.c.c.c.c.c.c.c.x.x.x.x.x.x.x.x.x.x.c.c.c.c.c.c.c.c.l.l.l.l.l.l.l.l.d.d.d.d.k k k k F F F F 6 6 7 7 8 8 8 8 1 1 1 1 < < < <                                                                                                                                                       . . . . X X X X wXwXwXwXwXwXwXwXwXwXwXwXwXwXwXwXwXwXwXwXwXwXwXwXwXwXwXwXwXwXwXwXwXwXwXwXwXwXwXwXwXwXwXwXwXwXwXwXwXwXwXwXwXwXwXwXwXwXwXwXwXwXwXwXwXwXwXwXwXwXwXwXwXwXwXwXwXwXwXwXwXwXwXwXwXwX",
"wXwXwXwXwXwXwXwXwXwXwXwXwXwXwXwXwXwXwXwXwXwXwXwXwXwXwXwXwXwXwXwXwXwXwXwXwXwXwXwXwXwXwXwXwXwXwXwXwXwXwXwXwXwXwXwXwXwXwXwXwXwXwXwXwXwXwXwXwXwXwXwXwXwXwXwXwXwXwXwXwXwXwXwXwXwXwXwXwX4X4X4X4XwXwXwXwX3X3X3X3X1X1X1X1X4X4X4X4X<X<X<X<X4X4X4X4X7X;X;X;X5X5X5X5X5X5X5X4X4X4X4Xc.c.c.c.x.x.c.c.c.c.c.c.c.c.x.x.x.x.x.x.x.x.x.x.c.c.c.c.c.c.c.c.l.l.l.l.l.l.l.l.d.d.d.d.k k k k F F F F 6 6 7 7 8 8 8 8 1 1 1 1 < < < <                                                                                                                                                       . . . . X X X X wXwXwXwXwXwXwXwXwXwXwXwXwXwXwXwXwXwXwXwXwXwXwXwXwXwXwXwXwXwXwXwXwXwXwXwXwXwXwXwXwXwXwXwXwXwXwXwXwXwXwXwXwXwXwXwXwXwXwXwXwXwXwXwXwXwXwXwXwXwXwXwXwXwXwXwXwXwXwXwXwXwXwXwXwXwX",
"wXwXwXwXwXwXwXwXwXwXwXwXwXwXwXwXwXwXwXwXwXwXwXwXwXwXwXwXwXwXwXwXwXwXwXwXwXwXwXwXwXwXwXwXwXwXwXwXwXwXwXwXwXwXwXwXwXwXwXwXwXwXwXwXwXwXwXwXwXwXwXwXwXwXwXwXwXwXwXwXwXwXwXwXwXwXwXwXwXwXwXwXwXwXwXwXwXwXwXwXwXwXwXwXwX<X1X1X1X4X4X4X4X7X7X7X7X1X1X1X1X5X5X5X5X-X-X-X7X7X7X7Xe.e.e.e.r.r.r.r.e.e.e.e.k.k.k.k.k.k.k.k.c.c.c.c.k.k.k.k.k.k.k.k.w.w.w.w.r.r.r.r.6.6.6.d.<.<.<.<.2 2 2 4 G G G G D D D D 8 7 7 7 < < < , , , , , # # # # < , , < , , ,                                                                                                                 . . . . X X X X O X X X wXwXwXwXwXwXwXwXwXwXwXwXwXwXwXwXwXwXwXwXwXwXwXwXwXwXwXwXwXwXwXwXwXwXwXwXwXwXwXwXwXwXwXwXwXwXwXwXwXwXwXwXwXwXwXwXwXwXwXwXwXwXwXwXwXwXwXwXwXwXwXwXwXwXwXwXwXwXwXwXwXwXwXwXwXwX",
"wXwXwXwXwXwXwXwXwXwXwXwXwXwXwXwXwXwXwXwXwXwXwXwXwXwXwXwXwXwXwXwXwXwXwXwXwXwXwXwXwXwXwXwXwXwXwXwXwXwXwXwXwXwXwXwXwXwXwXwXwXwXwXwXwXwXwXwXwXwXwXwXwXwXwXwXwXwXwXwXwXwXwXwXwXwXwXwXwXwXwXwXwXwXwXwXwXwXwXwXwXwXwXwXwX<X1X<X<X4X4X4X4X7X7X7X7X1X1X1X1X5X5X5X5X-X-X-X7X;X7X7Xe.e.e.e.r.r.r.r.e.e.e.e.k.k.k.k.k.k.k.k.c.c.c.c.k.k.k.k.k.k.k.k.k.k.w.w.k.r.r.l.6.6.d.d.<.<.<.<.2 2 2 4 G G G G D D D D 7 7 7 7 < < < < , , , , # # # # , , , , , , ,                                                                                                                 . . . . X X X X O X X X wXwXwXwXwXwXwXwXwXwXwXwXwXwXwXwXwXwXwXwXwXwXwXwXwXwXwXwXwXwXwXwXwXwXwXwXwXwXwXwXwXwXwXwXwXwXwXwXwXwXwXwXwXwXwXwXwXwXwXwXwXwXwXwXwXwXwXwXwXwXwXwXwXwXwXwXwXwXwXwXwXwXwXwXwXwX",
"wXwXwXwXwXwXwXwXwXwXwXwXwXwXwXwXwXwXwXwXwXwXwXwXwXwXwXwXwXwXwXwXwXwXwXwXwXwXwXwXwXwXwXwXwXwXwXwXwXwXwXwXwXwXwXwXwXwXwXwXwXwXwXwXwXwXwXwXwXwXwXwXwXwXwXwXwXwXwXwXwXwXwXwXwXwXwXwXwXwXwXwXwXwXwXwXwXwXwXwXwXwXwXwXwX<X<X<X1X4X4X4X4X7X7X7X7X1X1X1X1X5X5X5X5X-X-X-X;X;X;X;Xe.e.e.e.r.r.r.r.e.e.k.k.k.k.k.k.k.k.k.k.c.c.c.c.k.k.k.k.k.k.k.k.k.k.k.k.k.k.l.l.d.d.d.d.<.<.<.<.2 2 4 4 J J J J D D D D 7 7 7 7 < < < < , , , , # # # # , , , , , , ,                                                                                                                 . . . . X X X X O X X X wXwXwXwXwXwXwXwXwXwXwXwXwXwXwXwXwXwXwXwXwXwXwXwXwXwXwXwXwXwXwXwXwXwXwXwXwXwXwXwXwXwXwXwXwXwXwXwXwXwXwXwXwXwXwXwXwXwXwXwXwXwXwXwXwXwXwXwXwXwXwXwXwXwXwXwXwXwXwXwXwXwXwXwXwXwX",
"wXwXwXwXwXwXwXwXwXwXwXwXwXwXwXwXwXwXwXwXwXwXwXwXwXwXwXwXwXwXwXwXwXwXwXwXwXwXwXwXwXwXwXwXwXwXwXwXwXwXwXwXwXwXwXwXwXwXwXwXwXwXwXwXwXwXwXwXwXwXwXwXwXwXwXwXwXwXwXwXwXwXwXwXwXwXwXwXwXwXwXwXwXwXwXwXwXwXwXwXwXwXwXwXwX<X<X<X1X4X4X4X4X7X7X7X7X1X1X1X1X5X5X5X5X-X-X-X;X;X;X;Xe.e.e.e.r.r.r.r.k.k.k.k.k.k.k.k.k.k.k.k.c.c.c.c.k.k.k.k.k.k.k.k.k.k.k.k.k.k.l.l.d.d.d.d.<.<.<.<.2 2 4 4 J J J J D D D D 7 7 7 7 < < < < , , , , # # # # , , , , , , ,                                                                                                                 . . . . X X X X O X X X wXwXwXwXwXwXwXwXwXwXwXwXwXwXwXwXwXwXwXwXwXwXwXwXwXwXwXwXwXwXwXwXwXwXwXwXwXwXwXwXwXwXwXwXwXwXwXwXwXwXwXwXwXwXwXwXwXwXwXwXwXwXwXwXwXwXwXwXwXwXwXwXwXwXwXwXwXwXwXwXwXwXwXwXwXwX",
"wXwXwXwXwXwXwXwXwXwXwXwXwXwXwXwXwXwXwXwXwXwXwXwXwXwXwXwXwXwXwXwXwXwXwXwXwXwXwXwXwXwXwXwXwXwXwXwXwXwXwXwXwXwXwXwXwXwXwXwXwXwXwXwXwXwXwXwXwXwXwXwXwXwXwXwXwXwXwXwXwXwXwXwXwXwXwXwXwXwXwXwXwXwXwXwXwX5X4X4X4XwXwXwXwXwXwXwXwX1X1X1X1X<X<X<X<X4X4X4X5X4X4X4X4X4X4X4X4X4X5X4X4.4.4.4.6.6.6.6.4.4.4.4.e.e.k.k.e.e.e.e.e.k.k.k.k.k.k.k.7.7.7.7.7.7.7.7.7.7.<.<.<.<.<.<.x x x x # # # # J J J J 8 S 8 8 8 8 8 8 8 8 8 8 , , , , < < < < # # # # < < <   .   . . . . .                                                                                                 @ @ @ @ X X X X . . . . . . . . wXwXwXwXwXwXwXwXwXwXwXwXwXwXwXwXwXwXwXwXwXwXwXwXwXwXwXwXwXwXwXwXwXwXwXwXwXwXwXwXwXwXwXwXwXwXwXwXwXwXwXwXwXwXwXwXwXwXwXwXwXwXwXwXwXwXwXwXwXwXwXwXwXwXwXwXwXwXwXwXwXwX",
"wXwXwXwXwXwXwXwXwXwXwXwXwXwXwXwXwXwXwXwXwXwXwXwXwXwXwXwXwXwXwXwXwXwXwXwXwXwXwXwXwXwXwXwXwXwXwXwXwXwXwXwXwXwXwXwXwXwXwXwXwXwXwXwXwXwXwXwXwXwXwXwXwXwXwXwXwXwXwXwXwXwXwXwXwXwXwXwXwXwXwXwXwXwXwXwXwX4X4X4X4XwXwXwXwXwXwXwXwX1X1X1X1X<X<X<X<X4X4X4X4X4X4X4X4X4X4X4X4X4X4X4X4.4.4.4.6.6.6.6.4.4.4.4.e.k.k.k.e.e.e.e.e.k.k.k.k.k.k.k.7.7.7.7.7.7.7.7.7.7.<.<.<.<.0.0.x x x x # # # # J J J J S S 8 8 8 8 8 8 8 8 8 8 , , , , , < < < # # # # < < <       . . . . .                                                                                                 @ @ @ @ X X X X . . . . . . . . wXwXwXwXwXwXwXwXwXwXwXwXwXwXwXwXwXwXwXwXwXwXwXwXwXwXwXwXwXwXwXwXwXwXwXwXwXwXwXwXwXwXwXwXwXwXwXwXwXwXwXwXwXwXwXwXwXwXwXwXwXwXwXwXwXwXwXwXwXwXwXwXwXwXwXwXwXwXwXwXwXwX",
"wXwXwXwXwXwXwXwXwXwXwXwXwXwXwXwXwXwXwXwXwXwXwXwXwXwXwXwXwXwXwXwXwXwXwXwXwXwXwXwXwXwXwXwXwXwXwXwXwXwXwXwXwXwXwXwXwXwXwXwXwXwXwXwXwXwXwXwXwXwXwXwXwXwXwXwXwXwXwXwXwXwXwXwXwXwXwXwXwXwXwXwXwXwXwXwXwX5X4X4X4XwXwXwXwXwXwXwXwX1X1X1X1X<X<X<X<X4X4X4X4X4X4X4X4X4X4X4X6X6X6X6X4.4.4.4.6.6.6.6.4.4.4.4.e.e.k.k.e.e.e.e.e.e.k.k.k.k.k.k.7.7.7.7.7.7.7.7.7.7.7.7.<.<.<.<.x x x x # # # # J J J J S S S 8 8 8 8 8 8 8 8 8 , , , , , , < < # # # # < < <         . . . .                                                                                                 @ @ @ @ X X X X . . . . . . . . wXwXwXwXwXwXwXwXwXwXwXwXwXwXwXwXwXwXwXwXwXwXwXwXwXwXwXwXwXwXwXwXwXwXwXwXwXwXwXwXwXwXwXwXwXwXwXwXwXwXwXwXwXwXwXwXwXwXwXwXwXwXwXwXwXwXwXwXwXwXwXwXwXwXwXwXwXwXwXwXwXwX",
"wXwXwXwXwXwXwXwXwXwXwXwXwXwXwXwXwXwXwXwXwXwXwXwXwXwXwXwXwXwXwXwXwXwXwXwXwXwXwXwXwXwXwXwXwXwXwXwXwXwXwXwXwXwXwXwXwXwXwXwXwXwXwXwXwXwXwXwXwXwXwXwXwXwXwXwXwXwXwXwXwXwXwXwXwXwXwXwXwXwXwXwXwXwXwXwXwX5X4X4X4XwXwXwXwXwXwXwXwX1X1X1X1X<X<X<X<X4X4X4X4X4X4X4X4X4X4X4X6X6X6X6X4.4.4.4.6.6.6.6.4.4.4.4.e.e.k.k.e.e.e.e.e.e.k.k.k.k.k.k.7.7.7.7.7.7.7.7.7.7.7.7.<.<.<.<.x x x x @ # # # J J J J S S 8 8 8 8 8 8 8 8 8 8 , , , , , , < < # # # # < < <       . . . . .                                                                                                 @ @ @ @ X X X X . . . . . . . . wXwXwXwXwXwXwXwXwXwXwXwXwXwXwXwXwXwXwXwXwXwXwXwXwXwXwXwXwXwXwXwXwXwXwXwXwXwXwXwXwXwXwXwXwXwXwXwXwXwXwXwXwXwXwXwXwXwXwXwXwXwXwXwXwXwXwXwXwXwXwXwXwXwXwXwXwXwXwXwXwXwX",
"wXwXwXwXwXwXwXwXwXwXwXwXwXwXwXwXwXwXwXwXwXwXwXwXwXwXwXwXwXwXwXwXwXwXwXwXwXwXwXwXwXwXwXwXwXwXwXwXwXwXwXwXwXwXwXwXwXwXwXwXwXwXwXwXwXwXwXwXwXwXwXwXwXwXwXwXwXwXwXwXwXwXwXwXwXwXwXwXwXwXwXwXwXwXwXwXwXwXwXwXwX4X4X4X4XwXwXwXwX2X2X2X2X2X2X2X2X1X1X1X1X<X<X<X<X4X4X4X<.<.q.q.4.4.4.4.6.6.6.6.<.<.<.<.4.4.4.4.4.4.4.q.<.<.<.<.<.<.<.<.<.<.<.<.7.7.7.7.<.<.<.<.<.<.<.<.@ @ @ @ 8 8 8 8 8 8 8 8 8 8 8 8 6 6 6 6 1 1 1 1 1 1 1 1 1 1 1 1 3 3 1 1 < < < = $ $ $ , , , , 1 1 1 1 3 3 3 3 # # # #                                         @ @ @ @                 @ X X X @ @ @ @ @ @ @ @ . . . . . . . . wXwXwXwXwXwXwXwXwXwXwXwXwXwXwXwXwXwXwXwXwXwXwXwXwXwXwXwXwXwXwXwXwXwXwXwXwXwXwXwXwXwXwXwXwXwXwXwXwXwXwXwXwXwXwXwXwXwXwXwXwXwXwXwXwXwXwXwXwXwXwXwXwXwXwXwXwXwXwXwXwXwX",
"wXwXwXwXwXwXwXwXwXwXwXwXwXwXwXwXwXwXwXwXwXwXwXwXwXwXwXwXwXwXwXwXwXwXwXwXwXwXwXwXwXwXwXwXwXwXwXwXwXwXwXwXwXwXwXwXwXwXwXwXwXwXwXwXwXwXwXwXwXwXwXwXwXwXwXwXwXwXwXwXwXwXwXwXwXwXwXwXwXwXwXwXwXwXwXwXwXwXwXwXwX4X4X4X4XwXwXwXwX2X2X2X2X2X2X2X2X1X1X1X1X<X<X<X<X4X4X4X<.<.q.q.4.4.4.4.1.1.6.6.<.<.<.<.4.4.4.4.4.4.4.4.<.<.<.<.<.<.<.<.<.<.<.<.7.7.7.7.<.<.<.<.<.<.<.<.@ @ @ @ 8 8 8 8 8 8 8 8 8 8 8 8 6 6 6 6 1 1 1 1 1 1 1 1 1 1 1 1 3 3 1 1 < < < = $ $ $ , , , , 1 1 1 1 3 3 3 3 # # # #                                         @ @ @ @                 @ X X @ @ @ @ @ @ @ @ @ . . . . . . . . wXwXwXwXwXwXwXwXwXwXwXwXwXwXwXwXwXwXwXwXwXwXwXwXwXwXwXwXwXwXwXwXwXwXwXwXwXwXwXwXwXwXwXwXwXwXwXwXwXwXwXwXwXwXwXwXwXwXwXwXwXwXwXwXwXwXwXwXwXwXwXwXwXwXwXwXwXwXwXwXwXwX",
"wXwXwXwXwXwXwXwXwXwXwXwXwXwXwXwXwXwXwXwXwXwXwXwXwXwXwXwXwXwXwXwXwXwXwXwXwXwXwXwXwXwXwXwXwXwXwXwXwXwXwXwXwXwXwXwXwXwXwXwXwXwXwXwXwXwXwXwXwXwXwXwXwXwXwXwXwXwXwXwXwXwXwXwXwXwXwXwXwXwXwXwXwXwXwXwXwXwXwXwXwX4X4X4X4XwXwXwXwX2X2X2X2X2X2X2X2X1X1X1X1X<X<X<X<X4X4X4X<.<.<.<.4.4.4.4.1.1.6.6.<.<.<.<.4.4.4.4.4.4.<.<.<.<.<.<.<.<.<.<.<.<.<.<.7.7.7.7.<.<.<.<.<.<.<.<.# # @ @ 8 8 8 8 S S S S S S 8 8 6 6 6 6 1 1 1 1 1 1 1 1 1 1 1 1 3 3 3 1 < < < = $ $ $ , , , , 1 1 1 1 3 3 3 3 # # # #                                         @ @ @ @                 @ @ @ @ @ @ @ @ @ @ @ @ . . . . . . .   wXwXwXwXwXwXwXwXwXwXwXwXwXwXwXwXwXwXwXwXwXwXwXwXwXwXwXwXwXwXwXwXwXwXwXwXwXwXwXwXwXwXwXwXwXwXwXwXwXwXwXwXwXwXwXwXwXwXwXwXwXwXwXwXwXwXwXwXwXwXwXwXwXwXwXwXwXwXwXwXwXwX",
"wXwXwXwXwXwXwXwXwXwXwXwXwXwXwXwXwXwXwXwXwXwXwXwXwXwXwXwXwXwXwXwXwXwXwXwXwXwXwXwXwXwXwXwXwXwXwXwXwXwXwXwXwXwXwXwXwXwXwXwXwXwXwXwXwXwXwXwXwXwXwXwXwXwXwXwXwXwXwXwXwXwXwXwXwXwXwXwXwXwXwXwXwXwXwXwXwXwXwXwXwX4X4X4X4XwXwXwXwX2X2X2X2X2X2X2X2X1X1X1X1X<X<X<X<X4X4X4X<.<.<.<.4.4.4.4.1.1.6.6.<.<.<.<.4.4.4.4.<.<.<.<.<.<.<.<.<.<.<.<.<.<.<.<.7.7.7.7.<.<.<.<.c <.<.<.# # @ @ 8 8 8 8 S S S S S S 8 8 6 6 6 6 1 1 1 1 3 1 1 1 1 1 1 1 3 3 1 1 < < < , $ $ $ , , , , 1 1 1 1 3 3 3 1 # # # #                                         @ @ @ @                 @ @ @ @ @ @ @ @ @ @ @ @ . . . . . . .   wXwXwXwXwXwXwXwXwXwXwXwXwXwXwXwXwXwXwXwXwXwXwXwXwXwXwXwXwXwXwXwXwXwXwXwXwXwXwXwXwXwXwXwXwXwXwXwXwXwXwXwXwXwXwXwXwXwXwXwXwXwXwXwXwXwXwXwXwXwXwXwXwXwXwXwXwXwXwXwXwXwX",
"wXwXwXwXwXwXwXwXwXwXwXwXwXwXwXwXwXwXwXwXwXwXwXwXwXwXwXwXwXwXwXwXwXwXwXwXwXwXwXwXwXwXwXwXwXwXwXwXwXwXwXwXwXwXwXwXwXwXwXwXwXwXwXwXwXwXwXwXwXwXwXwXwXwXwXwXwXwXwXwXwXwXwXwXwXwXwXwXwXwXwXwXwXwXwXwXwXwXwXwXwXwXwXwXwXwXwXwXwXwXwXwXwXwXwXwXwX2X2X2X3X4X4X4X5X3X3X3Xr.r.r.l.>.>.>.<.u u u u <.<.<.<.>.>.>.>.>.>.>.>.>.>.>.>.<.<.<.<.>.>.>.>.k k k k k k k k # # # # < < < < 1 1 1 < ~ ~ ~ ~ S S S S 8 8 8 8 6 6 6 6 6 6 6 6 8 8 8 8 6 6 7 7 $ $ # < < < , , , , , 1 1 1 1 1 1 1 < < < < < < < < < @ @ @ @ $ $ $ $ @ @ @ @ $ $ $ $ = $ $ $ . . . . O X X X , , , , X X X X $ $ $ # . . . . . . . . X X X X wXwXwXwXwXwXwXwXwXwXwXwXwXwXwXwXwXwXwXwXwXwXwXwXwXwXwXwXwXwXwXwXwXwXwXwXwXwXwXwXwXwXwXwXwXwXwXwXwXwXwXwXwXwXwXwXwXwXwXwXwXwXwXwXwXwXwXwXwXwXwXwXwXwXwXwXwXwX",
"wXwXwXwXwXwXwXwXwXwXwXwXwXwXwXwXwXwXwXwXwXwXwXwXwXwXwXwXwXwXwXwXwXwXwXwXwXwXwXwXwXwXwXwXwXwXwXwXwXwXwXwXwXwXwXwXwXwXwXwXwXwXwXwXwXwXwXwXwXwXwXwXwXwXwXwXwXwXwXwXwXwXwXwXwXwXwXwXwXwXwXwXwXwXwXwXwXwXwXwXwXwXwXwXwXwXwXwXwXwXwXwXwXwXwXwXwX2X2X2X3X4X4X4X5X3X3X3Xr.r.l.l.>.>.>.>.u u u u <.<.<.<.>.>.>.>.>.>.>.>.>.>.>.>.<.<.<.<.>.>.>.>.k k k k k k k k # # # # < < < < 1 1 < < ~ ~ ~ ~ S S S S 8 8 8 8 6 6 6 6 6 6 6 6 8 8 8 8 6 7 7 6 $ # # < < < < , , , , 1 1 1 1 1 1 1 < < < < < < < < < @ @ @ @ $ $ $ $ @ @ @ @ $ $ $ $ , $ $ $ . . . . O X X X , , , , X X X X $ $ $ # . . . . . . . . X X X X wXwXwXwXwXwXwXwXwXwXwXwXwXwXwXwXwXwXwXwXwXwXwXwXwXwXwXwXwXwXwXwXwXwXwXwXwXwXwXwXwXwXwXwXwXwXwXwXwXwXwXwXwXwXwXwXwXwXwXwXwXwXwXwXwXwXwXwXwXwXwXwXwXwXwXwXwXwX",
"wXwXwXwXwXwXwXwXwXwXwXwXwXwXwXwXwXwXwXwXwXwXwXwXwXwXwXwXwXwXwXwXwXwXwXwXwXwXwXwXwXwXwXwXwXwXwXwXwXwXwXwXwXwXwXwXwXwXwXwXwXwXwXwXwXwXwXwXwXwXwXwXwXwXwXwXwXwXwXwXwXwXwXwXwXwXwXwXwXwXwXwXwXwXwXwXwXwXwXwXwXwXwXwXwXwXwXwXwXwXwXwXwXwXwXwXwX2X2X2X3X4X4X4X4X3X3X3Xr.r.r.r.>.>.>.>.u  .u u <.<.<.<.>.>.>.>.>.>.>.>.>.>.>.>.<.<.<.<.>.>.>.>.<.k <.<.k k k k # # # # < < < < 1 1 1 1 ~ ~ ~ ~ S S S S 8 8 8 8 6 6 6 6 6 6 6 6 8 8 8 8 6 6 7 6 $ $ # , < < < , , , , 1 1 1 1 < 1 1 1 < < < < < < < < @ @ @ @ $ $ $ $ @ @ @ @ # $ $ $ , $ $ $ . . . . O X X X , , , , X X X X # $ $ $ . . . . . . . . X X X X wXwXwXwXwXwXwXwXwXwXwXwXwXwXwXwXwXwXwXwXwXwXwXwXwXwXwXwXwXwXwXwXwXwXwXwXwXwXwXwXwXwXwXwXwXwXwXwXwXwXwXwXwXwXwXwXwXwXwXwXwXwXwXwXwXwXwXwXwXwXwXwXwXwXwXwXwXwX",
"wXwXwXwXwXwXwXwXwXwXwXwXwXwXwXwXwXwXwXwXwXwXwXwXwXwXwXwXwXwXwXwXwXwXwXwXwXwXwXwXwXwXwXwXwXwXwXwXwXwXwXwXwXwXwXwXwXwXwXwXwXwXwXwXwXwXwXwXwXwXwXwXwXwXwXwXwXwXwXwXwXwXwXwXwXwXwXwXwXwXwXwXwXwXwXwXwXwXwXwXwXwXwXwXwXwXwXwXwXwXwXwXwXwXwXwXwX2X2X2X3X4X4X4X4X3X3X3Xr.r.r.r.>.>.>.>. . .u u <.<.<.<.>.>.>.>.>.>.>.>.>.>.>.>.<.<.<.<.>.>.>.>.<.<.<.<.k k k k # # # # < < < < 1 1 1 1 ~ ~ ~ ~ S S S S 8 8 8 8 6 6 6 6 6 6 6 6 8 8 8 8 6 6 7 7 $ $ # , < < < , , , , 1 1 1 1 < < 1 1 < < < < < < < < @ @ @ @ $ $ $ $ @ @ @ @ # $ $ $ , = $ $ . . . . O X X X , , , , X X X X # $ $ $ . . . . . . . . X X X X wXwXwXwXwXwXwXwXwXwXwXwXwXwXwXwXwXwXwXwXwXwXwXwXwXwXwXwXwXwXwXwXwXwXwXwXwXwXwXwXwXwXwXwXwXwXwXwXwXwXwXwXwXwXwXwXwXwXwXwXwXwXwXwXwXwXwXwXwXwXwXwXwXwXwXwXwXwX",
"wXwXwXwXwXwXwXwXwXwXwXwXwXwXwXwXwXwXwXwXwXwXwXwXwXwXwXwXwXwXwXwXwXwXwXwXwXwXwXwXwXwXwXwXwXwXwXwXwXwXwXwXwXwXwXwXwXwXwXwXwXwXwXwXwXwXwXwXwXwXwXwXwXwXwXwXwXwXwXwXwXwXwXwXwXwXwXwXwXwXwXwXwXwXwXwXwXwXwXwXwXwXwXwXwXwXwXwXwXwXwXwXwX4X4X4X4X5X4X5X4XwXwXwXwXwXwXwXOXOXOX.X>.>.>.>. . . . .u u u u >.>.>.>.u u u u u u u u u u u u r r r r u u @.@., , * * < < < < 1 1 < < < < < < ^ ^ ^ ^ 7 7 7 7 6 6 6 6 6 6 6 6 1 1 1 1 1 1 1 1 8 8 8 8 8 8 8 < 1 1 1 < < < < < 1 1 1 < < < < 1 1 1 1 3 6 6 6 $ $ $ $ # # # # 6 6 6 6 6 6 6 6 $ $ $ $ . . . . . . . . X X X X X X X X . . . . O O O O X X X X @ @ @ @ wXwXwXwXwXwXwXwXwXwXwXwXwXwXwXwXwXwXwXwXwXwXwXwXwXwXwXwXwXwXwXwXwXwXwXwXwXwXwXwXwXwXwXwXwXwXwXwXwXwXwXwXwXwXwXwXwXwXwXwXwXwXwXwXwXwXwXwXwXwXwXwXwXwXwXwXwXwX",
"wXwXwXwXwXwXwXwXwXwXwXwXwXwXwXwXwXwXwXwXwXwXwXwXwXwXwXwXwXwXwXwXwXwXwXwXwXwXwXwXwXwXwXwXwXwXwXwXwXwXwXwXwXwXwXwXwXwXwXwXwXwXwXwXwXwXwXwXwXwXwXwXwXwXwXwXwXwXwXwXwXwXwXwXwXwXwXwXwXwXwXwXwXwXwXwXwXwXwXwXwXwXwXwXwXwXwXwXwXwXwXwXwX4X4X4X4X4X4X5X4XwXwXwXwXwXwXwXOXOXOXOX>.>.>.>. . . . .u u u u >.>.>.>.u u u u u u u u u u u u r r r r u u @.@., , * * < < < < 1 1 1 1 < < < < ^ ^ ^ ^ 7 7 7 7 6 6 6 6 6 6 6 6 1 1 1 1 1 1 1 1 8 8 8 8 8 8 8 < < 1 1 < < < < < 1 1 1 < < < < 1 1 1 1 3 6 6 6 $ $ $ $ # # # # 6 6 6 6 6 6 6 6 $ $ $ $ . . . . . . . . X X X X X X X X . . . . O O O O X X X X @ @ @ @ wXwXwXwXwXwXwXwXwXwXwXwXwXwXwXwXwXwXwXwXwXwXwXwXwXwXwXwXwXwXwXwXwXwXwXwXwXwXwXwXwXwXwXwXwXwXwXwXwXwXwXwXwXwXwXwXwXwXwXwXwXwXwXwXwXwXwXwXwXwXwXwXwXwXwXwXwXwX",
"wXwXwXwXwXwXwXwXwXwXwXwXwXwXwXwXwXwXwXwXwXwXwXwXwXwXwXwXwXwXwXwXwXwXwXwXwXwXwXwXwXwXwXwXwXwXwXwXwXwXwXwXwXwXwXwXwXwXwXwXwXwXwXwXwXwXwXwXwXwXwXwXwXwXwXwXwXwXwXwXwXwXwXwXwXwXwXwXwXwXwXwXwXwXwXwXwXwXwXwXwXwXwXwXwXwXwXwXwXwXwXwXwX4X4X4X4X4X4X4X4XwXwXwXwXwXwXwXOXOXOXOX>.>.>.>.u u u u u u u u >.>.>.>.u u u u u u u u u u u u r r r r u u @.@., , , * < < < < 1 1 1 1 < < < < ^ ^ ^ ^ 7 7 7 7 6 6 6 6 6 6 6 6 1 1 1 1 1 1 1 1 8 8 8 8 8 8 8 1 < < 1 < < < < < 1 1 1 < < < < 1 1 1 1 3 6 6 6 $ $ $ $ # # # # 6 6 6 6 6 6 6 6 $ $ $ $ . . . . . . . . X X X X X X X X . . . . O O O O X X X X @ @ @ @ wXwXwXwXwXwXwXwXwXwXwXwXwXwXwXwXwXwXwXwXwXwXwXwXwXwXwXwXwXwXwXwXwXwXwXwXwXwXwXwXwXwXwXwXwXwXwXwXwXwXwXwXwXwXwXwXwXwXwXwXwXwXwXwXwXwXwXwXwXwXwXwXwXwXwXwXwXwX",
"wXwXwXwXwXwXwXwXwXwXwXwXwXwXwXwXwXwXwXwXwXwXwXwXwXwXwXwXwXwXwXwXwXwXwXwXwXwXwXwXwXwXwXwXwXwXwXwXwXwXwXwXwXwXwXwXwXwXwXwXwXwXwXwXwXwXwXwXwXwXwXwXwXwXwXwXwXwXwXwXwXwXwXwXwXwXwXwXwXwXwXwXwXwXwXwXwXwXwXwXwXwXwXwXwXwXwXwXwXwXwXwXwX4X4X4X4X4X4X4X4XwXwXwXwXwXwXwXOXOXOXOX>.>.>.>.u u u u u u u u >.>.>.>.u u u u u u u u u u u u r r r r u u @.@., , , , < < < < 1 1 1 1 < < < < ^ ^ ^ ^ 7 7 7 7 6 6 6 6 6 6 6 6 1 1 1 1 1 1 1 1 8 8 8 8 8 8 8 1 1 < < < < < < < 1 1 1 < < < < 1 1 1 1 3 6 6 6 $ $ $ $ # # # # 6 6 6 6 6 6 6 6 $ $ $ $ . . . . . . . . X X X . X X X X . . . . O O O O X X X X @ @ @ @ wXwXwXwXwXwXwXwXwXwXwXwXwXwXwXwXwXwXwXwXwXwXwXwXwXwXwXwXwXwXwXwXwXwXwXwXwXwXwXwXwXwXwXwXwXwXwXwXwXwXwXwXwXwXwXwXwXwXwXwXwXwXwXwXwXwXwXwXwXwXwXwXwXwXwXwXwXwX",
"wXwXwXwXwXwXwXwXwXwXwXwXwXwXwXwXwXwXwXwXwXwXwXwXwXwXwXwXwXwXwXwXwXwXwXwXwXwXwXwXwXwXwXwXwXwXwXwXwXwXwXwXwXwXwXwXwXwXwXwXwXwXwXwXwXwXwXwXwXwXwXwXwXwXwXwXwXwXwXwXwXwXwXwXwXwXwXwXwXwXwXwXwXwXwXwXwXwXwXwXwXwXwXwXwXwXwXwXwXwXwXwXwXwXwXwXwXwXwXwXwXwXwXwXwX4X4X4XwXwXwXwXk k k k r r r r u u u u u u u u r r r r q q q q r r r r r r r r q q q q = = $ $ # # $ $ , , , , $ $ $ $ G G G G G G G G G G G G < < < < 1 1 1 1 1 1 1 1 1 1 1 1 7 7 6 6 3 6 6 7 7 7 7 J J J J S S S S 1 1 1 1 1 1 1 1 # # # # , , , , 7 7 7 7 < 1 1 < $ $ $ $ . . . . . . . . X X X X 1 1 1 1 @ @ @ @ X X X X @ @ O O @ @ @ @ @ @ @ @ wXwXwXwXwXwXwXwXwXwXwXwXwXwXwXwXwXwXwXwXwXwXwXwXwXwXwXwXwXwXwXwXwXwXwXwXwXwXwXwXwXwXwXwXwXwXwXwXwXwXwXwXwXwXwXwXwXwXwXwXwXwXwXwXwXwXwXwXwXwXwXwXwXwX",
"wXwXwXwXwXwXwXwXwXwXwXwXwXwXwXwXwXwXwXwXwXwXwXwXwXwXwXwXwXwXwXwXwXwXwXwXwXwXwXwXwXwXwXwXwXwXwXwXwXwXwXwXwXwXwXwXwXwXwXwXwXwXwXwXwXwXwXwXwXwXwXwXwXwXwXwXwXwXwXwXwXwXwXwXwXwXwXwXwXwXwXwXwXwXwXwXwXwXwXwXwXwXwXwXwXwXwXwXwXwXwXwXwXwXwXwXwXwXwXwXwXwXwXwXwX4X4X4XwXwXwXwXk k k k r r r r u u u u u u u u r r r r q q q q r r r r r r r r q q q q = = = $ # # $ $ , , , , $ $ $ $ G G G G G G G G G G G G < < < < 1 1 1 1 1 1 1 1 1 1 1 1 7 7 6 6 3 6 6 7 7 7 7 J J J J S S S S 1 1 1 1 1 1 1 1 # # # # , , , , 7 7 7 7 < < 1 < $ $ $ $ . . . . . . . . X . X . 1 1 1 1 @ @ @ @ O @ @ X @ @ O @ @ @ @ @ @ @ @ @ wXwXwXwXwXwXwXwXwXwXwXwXwXwXwXwXwXwXwXwXwXwXwXwXwXwXwXwXwXwXwXwXwXwXwXwXwXwXwXwXwXwXwXwXwXwXwXwXwXwXwXwXwXwXwXwXwXwXwXwXwXwXwXwXwXwXwXwXwXwXwXwXwXwX",
"wXwXwXwXwXwXwXwXwXwXwXwXwXwXwXwXwXwXwXwXwXwXwXwXwXwXwXwXwXwXwXwXwXwXwXwXwXwXwXwXwXwXwXwXwXwXwXwXwXwXwXwXwXwXwXwXwXwXwXwXwXwXwXwXwXwXwXwXwXwXwXwXwXwXwXwXwXwXwXwXwXwXwXwXwXwXwXwXwXwXwXwXwXwXwXwXwXwXwXwXwXwXwXwXwXwXwXwXwXwXwXwXwXwXwXwXwXwXwXwXwXwXwXwXwX4X4X4XwXwXwXwXk k k k r r r r u u u u u u u u r r r r q q q q r r r r r r r r q q q q = = $ $ # # $ $ , , < , = = $ $ G G G G G G G G G G G G < < < < 1 1 1 1 < 1 1 1 1 1 < < 7 6 6 6 6 6 6 7 7 7 7 J J J J S S S S 1 1 1 1 1 1 1 1 # # # # , , , , 7 7 7 7 < 1 1 1 $ $ $ $ . . . . .   .   . . . . 1 1 1 1 @ @ @ @ @ @ O O @ O @ @ @ @ @ @ @ @ @ @ wXwXwXwXwXwXwXwXwXwXwXwXwXwXwXwXwXwXwXwXwXwXwXwXwXwXwXwXwXwXwXwXwXwXwXwXwXwXwXwXwXwXwXwXwXwXwXwXwXwXwXwXwXwXwXwXwXwXwXwXwXwXwXwXwXwXwXwXwXwXwXwXwXwX",
"wXwXwXwXwXwXwXwXwXwXwXwXwXwXwXwXwXwXwXwXwXwXwXwXwXwXwXwXwXwXwXwXwXwXwXwXwXwXwXwXwXwXwXwXwXwXwXwXwXwXwXwXwXwXwXwXwXwXwXwXwXwXwXwXwXwXwXwXwXwXwXwXwXwXwXwXwXwXwXwXwXwXwXwXwXwXwXwXwXwXwXwXwXwXwXwXwXwXwXwXwXwXwXwXwXwXwXwXwXwXwXwXwXwXwXwXwXwXwXwXwXwXwXwXwX4X4X4XwXwXwXwXk k k k r r r r u u u u u u u u r r r r q q q q r r r r r r r r r q q q $ $ $ $ # # $ $ , , < < , = $ $ G G G G G G G G G G G G < < < < 1 1 1 1 < 1 1 1 1 < < < 7 7 6 6 6 6 6 7 7 7 7 J J J J S S S S 1 1 1 1 1 1 1 1 # # # # , , , , 7 7 7 7 < 1 1 1 $ $ $ $ . . . . .       . . . . 1 1 1 1 @ @ @ @ @ O O O @ X @ @ @ @ @ @ @ @ @ @ wXwXwXwXwXwXwXwXwXwXwXwXwXwXwXwXwXwXwXwXwXwXwXwXwXwXwXwXwXwXwXwXwXwXwXwXwXwXwXwXwXwXwXwXwXwXwXwXwXwXwXwXwXwXwXwXwXwXwXwXwXwXwXwXwXwXwXwXwXwXwXwXwXwX",
"wXwXwXwXwXwXwXwXwXwXwXwXwXwXwXwXwXwXwXwXwXwXwXwXwXwXwXwXwXwXwXwXwXwXwXwXwXwXwXwXwXwXwXwXwXwXwXwXwXwXwXwXwXwXwXwXwXwXwXwXwXwXwXwXwXwXwXwXwXwXwXwXwXwXwXwXwXwXwXwXwXwXwXwXwXwXwXwXwXwXwXwXwXwXwXwXwXwXwXwXwXwXwXwXwXwXwXwXwXwXwXwXwXwXwXwXwXwXwXwXwXwXwXwXwXwXwXwXwXwXwXwX<.<.<.<.r r r r q q q q w w w w q q q q q q q q q q q q r r r r . . . . , , , , # # # # $ $ $ $ < < < , G G G G 7 7 7 7 S S S S G G G G < < < < 6 6 6 6 1 1 1 < 1 1 1 < < < < 1 1 1 1 S S S S S S S S 8 8 8 8 1 1 1 1 # # # # = $ $ $ < < < < = = = , $ $ $ $ @ @ @ @ . . . .         , , , , @ @ @ @ # # # # @ @ @ @ @ @ @ @ < < < < wXwXwXwXwXwXwXwXwXwXwXwXwXwXwXwXwXwXwXwXwXwXwXwXwXwXwXwXwXwXwXwXwXwXwXwXwXwXwXwXwXwXwXwXwXwXwXwXwXwXwXwXwXwXwXwXwXwXwXwXwXwXwXwXwXwXwXwXwXwXwXwXwXwX",
"wXwXwXwXwXwXwXwXwXwXwXwXwXwXwXwXwXwXwXwXwXwXwXwXwXwXwXwXwXwXwXwXwXwXwXwXwXwXwXwXwXwXwXwXwXwXwXwXwXwXwXwXwXwXwXwXwXwXwXwXwXwXwXwXwXwXwXwXwXwXwXwXwXwXwXwXwXwXwXwXwXwXwXwXwXwXwXwXwXwXwXwXwXwXwXwXwXwXwXwXwXwXwXwXwXwXwXwXwXwXwXwXwXwXwXwXwXwXwXwXwXwXwXwXwXwXwXwXwXwXwXwX<.<.<.<.r r r r q q q q w w w w q q q q q q q q q q q q r r r r . . . . , , , , # # # # $ $ $ $ < < < < G G G G 8 8 7 7 S S S S G G G G < < < < 6 6 6 6 1 1 1 < 1 1 1 < < < < < 1 1 1 S S S S S S S S 8 8 8 8 1 1 1 1 # # # # = $ $ $ < < < < = = = , $ $ $ $ @ @ @ @ . . . .         , , , , @ @ @ @ # # # # @ @ @ @ @ @ @ @ < < < < wXwXwXwXwXwXwXwXwXwXwXwXwXwXwXwXwXwXwXwXwXwXwXwXwXwXwXwXwXwXwXwXwXwXwXwXwXwXwXwXwXwXwXwXwXwXwXwXwXwXwXwXwXwXwXwXwXwXwXwXwXwXwXwXwXwXwXwXwXwXwXwXwXwX",
"wXwXwXwXwXwXwXwXwXwXwXwXwXwXwXwXwXwXwXwXwXwXwXwXwXwXwXwXwXwXwXwXwXwXwXwXwXwXwXwXwXwXwXwXwXwXwXwXwXwXwXwXwXwXwXwXwXwXwXwXwXwXwXwXwXwXwXwXwXwXwXwXwXwXwXwXwXwXwXwXwXwXwXwXwXwXwXwXwXwXwXwXwXwXwXwXwXwXwXwXwXwXwXwXwXwXwXwXwXwXwXwXwXwXwXwXwXwXwXwXwXwXwXwXwXwXwXwXwXwXwXwX<.<.<.<.r r r r q q q q w w w w q q q q q q q q q q q q q q r q . . . . $ $ , = # # # # $ $ $ $ < < < < G G G G 8 8 8 8 S S S S G G G G < 1 < < 6 6 6 6 1 1 1 1 1 1 1 < < < < < 1 1 1 S S S S S S S S 8 8 8 8 1 1 1 1 # # # # , $ $ $ < < < < $ = = = $ $ $ $ @ @ @ @ . . . .         , , , , @ @ @ @ # # # # @ @ @ @ @ @ @ @ < < < < wXwXwXwXwXwXwXwXwXwXwXwXwXwXwXwXwXwXwXwXwXwXwXwXwXwXwXwXwXwXwXwXwXwXwXwXwXwXwXwXwXwXwXwXwXwXwXwXwXwXwXwXwXwXwXwXwXwXwXwXwXwXwXwXwXwXwXwXwXwXwXwXwXwX",
"wXwXwXwXwXwXwXwXwXwXwXwXwXwXwXwXwXwXwXwXwXwXwXwXwXwXwXwXwXwXwXwXwXwXwXwXwXwXwXwXwXwXwXwXwXwXwXwXwXwXwXwXwXwXwXwXwXwXwXwXwXwXwXwXwXwXwXwXwXwXwXwXwXwXwXwXwXwXwXwXwXwXwXwXwXwXwXwXwXwXwXwXwXwXwXwXwXwXwXwXwXwXwXwXwXwXwXwXwXwXwXwXwXwXwXwXwXwXwXwXwXwXwXwXwXwXwXwXwXwXwXwX<.<.<.<.r r r r q q q q w w w w q q q q q q q q q q q q q q q q . . . . $ $ = = # # # # $ $ $ $ < < < < G G G G 8 8 8 8 S S S S G G G G 1 1 < < 6 6 6 6 1 1 1 1 1 1 1 < < < < < 1 1 1 S S S S S S S S 8 8 8 8 1 1 1 1 # # # # = = = $ < < < < = = = , $ $ $ $ @ @ @ @ . . . .         , , , , @ @ @ @ # # # # @ @ @ @ @ @ @ @ < < < < wXwXwXwXwXwXwXwXwXwXwXwXwXwXwXwXwXwXwXwXwXwXwXwXwXwXwXwXwXwXwXwXwXwXwXwXwXwXwXwXwXwXwXwXwXwXwXwXwXwXwXwXwXwXwXwXwXwXwXwXwXwXwXwXwXwXwXwXwXwXwXwXwXwX",
"wXwXwXwXwXwXwXwXwXwXwXwXwXwXwXwXwXwXwXwXwXwXwXwXwXwXwXwXwXwXwXwXwXwXwXwXwXwXwXwXwXwXwXwXwXwXwXwXwXwXwXwXwXwXwXwXwXwXwXwXwXwXwXwXwXwXwXwXwXwXwXwXwXwXwXwXwXwXwXwXwXwXwXwXwXwXwXwXwXwXwXwXwXwXwXwXwXwXwXwXwXwXwXwXwXwXwXwXwXwXwXwXwXwXwXwXwXwXwXwXwXwXwXwXwXwXwXwXwXwXwXwXx x x x r r r r q q q q & & & & 9 9 9 9 9 9 9 9 w w w w e e e e # # # # # # # # # # # # # # # # < < < < ~ ~ ~ ~ 8 8 8 8 7 7 7 7 7 7 7 7 G G D D S S S S ( ( ( ( < < 1 < < < < < < < < S S S S S S S S 8 7 7 7 1 1 1 1 @ @ @ @ , , , , 6 6 6 6 < < < < < < < < # # # # X X X X . . . . . . . . # # # # @ @ @ @ # @ @ @ # # # # 8 8 8 8 wXwXwXwXwXwXwXwXwXwXwXwXwXwXwXwXwXwXwXwXwXwXwXwXwXwXwXwXwXwXwXwXwXwXwXwXwXwXwXwXwXwXwXwXwXwXwXwXwXwXwXwXwXwXwXwXwXwXwXwXwXwXwXwXwXwXwXwXwXwXwXwXwXwX",
"wXwXwXwXwXwXwXwXwXwXwXwXwXwXwXwXwXwXwXwXwXwXwXwXwXwXwXwXwXwXwXwXwXwXwXwXwXwXwXwXwXwXwXwXwXwXwXwXwXwXwXwXwXwXwXwXwXwXwXwXwXwXwXwXwXwXwXwXwXwXwXwXwXwXwXwXwXwXwXwXwXwXwXwXwXwXwXwXwXwXwXwXwXwXwXwXwXwXwXwXwXwXwXwXwXwXwXwXwXwXwXwXwXwXwXwXwXwXwXwXwXwXwXwXwXwXwXwXwXwXwXwXx x x x r r r r q q q q & & & & 9 9 9 9 9 9 9 9 w w w w e e e e # # # # # # # # # # # # # # # # < < < < ~ ~ ~ ~ 8 8 8 8 7 7 7 7 7 7 7 8 G G D G S S S S ( ( ( ( < < 1 < < < < < < < < S S S S S S S S 8 7 7 7 1 1 1 1 @ @ @ @ , , , , 7 6 6 6 < < < < < < < < # # # # X X X X . . . . . . . . # # # # @ @ @ @ # @ @ # # # # # 8 8 8 8 wXwXwXwXwXwXwXwXwXwXwXwXwXwXwXwXwXwXwXwXwXwXwXwXwXwXwXwXwXwXwXwXwXwXwXwXwXwXwXwXwXwXwXwXwXwXwXwXwXwXwXwXwXwXwXwXwXwXwXwXwXwXwXwXwXwXwXwXwXwXwXwXwXwX",
"wXwXwXwXwXwXwXwXwXwXwXwXwXwXwXwXwXwXwXwXwXwXwXwXwXwXwXwXwXwXwXwXwXwXwXwXwXwXwXwXwXwXwXwXwXwXwXwXwXwXwXwXwXwXwXwXwXwXwXwXwXwXwXwXwXwXwXwXwXwXwXwXwXwXwXwXwXwXwXwXwXwXwXwXwXwXwXwXwXwXwXwXwXwXwXwXwXwXwXwXwXwXwXwXwXwXwXwXwXwXwXwXwXwXwXwXwXwXwXwXwXwXwXwXwXwXwXwXwXwXwXwXx x x x r r r r q q q q & & & & 9 9 9 9 9 9 9 9 w w w w e e e e # # # # # # # # # # # # # # # # < < < < ~ ~ J J 8 8 8 8 7 7 7 7 7 7 8 8 G G G G S S S S ( ( ( ( < < < < < < < < < < < S S S S S S S S 8 7 7 7 1 1 1 1 @ @ @ @ , , , , 7 6 6 7 < < < < < 1 1 < # # # # X X X X . . . . . . . . @ # # # @ @ @ @ # # # # # # # # 8 8 8 8 wXwXwXwXwXwXwXwXwXwXwXwXwXwXwXwXwXwXwXwXwXwXwXwXwXwXwXwXwXwXwXwXwXwXwXwXwXwXwXwXwXwXwXwXwXwXwXwXwXwXwXwXwXwXwXwXwXwXwXwXwXwXwXwXwXwXwXwXwXwXwXwXwXwX",
"wXwXwXwXwXwXwXwXwXwXwXwXwXwXwXwXwXwXwXwXwXwXwXwXwXwXwXwXwXwXwXwXwXwXwXwXwXwXwXwXwXwXwXwXwXwXwXwXwXwXwXwXwXwXwXwXwXwXwXwXwXwXwXwXwXwXwXwXwXwXwXwXwXwXwXwXwXwXwXwXwXwXwXwXwXwXwXwXwXwXwXwXwXwXwXwXwXwXwXwXwXwXwXwXwXwXwXwXwXwXwXwXwXwXwXwXwXwXwXwXwXwXwXwXwXwXwXwXwXwXwXwXx x x x r r r r q q q q & & & & 9 9 9 9 9 9 9 9 w w w w e e e e # # # # # # # # # # # # # # # # < < < < ~ ~ ~ J 8 8 8 8 7 7 7 7 7 7 8 8 G G G G S S S S ( ( ( ( < < < < < < < < < < < S S S S S S S S 8 7 7 7 1 1 1 1 @ @ @ @ , , , , 7 6 6 7 < < < < < 1 1 1 $ # # # X X X X . . . . . . . . @ # # # @ @ @ @ # # # # # # # # 8 8 8 8 wXwXwXwXwXwXwXwXwXwXwXwXwXwXwXwXwXwXwXwXwXwXwXwXwXwXwXwXwXwXwXwXwXwXwXwXwXwXwXwXwXwXwXwXwXwXwXwXwXwXwXwXwXwXwXwXwXwXwXwXwXwXwXwXwXwXwXwXwXwXwXwXwXwX",
"wXwXwXwXwXwXwXwXwXwXwXwXwXwXwXwXwXwXwXwXwXwXwXwXwXwXwXwXwXwXwXwXwXwXwXwXwXwXwXwXwXwXwXwXwXwXwXwXwXwXwXwXwXwXwXwXwXwXwXwXwXwXwXwXwXwXwXwXwXwXwXwXwXwXwXwXwXwXwXwXwXwXwXwXwXwXwXwXwXwXwXwXwXwXwXwXwXwXwXwXwXwXwXwXwXwXwXwXwXwXwXwXwXwXwXwXwXwXwXwXwXwXwXwXwXwXwXwX4X4XwXwXy y y y r r r r & & & 9 % % % % o o o o . . . . # # # # # # # # # # # # @ @ @ @ # # # # @ @ @ @ # # # $ 8 8 8 8 < < < < 1 1 1 1 = = , , 1 1 1 1 7 7 7 7 1 1 1 1 1 1 1 < < , < , , , , 6 6 6 6 S S S D S S S S S 8 8 8 # # # # $ $ $ $ 7 7 7 7 , , , , # # # # < < < < @ @ @ @ . . . . . . . . . . . . @ @ @ @ @ @ @ @ # # # # @ @ @ @ wXwXwXwXwXwXwXwXwXwXwXwXwXwXwXwXwXwXwXwXwXwXwXwXwXwXwXwXwXwXwXwXwXwXwXwXwXwXwXwXwXwXwXwXwXwXwXwXwXwXwXwXwXwXwXwXwXwXwXwXwXwXwXwXwXwXwXwXwXwXwXwXwXwX",
"wXwXwXwXwXwXwXwXwXwXwXwXwXwXwXwXwXwXwXwXwXwXwXwXwXwXwXwXwXwXwXwXwXwXwXwXwXwXwXwXwXwXwXwXwXwXwXwXwXwXwXwXwXwXwXwXwXwXwXwXwXwXwXwXwXwXwXwXwXwXwXwXwXwXwXwXwXwXwXwXwXwXwXwXwXwXwXwXwXwXwXwXwXwXwXwXwXwXwXwXwXwXwXwXwXwXwXwXwXwXwXwXwXwXwXwXwXwXwXwXwXwXwXwXwXwXwXwX4X4XwXwXy y y y r r r r & & & 9 % % % % o o o o . . . . # # # # # # # # # # # # @ @ @ @ # # # # @ @ @ @ # # $ $ 8 8 8 8 < < < < 1 1 1 1 = = , , 1 1 1 1 7 7 7 7 1 1 1 1 1 1 1 < < < < , , , , 6 6 6 6 S S S D S S S S S 8 8 8 # # # # $ $ $ $ 7 7 7 7 , , , , # # # # < < < < @ @ @ @ . . . . . . . . . . . . @ @ @ @ @ @ @ @ # # # # @ @ @ @ wXwXwXwXwXwXwXwXwXwXwXwXwXwXwXwXwXwXwXwXwXwXwXwXwXwXwXwXwXwXwXwXwXwXwXwXwXwXwXwXwXwXwXwXwXwXwXwXwXwXwXwXwXwXwXwXwXwXwXwXwXwXwXwXwXwXwXwXwXwXwXwXwXwX",
"wXwXwXwXwXwXwXwXwXwXwXwXwXwXwXwXwXwXwXwXwXwXwXwXwXwXwXwXwXwXwXwXwXwXwXwXwXwXwXwXwXwXwXwXwXwXwXwXwXwXwXwXwXwXwXwXwXwXwXwXwXwXwXwXwXwXwXwXwXwXwXwXwXwXwXwXwXwXwXwXwXwXwXwXwXwXwXwXwXwXwXwXwXwXwXwXwXwXwXwXwXwXwXwXwXwXwXwXwXwXwXwXwXwXwXwXwXwXwXwXwXwXwXwXwXwXwXwX4X4X4X4Xy r y y r r r r & & & & % % % % o o o o . . . . # # # # # # # # # # # # @ @ @ @ # # # # @ @ @ @ # # $ $ 8 8 8 8 < < , , 1 1 1 1 $ = $ $ 1 1 1 1 7 7 7 7 1 1 1 1 1 1 1 < < < < , , , , 6 6 6 6 S S S S 8 S S S 8 8 8 8 # # # # $ $ $ $ 7 7 7 7 , , , , # # # # < < < < @ @ @ @ . . . . . . . . . . . . @ @ @ @ @ @ @ @ # # # # @ @ @ @ wXwXwXwXwXwXwXwXwXwXwXwXwXwXwXwXwXwXwXwXwXwXwXwXwXwXwXwXwXwXwXwXwXwXwXwXwXwXwXwXwXwXwXwXwXwXwXwXwXwXwXwXwXwXwXwXwXwXwXwXwXwXwXwXwXwXwXwXwXwXwXwXwXwX",
"wXwXwXwXwXwXwXwXwXwXwXwXwXwXwXwXwXwXwXwXwXwXwXwXwXwXwXwXwXwXwXwXwXwXwXwXwXwXwXwXwXwXwXwXwXwXwXwXwXwXwXwXwXwXwXwXwXwXwXwXwXwXwXwXwXwXwXwXwXwXwXwXwXwXwXwXwXwXwXwXwXwXwXwXwXwXwXwXwXwXwXwXwXwXwXwXwXwXwXwXwXwXwXwXwXwXwXwXwXwXwXwXwXwXwXwXwXwXwXwXwXwXwXwXwXwXwXwX4X4X4X4Xr r y y r r r r & & & & % % % % o o o o . . . . # # # # # # # # # # # # @ @ @ @ # # # # @ @ @ @ # $ # $ 8 8 8 8 < < , , 1 1 1 1 $ $ $ $ < 1 1 1 7 7 7 7 1 1 1 1 3 1 1 < < < < , , , , 6 6 6 6 S S S S 8 8 8 S 8 8 8 8 # # # # $ $ $ $ 7 7 7 7 , , , , # # # # < < < < @ @ @ @ . . . . . . . . . . . . @ @ @ @ @ @ @ @ # # # # @ @ @ @ wXwXwXwXwXwXwXwXwXwXwXwXwXwXwXwXwXwXwXwXwXwXwXwXwXwXwXwXwXwXwXwXwXwXwXwXwXwXwXwXwXwXwXwXwXwXwXwXwXwXwXwXwXwXwXwXwXwXwXwXwXwXwXwXwXwXwXwXwXwXwXwXwXwX",
"wXwXwXwXwXwXwXwXwXwXwXwXwXwXwXwXwXwXwXwXwXwXwXwXwXwXwXwXwXwXwXwXwXwXwXwXwXwXwXwXwXwXwXwXwXwXwXwXwXwXwXwXwXwXwXwXwXwXwXwXwXwXwXwXwXwXwXwXwXwXwXwXwXwXwXwXwXwXwXwXwXwXwXwXwXwXwXwXwXwXwXwXwXwXwXwXwXwXwXwXwXwXwXwXwXwXwXwXwXwXwXwXwXwXwXwXwXwXwXwXwXwXwXwXwXwXwXwXwXwXwXwXk k k k q q q q & & & & % % % % o o o o         # # # # @ @ @ @ # # # # # # # # @ @ @ @ @ @ @ @ # # # $ 1 1 1 1 < < < < < < < < 6 6 6 6 1 1 1 1 8 8 7 7 8 8 8 8 S S S < < < < $ $ $ $ 7 6 6 6 S S S S S S S S 7 7 7 7 $ $ $ $ $ $ # # 1 1 1 1 , , < , # # # # < < < < @ @ @ @ @ @ @ @ . . . X . . . . $ $ $ $ 8 8 8 8 @ @ @ @ < < < , # # # # wXwXwXwXwXwXwXwXwXwXwXwXwXwXwXwXwXwXwXwXwXwXwXwXwXwXwXwXwXwXwXwXwXwXwXwXwXwXwXwXwXwXwXwXwXwXwXwXwXwXwXwXwXwXwXwXwXwXwXwXwXwXwXwXwXwXwXwXwXwX",
"wXwXwXwXwXwXwXwXwXwXwXwXwXwXwXwXwXwXwXwXwXwXwXwXwXwXwXwXwXwXwXwXwXwXwXwXwXwXwXwXwXwXwXwXwXwXwXwXwXwXwXwXwXwXwXwXwXwXwXwXwXwXwXwXwXwXwXwXwXwXwXwXwXwXwXwXwXwXwXwXwXwXwXwXwXwXwXwXwXwXwXwXwXwXwXwXwXwXwXwXwXwXwXwXwXwXwXwXwXwXwXwXwXwXwXwXwXwXwXwXwXwXwXwXwXwXwXwXwXwXwXwXk k k k q q q q & & & & % % % % o o o o         # # # # @ @ @ @ # # # # # # # # @ @ @ @ @ @ @ @ # # # # 1 1 1 1 < < < < < < < < 6 6 6 6 1 1 1 1 8 8 7 7 8 8 8 8 S S S < < < < $ $ $ $ 7 7 6 6 S S S D S S S S 7 7 7 7 $ $ $ $ $ $ $ # 1 1 1 1 , < < , # # # # < < < < @ @ @ @ @ @ @ @ . . . X . . . . $ $ $ $ 8 8 8 8 @ @ @ @ < < < , # # # # wXwXwXwXwXwXwXwXwXwXwXwXwXwXwXwXwXwXwXwXwXwXwXwXwXwXwXwXwXwXwXwXwXwXwXwXwXwXwXwXwXwXwXwXwXwXwXwXwXwXwXwXwXwXwXwXwXwXwXwXwXwXwXwXwXwXwXwXwXwX",
"wXwXwXwXwXwXwXwXwXwXwXwXwXwXwXwXwXwXwXwXwXwXwXwXwXwXwXwXwXwXwXwXwXwXwXwXwXwXwXwXwXwXwXwXwXwXwXwXwXwXwXwXwXwXwXwXwXwXwXwXwXwXwXwXwXwXwXwXwXwXwXwXwXwXwXwXwXwXwXwXwXwXwXwXwXwXwXwXwXwXwXwXwXwXwXwXwXwXwXwXwXwXwXwXwXwXwXwXwXwXwXwXwXwXwXwXwXwXwXwXwXwXwXwXwXwXwXwXwXwXwXwXk k k k q q q q & & & & % % % % o o o o         # # # # @ @ @ @ # # # # # # # # @ @ @ @ @ @ @ @ # # # # 1 1 1 1 < < < < < < < < 6 6 6 6 1 1 1 1 8 8 8 8 8 8 8 8 D D S < < < < $ $ $ $ 7 7 6 7 S D D D S S S S 7 7 7 7 $ $ $ $ $ $ $ # 1 1 1 1 , < , , # # # # < < < < @ @ @ @ @ @ @ @ X X X X . . . . $ $ $ $ 8 8 8 8 @ @ @ @ < < < < # # # # wXwXwXwXwXwXwXwXwXwXwXwXwXwXwXwXwXwXwXwXwXwXwXwXwXwXwXwXwXwXwXwXwXwXwXwXwXwXwXwXwXwXwXwXwXwXwXwXwXwXwXwXwXwXwXwXwXwXwXwXwXwXwXwXwXwXwXwXwXwX",
"wXwXwXwXwXwXwXwXwXwXwXwXwXwXwXwXwXwXwXwXwXwXwXwXwXwXwXwXwXwXwXwXwXwXwXwXwXwXwXwXwXwXwXwXwXwXwXwXwXwXwXwXwXwXwXwXwXwXwXwXwXwXwXwXwXwXwXwXwXwXwXwXwXwXwXwXwXwXwXwXwXwXwXwXwXwXwXwXwXwXwXwXwXwXwXwXwXwXwXwXwXwXwXwXwXwXwXwXwXwXwXwXwXwXwXwXwXwXwXwXwXwXwXwXwXwXwXwXwXwXwXwXk k k k q q q q & & & & % % % % o o o o         # # # # @ @ @ @ # # # # # # # # @ @ @ @ @ @ @ @ # # # # 1 1 1 1 < < < < < < < < 6 6 6 6 1 1 1 1 8 8 8 8 8 8 8 8 D S S < < < < $ $ $ $ 7 7 7 7 S D D D S S S S 7 7 7 7 $ $ $ $ $ $ $ $ 1 1 1 1 , < < , # # # # < < < < @ @ @ @ @ @ @ @ X X X X . . . . $ $ $ $ 8 8 8 8 @ @ @ @ < < < < # # # # wXwXwXwXwXwXwXwXwXwXwXwXwXwXwXwXwXwXwXwXwXwXwXwXwXwXwXwXwXwXwXwXwXwXwXwXwXwXwXwXwXwXwXwXwXwXwXwXwXwXwXwXwXwXwXwXwXwXwXwXwXwXwXwXwXwXwXwXwXwX",
"wXwXwXwXwXwXwXwXwXwXwXwXwXwXwXwXwXwXwXwXwXwXwXwXwXwXwXwXwXwXwXwXwXwXwXwXwXwXwXwXwXwXwXwXwXwXwXwXwXwXwXwXwXwXwXwXwXwXwXwXwXwXwXwXwXwXwXwXwXwXwXwXwXwXwXwXwXwXwXwXwXwXwXwXwXwXwXwXwXwXwXwXwXwXwXwXwXwXwXwXwXwXwXwXwXwXwXwXwXwXwXwXwXwXwXwXwXwXwXwXwXwXwXwXwXwXwXwXwXwXwXwX<.<.9.9.q q w w % % % % o o o o o o o o         # # # # @ @ @ @ # # # $ # # # # # # # # # # # # # # # # 3 3 3 3 , , , , < < < < $ $ $ $ , , , , < < < < S S S S ~ ~ ~ 6 6 6 6 1 1 1 1 1 1 1 1 8 8 8 8 7 8 7 7 , , , , < , , , 7 7 7 7 ^ ~ ~ ~ < < < < = , , , < , , , < < < < @ @ @ @ . . . . X X X . X X X X @ @ @ @ X X X X $ $ $ $ @ # # # wXwXwXwXwXwXwXwXwXwXwXwXwXwXwXwXwXwXwXwXwXwXwXwXwXwXwXwXwXwXwXwXwXwXwXwXwXwXwXwXwXwXwXwXwXwXwXwXwXwXwXwXwXwXwXwXwXwXwXwXwXwXwXwXwXwXwXwXwXwX",
"wXwXwXwXwXwXwXwXwXwXwXwXwXwXwXwXwXwXwXwXwXwXwXwXwXwXwXwXwXwXwXwXwXwXwXwXwXwXwXwXwXwXwXwXwXwXwXwXwXwXwXwXwXwXwXwXwXwXwXwXwXwXwXwXwXwXwXwXwXwXwXwXwXwXwXwXwXwXwXwXwXwXwXwXwXwXwXwXwXwXwXwXwXwXwXwXwXwXwXwXwXwXwXwXwXwXwXwXwXwXwXwXwXwXwXwXwXwXwXwXwXwXwXwXwXwXwXwXwXwXwXwX<.9.9.9.w w w w % % % % o o o o o o o o         # # # # @ @ @ @ # # # # # # # # # # # # # # # # # # # # 3 3 3 3 , , , , < < < < $ $ $ $ , , , , < < < < S S S S ~ ~ ~ 6 6 6 6 1 1 1 1 1 1 1 1 8 8 8 8 7 8 8 7 , , , , < , , , 7 7 7 7 ^ ~ ~ ~ < < < < = , , , < , , , < < < < @ @ @ @ . . . . . X X . X X X X @ @ @ @ X X X X $ $ $ $ @ # # # wXwXwXwXwXwXwXwXwXwXwXwXwXwXwXwXwXwXwXwXwXwXwXwXwXwXwXwXwXwXwXwXwXwXwXwXwXwXwXwXwXwXwXwXwXwXwXwXwXwXwXwXwXwXwXwXwXwXwXwXwXwXwXwXwXwXwXwXwXwX",
"wXwXwXwXwXwXwXwXwXwXwXwXwXwXwXwXwXwXwXwXwXwXwXwXwXwXwXwXwXwXwXwXwXwXwXwXwXwXwXwXwXwXwXwXwXwXwXwXwXwXwXwXwXwXwXwXwXwXwXwXwXwXwXwXwXwXwXwXwXwXwXwXwXwXwXwXwXwXwXwXwXwXwXwXwXwXwXwXwXwXwXwXwXwXwXwXwXwXwXwXwXwXwXwXwXwXwXwXwXwXwXwXwXwXwXwXwXwXwXwXwXwXwXwXwXwXwXwXwXwXwXwX<.<.9.9.w w w w % % % % o o o o o o o o         # # # # @ @ @ @ # # # # # # # # # # # # # # # # # # # # 3 3 3 3 , , , , < < < < , = $ $ , , , , < < < < S S S S ~ ~ ~ 6 6 6 6 1 1 1 1 1 1 1 1 8 8 8 8 7 8 8 7 , , , < < , , , 7 7 7 7 ~ ~ ~ ~ < < < < = = = , < , , , < < < < @ @ @ @ . . . . . X X X X X X X @ @ @ @ X X X X $ $ $ $ @ # # # wXwXwXwXwXwXwXwXwXwXwXwXwXwXwXwXwXwXwXwXwXwXwXwXwXwXwXwXwXwXwXwXwXwXwXwXwXwXwXwXwXwXwXwXwXwXwXwXwXwXwXwXwXwXwXwXwXwXwXwXwXwXwXwXwXwXwXwXwXwX",
"wXwXwXwXwXwXwXwXwXwXwXwXwXwXwXwXwXwXwXwXwXwXwXwXwXwXwXwXwXwXwXwXwXwXwXwXwXwXwXwXwXwXwXwXwXwXwXwXwXwXwXwXwXwXwXwXwXwXwXwXwXwXwXwXwXwXwXwXwXwXwXwXwXwXwXwXwXwXwXwXwXwXwXwXwXwXwXwXwXwXwXwXwXwXwXwXwXwXwXwXwXwXwXwXwXwXwXwXwXwXwXwXwXwXwXwXwXwXwXwXwXwXwXwXwXwXwXwXwXwXwXwX<.<.9.9.w w w w % % % % o o o o o o o o         # # # # @ @ @ @ # # # # # # # # # # # # # # # # # # # # 3 3 3 3 , , , , < < < < , = $ $ , , , , < < < < S S S S ~ ~ ~ 6 6 6 6 1 1 1 1 1 1 1 1 8 8 8 8 7 8 7 7 , , , , < , , , 7 7 7 7 ~ ~ ~ ~ < < < < = = , , < < < < < < < < @ @ @ @ . . . . . X X X X X X X @ @ @ @ X X X X $ $ $ $ @ # # # wXwXwXwXwXwXwXwXwXwXwXwXwXwXwXwXwXwXwXwXwXwXwXwXwXwXwXwXwXwXwXwXwXwXwXwXwXwXwXwXwXwXwXwXwXwXwXwXwXwXwXwXwXwXwXwXwXwXwXwXwXwXwXwXwXwXwXwXwXwX",
"wXwXwXwXwXwXwXwXwXwXwXwXwXwXwXwXwXwXwXwXwXwXwXwXwXwXwXwXwXwXwXwXwXwXwXwXwXwXwXwXwXwXwXwXwXwXwXwXwXwXwXwXwXwXwXwXwXwXwXwXwXwXwXwXwXwXwXwXwXwXwXwXwXwXwXwXwXwXwXwXwXwXwXwXwXwXwXwXwXwXwXwXwXwXwXwXwXwXwXwXwXwXwXwXwXwXwXwXwXwXwXwXwXwXwXwXwXwXwXwXwXwXwXwXwXwXwXwXwXwXwXwX<.<.<.<.w q q q & & & & & & & & & & & & o o o o @ @ @ @ @ @ @ @ @ @ @ @ $ $ # # # # # # $ $ $ # # # # # 1 1 1 1 = = = = $ $ $ $ $ $ $ $ $ , , , < < < < , , , , < < < 3 3 3 3 3 3 3 3 S S S S 7 7 7 7 8 8 8 8 3 1 1 1 < < < < S S S S S S D D , , , , # # # # < < < < @ @ @ @ # # # # . . . .         @ @ @ @ , , , , @ @ @ @ , , , , @ @ @ @ wXwXwXwXwXwXwXwXwXwXwXwXwXwXwXwXwXwXwXwXwXwXwXwXwXwXwXwXwXwXwXwXwXwXwXwXwXwXwXwXwXwXwXwXwXwXwXwXwXwXwXwXwXwXwXwXwXwXwXwXwXwXwXwXwXwXwXwXwXwX",
"wXwXwXwXwXwXwXwXwXwXwXwXwXwXwXwXwXwXwXwXwXwXwXwXwXwXwXwXwXwXwXwXwXwXwXwXwXwXwXwXwXwXwXwXwXwXwXwXwXwXwXwXwXwXwXwXwXwXwXwXwXwXwXwXwXwXwXwXwXwXwXwXwXwXwXwXwXwXwXwXwXwXwXwXwXwXwXwXwXwXwXwXwXwXwXwXwXwXwXwXwXwXwXwXwXwXwXwXwXwXwXwXwXwXwXwXwXwXwXwXwXwXwXwXwXwXwXwXwXwXwXwX<.<.<.<.w q q q & & & & & & & & & & & & o o o o @ @ @ @ @ @ @ @ @ @ @ @ $ $ # # # # # # $ $ $ $ # # # # 1 1 1 1 = = = = $ $ $ $ $ $ $ $ , , , , < < < < , , , , < < < 3 3 1 3 3 3 3 3 S S S S 7 7 7 7 8 8 8 8 3 1 1 1 < < < < S S S S S S S S , , , , # # # $ < < < < @ @ @ @ # # # # . . . .         @ @ @ @ , , , , @ @ @ @ , , , , @ @ @ @ wXwXwXwXwXwXwXwXwXwXwXwXwXwXwXwXwXwXwXwXwXwXwXwXwXwXwXwXwXwXwXwXwXwXwXwXwXwXwXwXwXwXwXwXwXwXwXwXwXwXwXwXwXwXwXwXwXwXwXwXwXwXwXwXwXwXwXwXwXwX",
"wXwXwXwXwXwXwXwXwXwXwXwXwXwXwXwXwXwXwXwXwXwXwXwXwXwXwXwXwXwXwXwXwXwXwXwXwXwXwXwXwXwXwXwXwXwXwXwXwXwXwXwXwXwXwXwXwXwXwXwXwXwXwXwXwXwXwXwXwXwXwXwXwXwXwXwXwXwXwXwXwXwXwXwXwXwXwXwXwXwXwXwXwXwXwXwXwXwXwXwXwXwXwXwXwXwXwXwXwXwXwXwXwXwXwXwXwXwXwXwXwXwXwXwXwXwXwXwXwXwXwXwX<.<.<.<.w w q q & & & & & & & & & & & & o o o o @ @ @ @ @ @ @ @ @ @ @ @ $ # # # # # # # # $ # # # # # # 1 1 1 1 , , = = = = $ $ $ $ = , $ $ , , < < < < , , , , < < < 1 3 3 3 3 3 3 1 S S S S 7 7 7 7 8 8 8 8 3 1 1 1 < < < < S S S S S S S S , , , , # # # # < < < < @ @ @ @ # # # # . . . .         @ @ @ @ , , , , @ @ @ @ , , , , @ @ @ @ wXwXwXwXwXwXwXwXwXwXwXwXwXwXwXwXwXwXwXwXwXwXwXwXwXwXwXwXwXwXwXwXwXwXwXwXwXwXwXwXwXwXwXwXwXwXwXwXwXwXwXwXwXwXwXwXwXwXwXwXwXwXwXwXwXwXwXwXwXwX",
"wXwXwXwXwXwXwXwXwXwXwXwXwXwXwXwXwXwXwXwXwXwXwXwXwXwXwXwXwXwXwXwXwXwXwXwXwXwXwXwXwXwXwXwXwXwXwXwXwXwXwXwXwXwXwXwXwXwXwXwXwXwXwXwXwXwXwXwXwXwXwXwXwXwXwXwXwXwXwXwXwXwXwXwXwXwXwXwXwXwXwXwXwXwXwXwXwXwXwXwXwXwXwXwXwXwXwXwXwXwXwXwXwXwXwXwXwXwXwXwXwXwXwXwXwXwXwXwXwXwXwXwX<.<.<.<.w w q q & & & & & & & & & & & & o o o o @ @ @ @ @ @ @ @ @ @ @ @ $ $ # # # # # # # # # # # # # # 1 1 1 1 , , = = , $ $ $ $ $ $ , $ $ = , < < < < , , , , < < < 1 3 3 3 3 3 1 1 S S S S 7 7 7 7 8 8 8 8 3 1 1 1 < < < < S S S S S S S S , , , , # # # # < < < < @ @ @ @ # # # # . . . .         @ @ @ @ , , , , @ @ @ @ , , , , @ @ @ @ wXwXwXwXwXwXwXwXwXwXwXwXwXwXwXwXwXwXwXwXwXwXwXwXwXwXwXwXwXwXwXwXwXwXwXwXwXwXwXwXwXwXwXwXwXwXwXwXwXwXwXwXwXwXwXwXwXwXwXwXwXwXwXwXwXwXwXwXwXwX",
"wXwXwXwXwXwXwXwXwXwXwXwXwXwXwXwXwXwXwXwXwXwXwXwXwXwXwXwXwXwXwXwXwXwXwXwXwXwXwXwXwXwXwXwXwXwXwXwXwXwXwXwXwXwXwXwXwXwXwXwXwXwXwXwXwXwXwXwXwXwXwXwXwXwXwXwXwXwXwXwXwXwXwXwXwXwXwXwXwXwXwXwXwXwXwXwXwXwXwXwXwXwXwXwXwXwXwXwXwXwXwXwXwXwXwXwXwXwXwXwXwXwXwXwXwXwXwXwXeXeXeXwX<.<.<.<.k k k k k k k k q q q q & & & & o o o o @ @ @ @ ^ ^ ^ ^ 8 8 8 8 @ @ @ @ # # # # # # # # # # # # 7 7 7 7 # # # # , , $ $ $ $ , , $ $ , , , , $ $ $ $ $ , , , $ $ = = , , , , $ S S S S < < < < 1 1 1 1 6 6 6 6 7 7 7 7 S S S 8 S S S S < < < , $ $ $ $ , , , , @ @ @ @ @ @ @ @   . . . . . . . . . . . @ @ @ @ @ @ @ @ < < < < @ @ @ @ wXwXwXwXwXwXwXwXwXwXwXwXwXwXwXwXwXwXwXwXwXwXwXwXwXwXwXwXwXwXwXwXwXwXwXwXwXwXwXwXwXwXwXwXwXwXwXwXwXwXwXwXwXwXwXwXwXwXwXwXwXwXwXwXwXwXwXwXwXwX",
"wXwXwXwXwXwXwXwXwXwXwXwXwXwXwXwXwXwXwXwXwXwXwXwXwXwXwXwXwXwXwXwXwXwXwXwXwXwXwXwXwXwXwXwXwXwXwXwXwXwXwXwXwXwXwXwXwXwXwXwXwXwXwXwXwXwXwXwXwXwXwXwXwXwXwXwXwXwXwXwXwXwXwXwXwXwXwXwXwXwXwXwXwXwXwXwXwXwXwXwXwXwXwXwXwXwXwXwXwXwXwXwXwXwXwXwXwXwXwXwXwXwXwXwXwXwXwXwXeXeXeXeX<.<.<.<.k k k k k k k k q q q q & & & & o o o o @ @ @ @ ^ ^ ^ ^ 8 8 8 8 @ @ @ @ # # # # # # # # # # # # 7 7 7 7 # # # # , , $ $ $ $ , , $ $ , , , , $ $ $ $ $ $ , , $ $ = = , , , , $ S S S S < < < < 1 1 1 1 6 6 6 6 7 7 7 7 S S S 8 S S S S < < < , $ $ $ $ , , , , @ @ @ @ @ @ @ @   . . . . . . . . . . . @ @ @ @ @ @ @ @ < < < < @ @ @ @ wXwXwXwXwXwXwXwXwXwXwXwXwXwXwXwXwXwXwXwXwXwXwXwXwXwXwXwXwXwXwXwXwXwXwXwXwXwXwXwXwXwXwXwXwXwXwXwXwXwXwXwXwXwXwXwXwXwXwXwXwXwXwXwXwXwXwXwXwXwX",
"wXwXwXwXwXwXwXwXwXwXwXwXwXwXwXwXwXwXwXwXwXwXwXwXwXwXwXwXwXwXwXwXwXwXwXwXwXwXwXwXwXwXwXwXwXwXwXwXwXwXwXwXwXwXwXwXwXwXwXwXwXwXwXwXwXwXwXwXwXwXwXwXwXwXwXwXwXwXwXwXwXwXwXwXwXwXwXwXwXwXwXwXwXwXwXwXwXwXwXwXwXwXwXwXwXwXwXwXwXwXwXwXwXwXwXwXwXwXwXwXwXwXwXwXwXwXwXwXeXeXeXeX<.<.,.<.k k k k k k k k q q q q & & & & o o o o @ @ @ @ ^ ^ ^ ^ 8 8 8 8 @ @ @ @ # # # # $ $ $ $ # # # # 7 7 7 7 # # # # , , , $ $ = , , $ $ $ , = $ $ $ $ $ $ $ , , , $ = = = = , = $ S S S S < < < < 1 1 1 1 6 6 6 6 7 7 7 7 S 8 8 8 S S S S < < < < $ $ $ $ , = = , @ @ @ @ @ @ @ @ . . . . . . . . . . . . # @ @ @ @ @ @ @ < < < < @ @ @ @ wXwXwXwXwXwXwXwXwXwXwXwXwXwXwXwXwXwXwXwXwXwXwXwXwXwXwXwXwXwXwXwXwXwXwXwXwXwXwXwXwXwXwXwXwXwXwXwXwXwXwXwXwXwXwXwXwXwXwXwXwXwXwXwXwXwXwXwXwXwX",
"wXwXwXwXwXwXwXwXwXwXwXwXwXwXwXwXwXwXwXwXwXwXwXwXwXwXwXwXwXwXwXwXwXwXwXwXwXwXwXwXwXwXwXwXwXwXwXwXwXwXwXwXwXwXwXwXwXwXwXwXwXwXwXwXwXwXwXwXwXwXwXwXwXwXwXwXwXwXwXwXwXwXwXwXwXwXwXwXwXwXwXwXwXwXwXwXwXwXwXwXwXwXwXwXwXwXwXwXwXwXwXwXwXwXwXwXwXwXwXwXwXwXwXwXwXwXwXwXeXeXeXeX<.<.,.,.s k k k k k k k q q q q & & & & o o o o @ @ @ @ ^ ^ ^ ^ 8 8 8 8 @ @ @ @ # # # # $ $ $ $ $ # # # 7 7 7 7 # # # # , , = = $ $ , , $ $ $ , $ $ $ $ $ $ $ $ , , = $ = = = = , = $ S S S S < < < < 1 1 1 1 6 6 6 6 7 7 7 7 S 8 8 8 S S S S < < < , $ $ $ $ = = = , @ @ @ @ @ @ @ @ . . . . . . . . . . . . # @ @ @ @ @ @ @ < < < < @ @ @ @ wXwXwXwXwXwXwXwXwXwXwXwXwXwXwXwXwXwXwXwXwXwXwXwXwXwXwXwXwXwXwXwXwXwXwXwXwXwXwXwXwXwXwXwXwXwXwXwXwXwXwXwXwXwXwXwXwXwXwXwXwXwXwXwXwXwXwXwXwXwX",
"wXwXwXwXwXwXwXwXwXwXwXwXwXwXwXwXwXwXwXwXwXwXwXwXwXwXwXwXwXwXwXwXwXwXwXwXwXwXwXwXwXwXwXwXwXwXwXwXwXwXwXwXwXwXwXwXwXwXwXwXwXwXwXwXwXwXwXwXwXwXwXwXwXwXwXwXwXwXwXwXwXwXwXwXwXwXwXwXwXwXwXwXwXwXwXwXwXwXwXwXwXwXwXwXwXwXwXwXwXwXwXwXwXwXwXwXwXwXwXwXwXwXwXwXwXwXwXwXwXwXwXwXr.r.r.r.r.r.r.r.g.g.g.g.q q q q 9 9 9 9 o o o o         @ @ @ @ fXfXfXfX@ @ @ @ @ @ @ @ # # # # , , , , , , , , # # # # # # @ @ < < < < = $ $ $ < < < < # # # # $ $ $ , , , , , = = = S 8 8 8 S S S S 7 7 7 7 < < < < < < < < S S S S 8 8 8 8 6 7 7 7 ( ( ( ( , , , , 3 3 1 3 @ @ @ @ . . . . . . .   . . . . @ @ @ @ ~ ~ ~ ~ $ $ $ $ # @ @ @ wXwXwXwXwXwXwXwXwXwXwXwXwXwXwXwXwXwXwXwXwXwXwXwXwXwXwXwXwXwXwXwXwXwXwXwXwXwXwXwXwXwXwXwXwXwXwXwXwXwXwXwXwXwXwXwXwXwXwXwXwXwXwXwXwXwXwXwXwXwX",
"wXwXwXwXwXwXwXwXwXwXwXwXwXwXwXwXwXwXwXwXwXwXwXwXwXwXwXwXwXwXwXwXwXwXwXwXwXwXwXwXwXwXwXwXwXwXwXwXwXwXwXwXwXwXwXwXwXwXwXwXwXwXwXwXwXwXwXwXwXwXwXwXwXwXwXwXwXwXwXwXwXwXwXwXwXwXwXwXwXwXwXwXwXwXwXwXwXwXwXwXwXwXwXwXwXwXwXwXwXwXwXwXwXwXwXwXwXwXwXwXwXwXwXwXwXwXwXwXwXwXwXwXr.r.r.r.r.r.r.r.q.q.g.g.q q q q 9 9 9 9 o o o o         @ @ @ @ fXfXfXfX@ @ @ @ @ @ @ @ # # # # , , , , , , , , # # # # # # # @ < < < < = $ $ $ < < < < # # # # $ $ $ , , , , = = = = S S 8 8 S S S S 7 7 7 7 < < < < < < < < S S S S 8 8 8 8 6 7 7 7 ( ( ( ( , , , , 3 1 1 3 @ @ @ @ . . . . . . .   . . . . @ @ @ @ ~ ~ ~ ~ $ $ $ $ # @ @ @ wXwXwXwXwXwXwXwXwXwXwXwXwXwXwXwXwXwXwXwXwXwXwXwXwXwXwXwXwXwXwXwXwXwXwXwXwXwXwXwXwXwXwXwXwXwXwXwXwXwXwXwXwXwXwXwXwXwXwXwXwXwXwXwXwXwXwXwXwXwX",
"wXwXwXwXwXwXwXwXwXwXwXwXwXwXwXwXwXwXwXwXwXwXwXwXwXwXwXwXwXwXwXwXwXwXwXwXwXwXwXwXwXwXwXwXwXwXwXwXwXwXwXwXwXwXwXwXwXwXwXwXwXwXwXwXwXwXwXwXwXwXwXwXwXwXwXwXwXwXwXwXwXwXwXwXwXwXwXwXwXwXwXwXwXwXwXwXwXwXwXwXwXwXwXwXwXwXwXwXwXwXwXwXwXwXwXwXwXwXwXwXwXwXwXwXwXwXwXwXwXwXwXwXr.r.r.r.r.r.r.r.q.q.q.q.q q q q 9 9 9 9 o o o o         # # @ @ fXfXfXfX@ @ @ @ @ @ @ @ # # # # , , , , , , , , # # # # # # @ @ < < < < = = $ $ < < < < # # # # $ $ $ , , , , = = = $ 8 S S 8 S S S S 7 7 7 7 < < < < < < < < S S S S 8 8 8 8 6 7 7 7 ( ( ( ( , , , , 3 1 1 1 @ @ @ @ . . . . . .     . . . . @ @ @ @ ~ ~ ~ ~ $ $ $ $ # @ @ @ wXwXwXwXwXwXwXwXwXwXwXwXwXwXwXwXwXwXwXwXwXwXwXwXwXwXwXwXwXwXwXwXwXwXwXwXwXwXwXwXwXwXwXwXwXwXwXwXwXwXwXwXwXwXwXwXwXwXwXwXwXwXwXwXwXwXwXwXwXwX",
"wXwXwXwXwXwXwXwXwXwXwXwXwXwXwXwXwXwXwXwXwXwXwXwXwXwXwXwXwXwXwXwXwXwXwXwXwXwXwXwXwXwXwXwXwXwXwXwXwXwXwXwXwXwXwXwXwXwXwXwXwXwXwXwXwXwXwXwXwXwXwXwXwXwXwXwXwXwXwXwXwXwXwXwXwXwXwXwXwXwXwXwXwXwXwXwXwXwXwXwXwXwXwXwXwXwXwXwXwXwXwXwXwXwXwXwXwXwXwXwXwXwXwXwXwXwXwXwXwXwXwXwXr.r.r.r.4.4.4.4.q q q q 9 9 9 9 % % % % o o o o         fXfXfXfX< < < < @ @ @ @ @ @ @ @ # # # # # # # # # # # # # # # # # # # # # # $ $ # # # # $ $ $ $ , , , , = , , $ $ $ $ # # # # # # # # 1 1 1 3 8 8 8 8 1 1 1 1 7 6 6 6 G G G G ^ ^ ^ ^ 8 8 8 8 6 6 6 6 < < 1 1 7 7 7 7 # $ $ $ # # @ @ . . . . . . . . . . . . . . . . , < < < < , , , X X X X wXwXwXwXwXwXwXwXwXwXwXwXwXwXwXwXwXwXwXwXwXwXwXwXwXwXwXwXwXwXwXwXwXwXwXwXwXwXwXwXwXwXwXwXwXwXwXwXwXwXwXwXwXwXwXwXwXwXwXwXwXwXwXwXwXwX",
"wXwXwXwXwXwXwXwXwXwXwXwXwXwXwXwXwXwXwXwXwXwXwXwXwXwXwXwXwXwXwXwXwXwXwXwXwXwXwXwXwXwXwXwXwXwXwXwXwXwXwXwXwXwXwXwXwXwXwXwXwXwXwXwXwXwXwXwXwXwXwXwXwXwXwXwXwXwXwXwXwXwXwXwXwXwXwXwXwXwXwXwXwXwXwXwXwXwXwXwXwXwXwXwXwXwXwXwXwXwXwXwXwXwXwXwXwXwXwXwXwXwXwXwXwXwXwXwXwXwXwXwXr.r.r.r.4.4.4.4.q q q q 9 9 9 9 % % % % o o o o         fXfXfXfX1 1 < < @ @ @ @ @ @ @ @ # # # # # # # # # # # # # # # # # # # # # # # $ # # # $ $ $ $ $ , , , , $ $ = $ $ $ $ # # # # # # # # 3 3 3 3 8 8 8 8 1 1 1 1 7 7 7 7 G G G G ^ ^ ^ ^ 8 8 8 8 6 6 6 6 < < < 1 7 7 7 7 $ $ $ $ # # # # . . . . . . . . . . . . . . . . , < , , , , , , X X X X wXwXwXwXwXwXwXwXwXwXwXwXwXwXwXwXwXwXwXwXwXwXwXwXwXwXwXwXwXwXwXwXwXwXwXwXwXwXwXwXwXwXwXwXwXwXwXwXwXwXwXwXwXwXwXwXwXwXwXwXwXwXwXwXwXwX",
"wXwXwXwXwXwXwXwXwXwXwXwXwXwXwXwXwXwXwXwXwXwXwXwXwXwXwXwXwXwXwXwXwXwXwXwXwXwXwXwXwXwXwXwXwXwXwXwXwXwXwXwXwXwXwXwXwXwXwXwXwXwXwXwXwXwXwXwXwXwXwXwXwXwXwXwXwXwXwXwXwXwXwXwXwXwXwXwXwXwXwXwXwXwXwXwXwXwXwXwXwXwXwXwXwXwXwXwXwXwXwXwXwXwXwXwXwXwXwXwXwXwXwXwXwXwXwXwXwXwXwXwXr.r.r.r.4.4.4.4.q q q q 9 9 9 9 % % % % o o o o         fXfXfXfX1 1 < 1 @ @ @ @ @ @ @ @ # # # # # # # # # # # # # # # # # # # # # # # # # # $ $ $ $ $ $ , , , , $ $ , $ $ $ $ # # # # # # # # 3 3 1 3 8 8 8 8 1 1 1 1 6 7 7 7 G G G G ^ ^ ^ ^ 8 8 8 8 6 6 6 3 < < < 1 7 7 7 7 $ $ $ $ # # # # . . . . . . . . . . . . . . . . , , , , , , , , X X X X wXwXwXwXwXwXwXwXwXwXwXwXwXwXwXwXwXwXwXwXwXwXwXwXwXwXwXwXwXwXwXwXwXwXwXwXwXwXwXwXwXwXwXwXwXwXwXwXwXwXwXwXwXwXwXwXwXwXwXwXwXwXwXwXwXwX",
"wXwXwXwXwXwXwXwXwXwXwXwXwXwXwXwXwXwXwXwXwXwXwXwXwXwXwXwXwXwXwXwXwXwXwXwXwXwXwXwXwXwXwXwXwXwXwXwXwXwXwXwXwXwXwXwXwXwXwXwXwXwXwXwXwXwXwXwXwXwXwXwXwXwXwXwXwXwXwXwXwXwXwXwXwXwXwXwXwXwXwXwXwXwXwXwXwXwXwXwXwXwXwXwXwXwXwXwXwXwXwXwXwXwXwXwXwXwXwXwXwXwXwXwXwXwXwXwXeXeXeXwXr.r.r.r.4.4.4.4.q q q q 9 9 9 9 % % % % o o o o         fXfXfXfX1 1 1 1 @ @ @ @ @ @ @ @ # # # # # # # # # # # # # # # # # # # # # # # # $ $ $ $ $ $ $ $ , , , , = = = $ $ $ $ # # # # # $ # # 3 1 1 1 8 8 8 8 1 1 1 1 6 6 6 7 G G G G ^ ^ ^ ^ 8 8 8 8 6 6 6 6 < < < < 7 7 7 7 $ # # $ # # # @ . . . . . . . . . . . . . . . . , , , , , , , , X X X X wXwXwXwXwXwXwXwXwXwXwXwXwXwXwXwXwXwXwXwXwXwXwXwXwXwXwXwXwXwXwXwXwXwXwXwXwXwXwXwXwXwXwXwXwXwXwXwXwXwXwXwXwXwXwXwXwXwXwXwXwXwXwXwXwXwX",
"wXwXwXwXwXwXwXwXwXwXwXwXwXwXwXwXwXwXwXwXwXwXwXwXwXwXwXwXwXwXwXwXwXwXwXwXwXwXwXwXwXwXwXwXwXwXwXwXwXwXwXwXwXwXwXwXwXwXwXwXwXwXwXwXwXwXwXwXwXwXwXwXwXwXwXwXwXwXwXwXwXwXwXwXwXwXwXwXwXwXwXwXwXwXwXwXwXwXwXwXwXwXwXwXwXwXwXwXwXwXwXwXwXwXwXwXwXwXwXwXwXwXwXwXwXwXwXwXeXeXeXwXl.l.q.q.<.<.<.<.r r r r 9 9 9 9 % % % %         . .   . iXiXiXiX^ ^ ^ ^ @ @ @ @ @ @ @ @ # # # # # # # # @ @ # # # # # # # # # # $ = = = $ $ $ $ $ = = , $ $ = = $ $ $ , , , , , , , , , , , , < < < < $ $ $ $ , , , , 8 8 8 8 G G G G G G G G S S S S 6 3 3 3 , , , , , , , , # # # # @ @ @ @ @ @ @ @ . . . . . . . . X X X X , , , , @ @ @ @ , , , , @ @ @ wXwXwXwXwXwXwXwXwXwXwXwXwXwXwXwXwXwXwXwXwXwXwXwXwXwXwXwXwXwXwXwXwXwXwXwXwXwXwXwXwXwXwXwXwXwXwXwXwXwXwXwXwXwXwXwXwXwXwXwXwXwXwX",
"wXwXwXwXwXwXwXwXwXwXwXwXwXwXwXwXwXwXwXwXwXwXwXwXwXwXwXwXwXwXwXwXwXwXwXwXwXwXwXwXwXwXwXwXwXwXwXwXwXwXwXwXwXwXwXwXwXwXwXwXwXwXwXwXwXwXwXwXwXwXwXwXwXwXwXwXwXwXwXwXwXwXwXwXwXwXwXwXwXwXwXwXwXwXwXwXwXwXwXwXwXwXwXwXwXwXwXwXwXwXwXwXwXwXwXwXwXwXwXwXwXwXwXwXwXwXwXwXwXwXwXwXg.g.g.q.<.<.<.<.r r r r 9 9 9 9 % % % %           .     iXiXiXiX~ ~ ~ ~ @ @ @ @ @ @ @ @ @ @ @ # # # # # # # # # # # # # # # # # = = = = $ $ $ $ = = , , $ $ , , $ $ $ , , , , , , , , , , , , < < < < $ $ $ = , , , , 8 8 8 8 G G G G G G G G S S S S 6 3 3 3 , , , , , , , $ # # # # @ @ @ @ @ @ @ @ . . . . . . . . X X X X , , , , @ @ @ @ , , , , @ @ @ wXwXwXwXwXwXwXwXwXwXwXwXwXwXwXwXwXwXwXwXwXwXwXwXwXwXwXwXwXwXwXwXwXwXwXwXwXwXwXwXwXwXwXwXwXwXwXwXwXwXwXwXwXwXwXwXwXwXwXwXwXwXwX",
"wXwXwXwXwXwXwXwXwXwXwXwXwXwXwXwXwXwXwXwXwXwXwXwXwXwXwXwXwXwXwXwXwXwXwXwXwXwXwXwXwXwXwXwXwXwXwXwXwXwXwXwXwXwXwXwXwXwXwXwXwXwXwXwXwXwXwXwXwXwXwXwXwXwXwXwXwXwXwXwXwXwXwXwXwXwXwXwXwXwXwXwXwXwXwXwXwXwXwXwXwXwXwXwXwXwXwXwXwXwXwXwXwXwXwXwXwXwXwXwXwXwXwXwXwXwXwXwXwXwXwXwXg.g.g.g.<.<.<.<.r r r r 9 9 9 9 % % % %         .   .   iXiXiXiX~ ~ ~ ~ @ @ @ @ @ @ @ @ @ @ @ # # # # # # # # # # # # # # # # # = = = = $ $ $ $ = = , , $ $ = = $ $ $ , , , , , , , , , , , , < < < < $ $ $ = , , , , 8 8 8 8 G G G G G G G G S S S S 6 3 3 3 , , , , , , , = # # # $ @ @ @ @ @ @ @ @ . . . . . . . . X X X X , < , , @ @ @ @ , , , , @ @ @ wXwXwXwXwXwXwXwXwXwXwXwXwXwXwXwXwXwXwXwXwXwXwXwXwXwXwXwXwXwXwXwXwXwXwXwXwXwXwXwXwXwXwXwXwXwXwXwXwXwXwXwXwXwXwXwXwXwXwXwXwXwXwX",
"wXwXwXwXwXwXwXwXwXwXwXwXwXwXwXwXwXwXwXwXwXwXwXwXwXwXwXwXwXwXwXwXwXwXwXwXwXwXwXwXwXwXwXwXwXwXwXwXwXwXwXwXwXwXwXwXwXwXwXwXwXwXwXwXwXwXwXwXwXwXwXwXwXwXwXwXwXwXwXwXwXwXwXwXwXwXwXwXwXwXwXwXwXwXwXwXwXwXwXwXwXwXwXwXwXwXwXwXwXwXwXwXwXwXwXwXwXwXwXwXwXwXwXwXwXwXwXwXwXwXwXwXg.g.g.g.<.<.<.<.r r r r 9 9 9 9 % % % %         .     . iXiXiXiX~ ~ ~ ~ @ @ @ @ @ @ @ @ @ @ @ @ # # # # # # # # # # # # # # # # , , = = $ $ $ $ = , , , $ $ = , $ $ $ , , , , , , , , , , , , < < < < = $ $ $ , , , , 8 8 8 8 G G G G G G G G S S S S 6 3 3 1 , , , , , , = = # $ $ $ @ @ @ @ @ @ @ @ . . . . . . . . X X X X , , , , @ @ @ @ , < < < @ @ @ wXwXwXwXwXwXwXwXwXwXwXwXwXwXwXwXwXwXwXwXwXwXwXwXwXwXwXwXwXwXwXwXwXwXwXwXwXwXwXwXwXwXwXwXwXwXwXwXwXwXwXwXwXwXwXwXwXwXwXwXwXwXwX",
"wXwXwXwXwXwXwXwXwXwXwXwXwXwXwXwXwXwXwXwXwXwXwXwXwXwXwXwXwXwXwXwXwXwXwXwXwXwXwXwXwXwXwXwXwXwXwXwXwXwXwXwXwXwXwXwXwXwXwXwXwXwXwXwXwXwXwXwXwXwXwXwXwXwXwXwXwXwXwXwXwXwXwXwXwXwXwXwXwXwXwXwXwXwXwXwXwXwXwXwXwXwXwXwXwXwXwXwXwXwXwXwXwXwXwXwXwXwXwXwXwXwXwXwXwXwXwXwXwXwXwXwXwXwXwXwX6X6X6X6Xk k s k w q q q % % % %                 yXyXyXyXyXyXyXyX@ @ @ @ @ @ @ @ @ @ @ @ # # # # @ @ @ @ # # $ $ # # # # , = = = $ $ $ $ # # # # # # # # # # # = , , = , , , , $ $ $ $ < < < < < < < < < < < < 6 6 6 6 < < < < < < < < 8 8 7 8 S S S S < < < < S S S S , < < < @ @ @ @ X X X X @ @ @ @ . . . . . . . . S S S S X X X X $ $ $ $ @ @ @ X X X X wXwXwXwXwXwXwXwXwXwXwXwXwXwXwXwXwXwXwXwXwXwXwXwXwXwXwXwXwXwXwXwXwXwXwXwXwXwXwXwXwXwXwXwXwXwXwXwXwXwXwXwXwXwXwXwXwXwXwX",
"wXwXwXwXwXwXwXwXwXwXwXwXwXwXwXwXwXwXwXwXwXwXwXwXwXwXwXwXwXwXwXwXwXwXwXwXwXwXwXwXwXwXwXwXwXwXwXwXwXwXwXwXwXwXwXwXwXwXwXwXwXwXwXwXwXwXwXwXwXwXwXwXwXwXwXwXwXwXwXwXwXwXwXwXwXwXwXwXwXwXwXwXwXwXwXwXwXwXwXwXwXwXwXwXwXwXwXwXwXwXwXwXwXwXwXwXwXwXwXwXwXwXwXwXwXwXwXwXwXwXwXwXwXwXwXwXeX6XeXeXk k k k w q w w % % % %                 yXyXyXyXyXyXyXyX@ @ @ @ @ @ @ @ @ @ @ @ # # # # @ @ @ @ # $ $ $ # # # # , , , , # # # # $ # # # # $ $ $ # # # $ $ $ $ , , , , $ $ $ $ < < < < < < < < < < < < 6 6 6 6 1 < < < < < < < 8 7 7 7 S S S S < < < < S S S S , < < , @ @ @ @ X X X X @ @ @ @ . . . . . . .   S S S S X X X X $ $ $ $ @ @ @ X X X X wXwXwXwXwXwXwXwXwXwXwXwXwXwXwXwXwXwXwXwXwXwXwXwXwXwXwXwXwXwXwXwXwXwXwXwXwXwXwXwXwXwXwXwXwXwXwXwXwXwXwXwXwXwXwXwXwXwXwX",
"wXwXwXwXwXwXwXwXwXwXwXwXwXwXwXwXwXwXwXwXwXwXwXwXwXwXwXwXwXwXwXwXwXwXwXwXwXwXwXwXwXwXwXwXwXwXwXwXwXwXwXwXwXwXwXwXwXwXwXwXwXwXwXwXwXwXwXwXwXwXwXwXwXwXwXwXwXwXwXwXwXwXwXwXwXwXwXwXwXwXwXwXwXwXwXwXwXwXwXwXwXwXwXwXwXwXwXwXwXwXwXwXwXwXwXwXwXwXwXwXwXwXwXwXwXwXwXwXwXwXwXwXwXwXwXwXeX6XeXeXk k k k q q w w % % % %                 yXyXyXyXyXyXyXyX@ @ @ @ @ @ @ @ @ @ @ @ # # # # @ @ @ @ # # $ $ # # # # , , , , # # # # $ # # # # $ $ $ # # # = $ $ = , , , , $ $ $ $ < < < < < < < < < < < < 6 6 6 6 1 < < 1 < < < < 8 7 7 7 S S S S < < < < S S S S , < < , @ @ @ @ X X X X @ @ @ @ . . . .   . .   S S S S X X X X $ $ $ $ @ @ @ X X X X wXwXwXwXwXwXwXwXwXwXwXwXwXwXwXwXwXwXwXwXwXwXwXwXwXwXwXwXwXwXwXwXwXwXwXwXwXwXwXwXwXwXwXwXwXwXwXwXwXwXwXwXwXwXwXwXwXwXwX",
"wXwXwXwXwXwXwXwXwXwXwXwXwXwXwXwXwXwXwXwXwXwXwXwXwXwXwXwXwXwXwXwXwXwXwXwXwXwXwXwXwXwXwXwXwXwXwXwXwXwXwXwXwXwXwXwXwXwXwXwXwXwXwXwXwXwXwXwXwXwXwXwXwXwXwXwXwXwXwXwXwXwXwXwXwXwXwXwXwXwXwXwXwXwXwXwXwXwXwXwXwXwXwXwXwXwXwXwXwXwXwXwXwXwXwXwXwXwXwXwXwXwXwXwXwXwXwXwXwXwXwXwXwXwXwXwXeXeXeXeXk k k k w w w w % % % %                 yXyXyXyXyXyXyXyX@ @ @ @ @ @ @ @ @ @ @ @ # # # # @ @ @ @ # # # # # # # # $ $ = = # # $ # # # # # # # $ $ # # # = $ $ $ , , , , $ $ $ $ < < < < < < < < < < < < 6 6 6 6 1 1 1 1 < < < < 7 7 7 7 S S S S < < < < S S S S , , , , @ @ @ @ X X X X @ @ @ @ . . . .   . . . S S S S X X X X $ $ $ $ @ @ @ X X X X wXwXwXwXwXwXwXwXwXwXwXwXwXwXwXwXwXwXwXwXwXwXwXwXwXwXwXwXwXwXwXwXwXwXwXwXwXwXwXwXwXwXwXwXwXwXwXwXwXwXwXwXwXwXwXwXwXwXwX",
"wXwXwXwXwXwXwXwXwXwXwXwXwXwXwXwXwXwXwXwXwXwXwXwXwXwXwXwXwXwXwXwXwXwXwXwXwXwXwXwXwXwXwXwXwXwXwXwXwXwXwXwXwXwXwXwXwXwXwXwXwXwXwXwXwXwXwXwXwXwXwXwXwXwXwXwXwXwXwXwXwXwXwXwXwXwXwXwXwXwXwXwXwXwXwXwXwXwXwXwXwXwXwXwXwXwXwXwXwXwXwXwXwXwXwXwXwXwXwXwXwXwXwXwXwXwXwXwXwXwXwXwXwXwXwXwXy y y y r r r r q q w w % % % %                 yXyXyXyXiXiXiXiX@ @ @ @ @ @ @ @ @ @ @ @ # # # # # # # # # # # # # # # # # # # # # # $ # , , , , # # # # # # # # # # # 1 1 1 1 # # # # , , , , 6 6 6 6 < < < < $ $ $ = 6 6 6 6 1 1 1 1 D D D D 8 8 8 8 J J J J 6 6 6 6 = = = = @ @ @ @ @ @ @ O X X X X         @ @ @ @ X X X X . . . X # # # # . . . . . . . wXwXwXwXwXwXwXwXwXwXwXwXwXwXwXwXwXwXwXwXwXwXwXwXwXwXwXwXwXwXwXwXwXwXwXwXwXwXwXwXwXwXwXwXwXwXwXwXwXwXwXwXwXwXwXwXwXwXwX",
"wXwXwXwXwXwXwXwXwXwXwXwXwXwXwXwXwXwXwXwXwXwXwXwXwXwXwXwXwXwXwXwXwXwXwXwXwXwXwXwXwXwXwXwXwXwXwXwXwXwXwXwXwXwXwXwXwXwXwXwXwXwXwXwXwXwXwXwXwXwXwXwXwXwXwXwXwXwXwXwXwXwXwXwXwXwXwXwXwXwXwXwXwXwXwXwXwXwXwXwXwXwXwXwXwXwXwXwXwXwXwXwXwXwXwXwXwXwXwXwXwXwXwXwXwXwXwXwXwXwXwXwXwXwXwXwXy y y y r r r r q q q q % % % %                 yXyXyXyXiXiXiXiX@ @ @ @ @ @ @ @ @ @ O O @ @ @ @ @ @ @ # # # # # # # # $ # # # # $ $ # # , , , , # # # # # $ # # # # # 1 1 1 1 # # # # , , , , 6 6 6 6 < < < < $ $ $ $ 6 6 6 6 < < < < D D D D 8 8 8 8 J J J J 6 6 6 6 , , , $ @ @ @ @ @ @ @ @ X X X X     . . @ @ @ @ @ X X X . X X X $ # # # . . . . . . . wXwXwXwXwXwXwXwXwXwXwXwXwXwXwXwXwXwXwXwXwXwXwXwXwXwXwXwXwXwXwXwXwXwXwXwXwXwXwXwXwXwXwXwXwXwXwXwXwXwXwXwXwXwXwXwXwXwXwX",
"wXwXwXwXwXwXwXwXwXwXwXwXwXwXwXwXwXwXwXwXwXwXwXwXwXwXwXwXwXwXwXwXwXwXwXwXwXwXwXwXwXwXwXwXwXwXwXwXwXwXwXwXwXwXwXwXwXwXwXwXwXwXwXwXwXwXwXwXwXwXwXwXwXwXwXwXwXwXwXwXwXwXwXwXwXwXwXwXwXwXwXwXwXwXwXwXwXwXwXwXwXwXwXwXwXwXwXwXwXwXwXwXwXwXwXwXwXwXwXwXwXwXwXwXwXwXwXwXwXwXwXwXwXwXwXwXy y y y r r r r q q q q % % % %                 yXyXyXyXiXiXiXiX@ @ @ @ @ @ @ @ O @ O @ @ @ @ @ @ @ @ # # # # # # # $ $ # # # # $ $ # # , , , , # # # # # # # # # # # 1 1 1 1 # # # # , , , , 6 6 6 6 < < < < $ $ $ $ 6 6 6 6 < < < < D D D D 8 8 8 8 J J J J 6 6 6 6 , , , $ @ @ @ @ @ @ @ @ X X X X   . . . @ @ @ @ @ O X X . X X X $ # # # . . . . . . . wXwXwXwXwXwXwXwXwXwXwXwXwXwXwXwXwXwXwXwXwXwXwXwXwXwXwXwXwXwXwXwXwXwXwXwXwXwXwXwXwXwXwXwXwXwXwXwXwXwXwXwXwXwXwXwXwXwXwX",
"wXwXwXwXwXwXwXwXwXwXwXwXwXwXwXwXwXwXwXwXwXwXwXwXwXwXwXwXwXwXwXwXwXwXwXwXwXwXwXwXwXwXwXwXwXwXwXwXwXwXwXwXwXwXwXwXwXwXwXwXwXwXwXwXwXwXwXwXwXwXwXwXwXwXwXwXwXwXwXwXwXwXwXwXwXwXwXwXwXwXwXwXwXwXwXwXwXwXwXwXwXwXwXwXwXwXwXwXwXwXwXwXwXwXwXwXwXwXwXwXwXwXwXwXwXwXwXwXwXwXwXwXwXwXwXwXy y y y r r r r w w q q % % % %                 yXyXyXyXiXiXiXiX@ @ @ @ @ @ @ @ O @ @ @ # # @ @ @ @ @ @ # # # # $ $ $ $ # # # # $ # # # , , , , # # # # $ $ $ # # # # 1 1 1 1 # $ # # , , , , 6 6 6 6 < < < < $ $ $ $ 6 6 6 6 < 1 1 < D D D D 8 8 8 8 J J J J 6 6 6 6 , , = = @ @ @ @ @ X O @ X X X X . . . . @ @ @ @ @ O O X . X X X $ # # # . . . . . . . wXwXwXwXwXwXwXwXwXwXwXwXwXwXwXwXwXwXwXwXwXwXwXwXwXwXwXwXwXwXwXwXwXwXwXwXwXwXwXwXwXwXwXwXwXwXwXwXwXwXwXwXwXwXwXwXwXwXwX",
"wXwXwXwXwXwXwXwXwXwXwXwXwXwXwXwXwXwXwXwXwXwXwXwXwXwXwXwXwXwXwXwXwXwXwXwXwXwXwXwXwXwXwXwXwXwXwXwXwXwXwXwXwXwXwXwXwXwXwXwXwXwXwXwXwXwXwXwXwXwXwXwXwXwXwXwXwXwXwXwXwXwXwXwXwXwXwXwXwXwXwXwXwXwXwXwXwXwXwXwXwXwXwXwXwXwXwXwXwXwXwXwXwXwXwXwXwXwXwXwXwXwXwXwXwXwXwXwXwXwXwXwX:X:X:X:X<.<.<.<.>.>.>.>.r r r r & & & & o o o o         iXiXiXiXyXyXyXyX, , , , @ @ @ @ O O O @ @ @ @ @ @ @ @ @ < < < < # # # # # # # # $ $ # # $ = = = # # # # $ $ $ , , , , # # # # $ $ $ $ $ $ $ $ , $ $ $ 8 7 7 7 , , , , , , , , 8 8 8 8 7 7 7 7 J ~ ~ J D D D D iXiXiXiX, , , , , , , , @ @ @ @ @ @ @ @ . . . . . . . . @ @ @ @ . . . . X X X X @ @ @         wXwXwXwXwXwXwXwXwXwXwXwXwXwXwXwXwXwXwXwXwXwXwXwXwXwXwXwXwXwXwXwXwXwXwXwXwXwXwXwXwXwXwXwXwXwXwXwXwXwXwXwXwXwXwXwXwXwXwX",
"wXwXwXwXwXwXwXwXwXwXwXwXwXwXwXwXwXwXwXwXwXwXwXwXwXwXwXwXwXwXwXwXwXwXwXwXwXwXwXwXwXwXwXwXwXwXwXwXwXwXwXwXwXwXwXwXwXwXwXwXwXwXwXwXwXwXwXwXwXwXwXwXwXwXwXwXwXwXwXwXwXwXwXwXwXwXwXwXwXwXwXwXwXwXwXwXwXwXwXwXwXwXwXwXwXwXwXwXwXwXwXwXwXwXwXwXwXwXwXwXwXwXwXwXwXwXwXwX6XeXeXwX9XtXtXdX<.<.<.<.>.>.>.>.r r r r & & & & o o o o         iXiXiXiXyXyXyXyX= = = , O O O O X X @ @ @ @ @ @ @ @ @ @ , , , , # # # # # # # # # # # # $ $ $ $ # # # # # # # , , , , # # # # $ $ $ $ $ $ $ $ , = = = 7 8 8 8 , , , , , , , , 7 8 8 7 7 7 7 7 J J J ~ D D D D iXiXiXiX, , , , , , , , @ @ @ @ @ @ @ @ . . . . . . . . @ @ @ @ . . . . X X X X @ @ @         wXwXwXwXwXwXwXwXwXwXwXwXwXwXwXwXwXwXwXwXwXwXwXwXwXwXwXwXwXwXwXwXwXwXwXwXwXwXwXwXwXwXwXwXwXwXwXwXwXwXwXwXwXwXwXwXwXwXwX",
"wXwXwXwXwXwXwXwXwXwXwXwXwXwXwXwXwXwXwXwXwXwXwXwXwXwXwXwXwXwXwXwXwXwXwXwXwXwXwXwXwXwXwXwXwXwXwXwXwXwXwXwXwXwXwXwXwXwXwXwXwXwXwXwXwXwXwXwXwXwXwXwXwXwXwXwXwXwXwXwXwXwXwXwXwXwXwXwXwXwXwXwXwXwXwXwXwXwXwXwXwXwXwXwXwXwXwXwXwXwXwXwXwXwXwXwXwXwXwXwXwXwXwXwXwXwXwXwX6X6XwXwX9XtXtXdX<.<.<.<.>.>.>.>.r r r r & & & & o o o o         iXiXiXiXyXyXyXyX= = = , O O O O X O @ @ @ @ @ @ @ @ @ @ , , , , # # # # # # # # # # # # $ $ $ $ # # # # # # # , , , , # # # # $ $ $ $ $ $ $ $ , = = = 7 8 8 7 , , , , , , , , 7 8 8 7 7 7 7 7 ~ J ~ ~ D D D D iXiXiXiX, , , , , , , , @ @ @ @ @ @ @ @ . . . . . . . . @ @ @ @ . . . . X X X X @ @ @         wXwXwXwXwXwXwXwXwXwXwXwXwXwXwXwXwXwXwXwXwXwXwXwXwXwXwXwXwXwXwXwXwXwXwXwXwXwXwXwXwXwXwXwXwXwXwXwXwXwXwXwXwXwXwXwXwXwXwX",
"wXwXwXwXwXwXwXwXwXwXwXwXwXwXwXwXwXwXwXwXwXwXwXwXwXwXwXwXwXwXwXwXwXwXwXwXwXwXwXwXwXwXwXwXwXwXwXwXwXwXwXwXwXwXwXwXwXwXwXwXwXwXwXwXwXwXwXwXwXwXwXwXwXwXwXwXwXwXwXwXwXwXwXwXwXwXwXwXwXwXwXwXwXwXwXwXwXwXwXwXwXwXwXwXwXwXwXwXwXwXwXwXwXwXwXwXwXwXwXwXwXwXwXwXwXwXwXwX6X6XwXwX9X9XdXdX<.<.<.<.>.>.>.>.w r r r & & & & o o o o         iXiXiXiXuXyXyXuX= = $ $ O O O @ X O @ @ @ @ @ @ @ @ @ @ , , , , # # # # # # # # # # # # , = = = # # # # # # # , , , , # # # # $ $ $ $ $ $ $ $ , = = $ 7 7 7 7 , , , , , , , , 7 8 8 7 7 7 7 7 ~ J ~ ~ D D D D iXiXiXiX, , , , , , , , @ @ @ @ @ @ @ @ . . . . . . . . @ @ @ @ . . . . X X X X @ @ @         wXwXwXwXwXwXwXwXwXwXwXwXwXwXwXwXwXwXwXwXwXwXwXwXwXwXwXwXwXwXwXwXwXwXwXwXwXwXwXwXwXwXwXwXwXwXwXwXwXwXwXwXwXwXwXwXwXwXwX",
"wXwXwXwXwXwXwXwXwXwXwXwXwXwXwXwXwXwXwXwXwXwXwXwXwXwXwXwXwXwXwXwXwXwXwXwXwXwXwXwXwXwXwXwXwXwXwXwXwXwXwXwXwXwXwXwXwXwXwXwXwXwXwXwXwXwXwXwXwXwXwXwXwXwXwXwXwXwXwXwXwXwXwXwXwXwXwXwXwXwXwXwXwXwXwXwXwXwXwXwXwXwXwXwXwXwXwXwXwXwXwXwXwXwXwXwXwXwXwXwXwXwXwXwXwXwXwXwX4X4XwXwXg.g.l.l.r.r.r.r.>.>.>.>.w r r r % % % %         . . . . fXfXfXfXuXuXuXuX= = $ $ @ @ O O X X @ @ @ @ @ @ @ @ @ @ @ @ @ @ @ @ # # # # # # # # # # # # # # # # # # @ @ @ , , , , @ @ @ # , , , , 1 1 1 1 $ $ $ $ < < < < , , , , < , < < < < < < 7 7 7 7 6 6 6 6 ^ ^ ^ ^ iXiXiXiX7 7 7 7 1 1 1 1 , , , , @ @ @ @ O O O O . . . .         . . . . X X X X X X X . . . . @ @ @ @ wXwXwXwXwXwXwXwXwXwXwXwXwXwXwXwXwXwXwXwXwXwXwXwXwXwXwXwXwXwXwXwXwXwXwXwXwXwXwXwXwXwXwXwXwXwXwXwXwXwXwXwXwXwXwX",
"wXwXwXwXwXwXwXwXwXwXwXwXwXwXwXwXwXwXwXwXwXwXwXwXwXwXwXwXwXwXwXwXwXwXwXwXwXwXwXwXwXwXwXwXwXwXwXwXwXwXwXwXwXwXwXwXwXwXwXwXwXwXwXwXwXwXwXwXwXwXwXwXwXwXwXwXwXwXwXwXwXwXwXwXwXwXwXwXwXwXwXwXwXwXwXwXwXwXwXwXwXwXwXwXwXwXwXwXwXwXwXwXwXwXwXwXwXwXwXwXwXwXwXwXwXwXwXwXwXwXwXwXg.g.l.l.r.r.r.r.>.>.>.>.w w r r % % % %         . . . . fXfXfXfXuXuXuXuX= = = = O @ @ O X O @ @ @ @ @ @ @ @ @ @ @ @ @ @ # # # # # # # # # # # # # # # # # # # # @ @ @ , , , , # # # # , , , , 1 < < < $ $ $ $ < < < < , , , , < < < , < < < < 7 7 7 7 6 6 6 6 ^ ^ ^ ^ iXiXiXiX7 7 7 7 1 1 1 1 , , , , @ @ @ @ X X X X . . . .         . . . . X X X X . X X X X . . @ @ @ @ wXwXwXwXwXwXwXwXwXwXwXwXwXwXwXwXwXwXwXwXwXwXwXwXwXwXwXwXwXwXwXwXwXwXwXwXwXwXwXwXwXwXwXwXwXwXwXwXwXwXwXwXwXwXwX",
"wXwXwXwXwXwXwXwXwXwXwXwXwXwXwXwXwXwXwXwXwXwXwXwXwXwXwXwXwXwXwXwXwXwXwXwXwXwXwXwXwXwXwXwXwXwXwXwXwXwXwXwXwXwXwXwXwXwXwXwXwXwXwXwXwXwXwXwXwXwXwXwXwXwXwXwXwXwXwXwXwXwXwXwXwXwXwXwXwXwXwXwXwXwXwXwXwXwXwXwXwXwXwXwXwXwXwXwXwXwXwXwXwXwXwXwXwXwXwXwXwXwXwXwXwXwXwXwXwXwXwXwXg.g.l.l.r.r.r.r.>.>.>.>.w w r r % % % %         . . . . fXfXfXfXuXuXuXuX= = = = O O @ O X O @ @ @ @ @ @ @ @ @ @ @ @ @ @ # # # # # # # # # # # # # # # # # # # # @ @ @ , , , , # # # # , , , , 1 1 < < $ $ $ $ < < < < , , , , < < < < < < < < 7 7 7 7 6 6 6 6 ^ ^ ^ ^ iXiXiXiX7 7 7 7 1 1 1 1 , , , , @ @ @ @ X X X X . . . .         . . . . X X X X . X X X . . . @ @ @ @ wXwXwXwXwXwXwXwXwXwXwXwXwXwXwXwXwXwXwXwXwXwXwXwXwXwXwXwXwXwXwXwXwXwXwXwXwXwXwXwXwXwXwXwXwXwXwXwXwXwXwXwXwXwXwX",
"wXwXwXwXwXwXwXwXwXwXwXwXwXwXwXwXwXwXwXwXwXwXwXwXwXwXwXwXwXwXwXwXwXwXwXwXwXwXwXwXwXwXwXwXwXwXwXwXwXwXwXwXwXwXwXwXwXwXwXwXwXwXwXwXwXwXwXwXwXwXwXwXwXwXwXwXwXwXwXwXwXwXwXwXwXwXwXwXwXwXwXwXwXwXwXwXwXwXwXwXwXwXwXwXwXwXwXwXwXwXwXwXwXwXwXwXwXwXwXwXwXwXwXwXwXwXwXwXwXwXwXwXg.l.l.l.r.r.r.r.>.>.>.>.w w w w % % % %         . . . . aXaXfXfXuXuXuXuX= = = = O @ @ @ @ @ @ @ @ @ @ @ @ @ @ @ @ @ @ @ # # # # # # # # # # # # # # # # # # # # @ @ @ , , , , # @ @ # , , , , 1 1 1 1 $ $ $ $ < < < < , , , , < < < < < < < < 7 8 8 7 6 6 6 6 ^ ^ ^ ^ iXiXiXiX7 7 7 7 1 1 1 1 , , , , @ @ @ @ X O X O . . . .         . . . . X X X X . X X . . . . @ @ @ @ wXwXwXwXwXwXwXwXwXwXwXwXwXwXwXwXwXwXwXwXwXwXwXwXwXwXwXwXwXwXwXwXwXwXwXwXwXwXwXwXwXwXwXwXwXwXwXwXwXwXwXwXwXwXwX",
"wXwXwXwXwXwXwXwXwXwXwXwXwXwXwXwXwXwXwXwXwXwXwXwXwXwXwXwXwXwXwXwXwXwXwXwXwXwXwXwXwXwXwXwXwXwXwXwXwXwXwXwXwXwXwXwXwXwXwXwXwXwXwXwXwXwXwXwXwXwXwXwXwXwXwXwXwXwXwXwXwXwXwXwXwXwXwXwXwXwXwXwXwXwXwXwXwXwXwXwXwXwXwXwXwXwXwXwXwXwXwXwXwXwXwXwXwXwXwXwXwXwXwXwXwXwXwXwXl.l.l.l.<.<.<.<.l.r.l.r.u u u u w w w w o o o o         iXiXiXiXyXuXuXuX1 1 1 1 1 1 1 1 @ @ @ @ @ @ @ @ X X X X # # # # # # # # # # # # $ $ $ # # # # # @ @ @ @ @ @ @ @ # # # $ $ $ $ 1 1 1 3 , , , , , , , , , , , , , = = = , , , , < < < < < < < < 6 6 7 6 8 8 8 8 J J J J J J J J 6 6 6 6 D D D D , , , , $ $ $ $ X X X X .       X X X X X . . X # # # # . . . @ @ @ @ .       wXwXwXwXwXwXwXwXwXwXwXwXwXwXwXwXwXwXwXwXwXwXwXwXwXwXwXwXwXwXwXwXwXwXwXwXwXwXwXwXwXwXwXwXwXwXwXwXwXwXwXwXwXwXwX",
"wXwXwXwXwXwXwXwXwXwXwXwXwXwXwXwXwXwXwXwXwXwXwXwXwXwXwXwXwXwXwXwXwXwXwXwXwXwXwXwXwXwXwXwXwXwXwXwXwXwXwXwXwXwXwXwXwXwXwXwXwXwXwXwXwXwXwXwXwXwXwXwXwXwXwXwXwXwXwXwXwXwXwXwXwXwXwXwXwXwXwXwXwXwXwXwXwXwXwXwXwXwXwXwXwXwXwXwXwXwXwXwXwXwXwXwXwXwXwXwXwXwXwXwXwXwXwXwXl.l.l.l.<.<.<.<.l.l.l.l.u u u u w w w w o o o o         aXaXaXiXyXyXuXuX3 3 1 1 1 1 1 1 @ @ @ @ @ @ @ @ X X X X # # # # # # # # # # # # # # # # # # # # @ @ @ @ @ @ @ @ # # # $ $ $ $ 1 3 1 1 , , , , , , , , , , , , $ = = $ , , , , < < < < < < < < 6 7 7 6 8 8 8 8 J J J J J J J J 6 6 6 6 D D D D , , , , $ $ $ $ X X X X .       X X X X . X X X # # # # . . . @ @ @ @         wXwXwXwXwXwXwXwXwXwXwXwXwXwXwXwXwXwXwXwXwXwXwXwXwXwXwXwXwXwXwXwXwXwXwXwXwXwXwXwXwXwXwXwXwXwXwXwXwXwXwXwXwXwXwX",
"wXwXwXwXwXwXwXwXwXwXwXwXwXwXwXwXwXwXwXwXwXwXwXwXwXwXwXwXwXwXwXwXwXwXwXwXwXwXwXwXwXwXwXwXwXwXwXwXwXwXwXwXwXwXwXwXwXwXwXwXwXwXwXwXwXwXwXwXwXwXwXwXwXwXwXwXwXwXwXwXwXwXwXwXwXwXwXwXwXwXwXwXwXwXwXwXwXwXwXwXwXwXwXwXwXwXwXwXwXwXwXwXwXwXwXwXwXwXwXwXwXwXwXwXwXwXwXwXj.j.l.l.<.<.<.<.l.l.l.l.u u u u w w w w o o o o         aXaXaXiXyXyXuXuX3 3 1 1 1 1 1 1 @ @ @ @ X O @ O X X X X # # # # # # # # # # # # # # # # # # # # @ @ @ @ @ @ @ @ # # # $ $ $ $ 1 1 1 1 , , , , , , , , , , , , = = = = , , , , < < < < < < < , 6 6 7 6 8 8 8 8 J J J J J J J J 6 6 6 6 D D D D , , , , $ $ $ $ X X X X .       X X X X . X X X # # # # . . . @ @ @ @         wXwXwXwXwXwXwXwXwXwXwXwXwXwXwXwXwXwXwXwXwXwXwXwXwXwXwXwXwXwXwXwXwXwXwXwXwXwXwXwXwXwXwXwXwXwXwXwXwXwXwXwXwXwXwX",
"wXwXwXwXwXwXwXwXwXwXwXwXwXwXwXwXwXwXwXwXwXwXwXwXwXwXwXwXwXwXwXwXwXwXwXwXwXwXwXwXwXwXwXwXwXwXwXwXwXwXwXwXwXwXwXwXwXwXwXwXwXwXwXwXwXwXwXwXwXwXwXwXwXwXwXwXwXwXwXwXwXwXwXwXwXwXwXwXwXwXwXwXwXwXwXwXwXwXwXwXwXwXwXwXwXwXwXwXwXwXwXwXwXwXwXwXwXwXwXwXwXwXwXwXwXwXwXwXj.j.j.j.<.<.<.<.r.r.l.r.u u u u w w w w o o o o         aXaXaXaXyXuXuXuX3 1 3 1 1 1 1 1 @ @ @ @ X X X O X X X X # # # # # # # # # # # # # # # # # # # # @ @ @ @ @ @ @ @ # # # $ $ $ $ 1 1 1 1 , , , , , , , , , , , , = , = = , , , , < < < < < < , , 6 6 7 7 8 8 8 8 J J J J J J J J 6 6 6 6 D D D D , , , , $ $ $ $ X X X X .       X X X X . X X X $ # # # . . . @ @ @ @         wXwXwXwXwXwXwXwXwXwXwXwXwXwXwXwXwXwXwXwXwXwXwXwXwXwXwXwXwXwXwXwXwXwXwXwXwXwXwXwXwXwXwXwXwXwXwXwXwXwXwXwXwXwXwX",
"wXwXwXwXwXwXwXwXwXwXwXwXwXwXwXwXwXwXwXwXwXwXwXwXwXwXwXwXwXwXwXwXwXwXwXwXwXwXwXwXwXwXwXwXwXwXwXwXwXwXwXwXwXwXwXwXwXwXwXwXwXwXwXwXwXwXwXwXwXwXwXwXwXwXwXwXwXwXwXwXwXwXwXwXwXwXwXwXwXwXwXwXwXwXwXwXwXwXwXwXwXwXwXwXwXwXwXwXwXwXwXwXwXwXwXwXwXwXwXwXwXwXwXwXwXwXwXwXuXuXuXyXZ.Z.Z.Z.<.<.<.<.@.u @.@.q q q q & & & &         yXyXyXyXuXuXuXuX5 5 6 6 @ @ @ @ @ @ @ @ X X X X X X X X X X X X # # # # # # # # @ @ @ @ # # # # # # # # # # # # # # # # # # # $ $ $ $ # # # # $ $ $ $ , , , , 8 8 8 8 = = = = < < < < 6 6 3 3 < < 1 1 ~ ~ ~ ~ 8 8 8 8 G G G G 8 7 7 7 < < < < < < < < $ $ $ $ @ @ @ @ . . . . . . . .         . . . . . . . @ @ @ @         < < < < wXwXwXwXwXwXwXwXwXwXwXwXwXwXwXwXwXwXwXwXwXwXwXwXwXwXwXwXwXwXwXwXwXwXwXwXwXwXwXwXwXwXwXwXwXwXwXwXwXwXwX",
"wXwXwXwXwXwXwXwXwXwXwXwXwXwXwXwXwXwXwXwXwXwXwXwXwXwXwXwXwXwXwXwXwXwXwXwXwXwXwXwXwXwXwXwXwXwXwXwXwXwXwXwXwXwXwXwXwXwXwXwXwXwXwXwXwXwXwXwXwXwXwXwXwXwXwXwXwXwXwXwXwXwXwXwXwXwXwXwXwXwXwXwXwXwXwXwXwXwXwXwXwXwXwXwXwXwXwXwXwXwXwXwXwXwXwXwXwXwXwXwXwXwXwXwXwXwXwXwXyXyXyXyXZ.Z.Z.Z.<.<.<.<. . . . .q q q q & & & &         yXyXyXyXuXuXuXuX6 6 6 6 @ @ @ @ @ @ @ @ @ @ @ @ X X X X X X X X # # # # # # # # @ @ @ @ # # # # # # # $ # # # # # # # # # # # $ $ $ $ # # # # = = = , , , , , 8 8 8 8 = , , = < < < < 6 6 6 6 < < < 1 ~ ~ ~ ~ 8 8 8 8 G G G G 7 7 7 7 < < < < < < < < $ $ $ $ @ @ @ @ . . . . . . . .         . . . . . . . @ @ @ @         < < < , wXwXwXwXwXwXwXwXwXwXwXwXwXwXwXwXwXwXwXwXwXwXwXwXwXwXwXwXwXwXwXwXwXwXwXwXwXwXwXwXwXwXwXwXwXwXwXwXwXwXwX",
"wXwXwXwXwXwXwXwXwXwXwXwXwXwXwXwXwXwXwXwXwXwXwXwXwXwXwXwXwXwXwXwXwXwXwXwXwXwXwXwXwXwXwXwXwXwXwXwXwXwXwXwXwXwXwXwXwXwXwXwXwXwXwXwXwXwXwXwXwXwXwXwXwXwXwXwXwXwXwXwXwXwXwXwXwXwXwXwXwXwXwXwXwXwXwXwXwXwXwXwXwXwXwXwXwXwXwXwXwXwXwXwXwXwXwXwXwXwXwXwXwXwXwXwXwXwXwXwXyXyXyXyXZ.Z.Z.Z.<.<.<.<.@.@. . .q q q q & & & &         yXyXyXyXuXuXuXuX6 6 6 6 @ @ @ @ @ @ @ @ @ @ @ @ X X X X X X X X # # # # # # # # @ @ @ @ # # # # # # # # # # # # # # # # # # # $ $ $ $ # # # # = , , , , , , , 8 8 8 8 = = = = < < < < 6 6 6 6 < < < 1 ~ ~ ~ ~ 8 8 8 8 G G G G 7 7 7 7 < < < < < < < < $ $ $ $ @ @ @ @ . . . . . . . .         . . . . . . . @ @ @ @         < < < < wXwXwXwXwXwXwXwXwXwXwXwXwXwXwXwXwXwXwXwXwXwXwXwXwXwXwXwXwXwXwXwXwXwXwXwXwXwXwXwXwXwXwXwXwXwXwXwXwXwXwX",
"wXwXwXwXwXwXwXwXwXwXwXwXwXwXwXwXwXwXwXwXwXwXwXwXwXwXwXwXwXwXwXwXwXwXwXwXwXwXwXwXwXwXwXwXwXwXwXwXwXwXwXwXwXwXwXwXwXwXwXwXwXwXwXwXwXwXwXwXwXwXwXwXwXwXwXwXwXwXwXwXwXwXwXwXwXwXwXwXwXwXwXwXwXwXwXwXwXwXwXwXwXwXwXwXwXwXwXwXwXwXwXwXwXwXwXwXwXwXwXwXwXwXwXwXwXwXwXwXyXyXyXyXZ.Z.Z.Z.<.<.<.<.@.@.@.@.q q q q & & & &         yXyXyXyXuXuXuXuX6 6 6 6 @ @ @ @ @ @ @ @ @ @ @ @ X X X X X X X X # # # # # # # # @ @ @ @ # # # # # # # # # # # # # # # # # # # $ $ $ $ # # # # , = = = , , , , 8 8 8 8 = = = = < , , < 6 6 6 6 < < < < ~ ~ ~ ~ 8 8 8 8 D G G G 7 7 7 8 < < < < < < < < $ $ $ $ @ @ @ @ . . . . . . . .         . . . . . . . @ @ @ @         < < , , wXwXwXwXwXwXwXwXwXwXwXwXwXwXwXwXwXwXwXwXwXwXwXwXwXwXwXwXwXwXwXwXwXwXwXwXwXwXwXwXwXwXwXwXwXwXwXwXwXwXwX",
"wXwXwXwXwXwXwXwXwXwXwXwXwXwXwXwXwXwXwXwXwXwXwXwXwXwXwXwXwXwXwXwXwXwXwXwXwXwXwXwXwXwXwXwXwXwXwXwXwXwXwXwXwXwXwXwXwXwXwXwXwXwXwXwXwXwXwXwXwXwXwXwXwXwXwXwXwXwXwXwXwXwXwXwXwXwXwXwXwXwXwXwXwXwXwXwXwXwXwXwXwXwXwXwXwXwXwXwXwXwXwXwXwXwXwXwXwXwXwXwXwXwXwXwXwXwXwXwXwXwXwXwXg.g.g.g.%.%.%.%.u u u u q q q q o % % %         / / / / iXiXiXiXS S S S @ @ @ @ @ @ @ @ X O @ @ X X X X X X X X # # # # # # # # # # # # # # # # = = = = , , , , # # # , , , , $ $ $ $ $ $ $ $ $ $ $ $ $ $ $ $ 8 8 8 8 , , , , < , , , 7 7 7 7 6 6 6 6 ( ( ( ( 8 8 8 8 7 7 7 7 3 3 3 1 < < < < < < < < # # # # @ @ @ @ X X X X .               . . . . O X X @ @ @ @ # # # # , , = = 6X6X6X6XwXwXwXwXwXwXwXwXwXwXwXwXwXwXwXwXwXwXwXwXwXwXwXwXwXwXwXwXwXwXwXwXwXwXwXwXwXwXwXwXwXwXwXwXwXwXwX",
"wXwXwXwXwXwXwXwXwXwXwXwXwXwXwXwXwXwXwXwXwXwXwXwXwXwXwXwXwXwXwXwXwXwXwXwXwXwXwXwXwXwXwXwXwXwXwXwXwXwXwXwXwXwXwXwXwXwXwXwXwXwXwXwXwXwXwXwXwXwXwXwXwXwXwXwXwXwXwXwXwXwXwXwXwXwXwXwXwXwXwXwXwXwXwXwXwXwXwXwXwXwXwXwXwXwXwXwXwXwXwXwXwXwXwXwXwXwXwXwXwXwXwXwXwXwXwXwXwXwXwXwXg.g.g.g.%.%. . .u u u u q q q q o o o o         / / / / iXiXiXiXS S S S @ @ @ @ @ @ @ @ X X X X X X X X X X X X # # # # # # # # # # # # # # # # = = = = , , , , # # # , , , , $ $ $ $ $ $ $ $ $ $ $ $ $ $ $ $ 8 8 8 8 , , , , < , < < 7 7 7 7 6 6 6 6 ( ( ( ( 8 8 8 8 7 7 7 7 1 3 3 3 < < < < < < < < # # # # @ @ @ @ X X X X         . . . . . . . . O X X @ @ @ @ # # @ @ , , = , 6X6X6X6XwXwXwXwXwXwXwXwXwXwXwXwXwXwXwXwXwXwXwXwXwXwXwXwXwXwXwXwXwXwXwXwXwXwXwXwXwXwXwXwXwXwXwXwXwXwXwX",
"wXwXwXwXwXwXwXwXwXwXwXwXwXwXwXwXwXwXwXwXwXwXwXwXwXwXwXwXwXwXwXwXwXwXwXwXwXwXwXwXwXwXwXwXwXwXwXwXwXwXwXwXwXwXwXwXwXwXwXwXwXwXwXwXwXwXwXwXwXwXwXwXwXwXwXwXwXwXwXwXwXwXwXwXwXwXwXwXwXwXwXwXwXwXwXwXwXwXwXwXwXwXwXwXwXwXwXwXwXwXwXwXwXwXwXwXwXwXwXwXwXwXwXwXwXwXwXwXwXwXwXwXg.g.g.g.%.%. . .u u u u q q q q o o % %         / / / / iXiXiXiXS S S S @ @ @ @ @ @ @ @ X X X X X X X X X X X X # # # # # # # # # # # # # # # # = = = = , , , , # # # , , , , $ $ $ $ $ $ $ $ $ $ $ $ $ $ $ $ 8 8 8 8 , , , , < , < < 7 7 7 7 6 6 6 6 ( ( ( ( 8 8 8 8 7 7 7 7 1 3 3 3 < < < < < < < < # # # # @ @ @ @ X X X X         . . . . . . . . O O O @ @ @ @ # # @ @ , , = , 6X6X6X6XwXwXwXwXwXwXwXwXwXwXwXwXwXwXwXwXwXwXwXwXwXwXwXwXwXwXwXwXwXwXwXwXwXwXwXwXwXwXwXwXwXwXwXwXwXwXwX",
"wXwXwXwXwXwXwXwXwXwXwXwXwXwXwXwXwXwXwXwXwXwXwXwXwXwXwXwXwXwXwXwXwXwXwXwXwXwXwXwXwXwXwXwXwXwXwXwXwXwXwXwXwXwXwXwXwXwXwXwXwXwXwXwXwXwXwXwXwXwXwXwXwXwXwXwXwXwXwXwXwXwXwXwXwXwXwXwXwXwXwXwXwXwXwXwXwXwXwXwXwXwXwXwXwXwXwXwXwXwXwXwXwXwXwXwXwXwXwXwXwXwXwXwXwXwXwXwXwXwXwXwXg.g.g.g.%. . . .u u u u q q q q % % % %         / / / / iXiXiXiXS S S S @ @ @ @ @ @ @ @ @ @ O @ X X X X X X X X # # # # # # # # # # # # # # # # = , = = , , , , # # # , , , , $ $ $ $ $ $ $ $ $ $ $ $ $ $ $ $ 8 8 8 8 , , , , , < < < 7 7 7 7 6 6 6 6 ( ( ( ( 8 8 8 8 7 7 7 7 1 3 3 3 < < < < < < < < # # # # @ @ @ @ X X X X   . . . . . . . . . . . O O O @ @ @ @ @ # @ @ = , , , 6X6X6X6XwXwXwXwXwXwXwXwXwXwXwXwXwXwXwXwXwXwXwXwXwXwXwXwXwXwXwXwXwXwXwXwXwXwXwXwXwXwXwXwXwXwXwXwXwXwXwX",
"wXwXwXwXwXwXwXwXwXwXwXwXwXwXwXwXwXwXwXwXwXwXwXwXwXwXwXwXwXwXwXwXwXwXwXwXwXwXwXwXwXwXwXwXwXwXwXwXwXwXwXwXwXwXwXwXwXwXwXwXwXwXwXwXwXwXwXwXwXwXwXwXwXwXwXwXwXwXwXwXwXwXwXwXwXwXwXwXwXwXwXwXwXwXwXwXwXwXwXwXwXwXwXwXwXwXwXwXwXwXwXwXwXwXwXwXwXwXwXwXwXwXwXwXwXwXwXwXwXwXwXwXz z c c >.>.>.>.u u u u q q q q % % % %         ~ ~ J J iXiXiXiXS S S S @ @ @ @ @ @ @ @ X X X X @ @ @ @ X X X X # # # # # # # # @ @ @ @ # # # # @ @ @ @ # # # # # # # # # # # , , , , # # # # $ $ $ $ , , , , 7 7 7 7 7 7 7 7 < < < < 7 7 7 7 8 8 8 8 ^ ^ ^ ^ 6 6 6 6 1 1 < < < 1 1 1 , , , , , , , , , , , , @ @ @ @ . . . . . . . . . . . . . . . . X X X @ @ @ @ @ @ @ @ $ $ $ $ . . . . wXwXwXwXwXwXwXwXwXwXwXwXwXwXwXwXwXwXwXwXwXwXwXwXwXwXwXwXwXwXwXwXwXwXwXwXwXwXwXwXwXwXwXwXwXwXwX",
"wXwXwXwXwXwXwXwXwXwXwXwXwXwXwXwXwXwXwXwXwXwXwXwXwXwXwXwXwXwXwXwXwXwXwXwXwXwXwXwXwXwXwXwXwXwXwXwXwXwXwXwXwXwXwXwXwXwXwXwXwXwXwXwXwXwXwXwXwXwXwXwXwXwXwXwXwXwXwXwXwXwXwXwXwXwXwXwXwXwXwXwXwXwXwXwXwXwXwXwXwXwXwXwXwXwXwXwXwXwXwXwXwXwXwXwXwXwXwXwXwXwXwXwXwXwXwXwXwXwXwXwXl l c c >.>.>.>.u u u u q q q q % % % %         J J J J iXiXiXiXS S S S # # # # @ @ @ @ X X X X @ @ @ @ X X X X # # # # # # # # @ @ @ @ # # # # @ @ @ @ $ # # # $ $ $ $ # # # , , , , # # # # $ $ $ $ , , , , 7 7 7 7 7 7 7 7 < < < < 7 7 7 7 8 8 8 8 ^ ^ ^ ^ 6 6 6 6 < < < 1 1 1 1 < , , , , , , = = , , , , @ @ @ @ . . . . . . . . . . . . . . . . X . . @ @ @ @ @ @ @ @ $ $ $ $ . . . . wXwXwXwXwXwXwXwXwXwXwXwXwXwXwXwXwXwXwXwXwXwXwXwXwXwXwXwXwXwXwXwXwXwXwXwXwXwXwXwXwXwXwXwXwXwXwX",
"wXwXwXwXwXwXwXwXwXwXwXwXwXwXwXwXwXwXwXwXwXwXwXwXwXwXwXwXwXwXwXwXwXwXwXwXwXwXwXwXwXwXwXwXwXwXwXwXwXwXwXwXwXwXwXwXwXwXwXwXwXwXwXwXwXwXwXwXwXwXwXwXwXwXwXwXwXwXwXwXwXwXwXwXwXwXwXwXwXwXwXwXwXwXwXwXwXwXwXwXwXwXwXwXwXwXwXwXwXwXwXwXwXwXwXwXwXwXwXwXwXwXwXwXwXwXwXwXwXwXwXwXl l c c >.>.>.>.u u u u q q q q % % % %         J J J J iXiXiXiXS S S S # # # # @ @ @ @ X X X X @ @ @ @ X X X X # # # # # # # # @ @ @ @ # # # # @ @ @ @ $ # # # # $ $ # # # # , , , , # # # # $ $ $ $ , , , , 7 7 7 7 7 7 7 7 < < < < 7 7 7 7 8 8 8 8 ^ ^ ^ ^ 6 6 6 6 < < < 1 1 1 1 < , < , , , = = , , , , , @ @ @ @ . . . . . . .   . . . . . . . . . . . @ @ @ @ @ @ @ @ $ $ $ $ . . . . wXwXwXwXwXwXwXwXwXwXwXwXwXwXwXwXwXwXwXwXwXwXwXwXwXwXwXwXwXwXwXwXwXwXwXwXwXwXwXwXwXwXwXwXwXwXwX",
"wXwXwXwXwXwXwXwXwXwXwXwXwXwXwXwXwXwXwXwXwXwXwXwXwXwXwXwXwXwXwXwXwXwXwXwXwXwXwXwXwXwXwXwXwXwXwXwXwXwXwXwXwXwXwXwXwXwXwXwXwXwXwXwXwXwXwXwXwXwXwXwXwXwXwXwXwXwXwXwXwXwXwXwXwXwXwXwXwXwXwXwXwXwXwXwXwXwXwXwXwXwXwXwXwXwXwXwXwXwXwXwXwXwXwXwXwXwXwXwXwXwXwXwXwXwXwXwXwXwXwXwXl l l c >.>.>.>.u u u u q q q q % % % %         J J J J iXiXiXiXS S S S # # # # @ @ @ @ X X X X X @ @ @ X X X X # # # # # # # # @ @ @ @ # # # # @ @ @ @ $ $ # # # # # # # # # , , , , # # # # $ $ $ $ , , , , 7 7 7 7 7 7 7 7 < < < < 7 7 7 7 8 8 8 8 ^ ^ ^ ^ 6 6 6 6 < < < < < 1 1 1 < < , , , , , , , , , , @ @ @ @ . . . . . . . . . . . . . . . . X . X @ @ @ @ @ @ @ @ $ $ $ $ . . . . wXwXwXwXwXwXwXwXwXwXwXwXwXwXwXwXwXwXwXwXwXwXwXwXwXwXwXwXwXwXwXwXwXwXwXwXwXwXwXwXwXwXwXwXwXwXwX",
"wXwXwXwXwXwXwXwXwXwXwXwXwXwXwXwXwXwXwXwXwXwXwXwXwXwXwXwXwXwXwXwXwXwXwXwXwXwXwXwXwXwXwXwXwXwXwXwXwXwXwXwXwXwXwXwXwXwXwXwXwXwXwXwXwXwXwXwXwXwXwXwXwXwXwXwXwXwXwXwXwXwXwXwXwXwXwXwXwXwXwXwXwXwXwXwXwXwXwXwXwXwXwXwXwXwXwXwXwXwXwXwXwXwXwXwXwXwXwXwXwXwXwXwXwXwXwXwXwXwXwXwXwXwXwXwX<.<.<.<.u u u u q q q q % % % %         ^ ^ ^ ^ iXiXiXiXJ G G G # # # # # # # # @ @ @ @ X @ @ @ X X X X X X X X # # # # # # # $ # # # # # # # # # # # # # # # # @ @ @ $ $ $ $ # # # # , , , , $ $ $ $ , , , , 1 1 1 1 8 8 8 8 < < < < S S S S 8 8 8 8 < < < < < < < < < < < < < < < < < < < < , , , , @ @ @ @ . X X X . . . . . . . .     . . X X X . . . . . . . . . . . .         wXwXwXwXwXwXwXwXwXwXwXwXwXwXwXwXwXwXwXwXwXwXwXwXwXwXwXwXwXwXwXwXwXwXwXwXwXwXwXwXwXwXwXwXwXwXwX",
"wXwXwXwXwXwXwXwXwXwXwXwXwXwXwXwXwXwXwXwXwXwXwXwXwXwXwXwXwXwXwXwXwXwXwXwXwXwXwXwXwXwXwXwXwXwXwXwXwXwXwXwXwXwXwXwXwXwXwXwXwXwXwXwXwXwXwXwXwXwXwXwXwXwXwXwXwXwXwXwXwXwXwXwXwXwXwXwXwXwXwXwXwXwXwXwXwXwXwXwXwXwXwXwXwXwXwXwXwXwXwXwXwXwXwXwXwXwXwXwXwXwXwXwXwXwXwXwXwXwXwXwXwXeXeXeX<.<.<.<.u u u u q q q q % % % %         ^ ^ ^ ^ iXiXiXiXJ J J J # # # # # # @ @ X X @ @ X X X X X X X X X X X X # # # # # # # # # # # # # # # # # # # # # # # # # # # $ $ $ $ # # # # , , , , $ $ $ $ , , , , 1 1 1 1 8 8 8 8 < < < < S S S S 8 8 8 8 < < < < < < < < < < < < < < < < < < < < , , , , @ @ @ @ X X X X . . . . . . . .       . X X . . . . . . . . . . . .           wXwXwXwXwXwXwXwXwXwXwXwXwXwXwXwXwXwXwXwXwXwXwXwXwXwXwXwXwXwXwXwXwXwXwXwXwXwXwXwXwXwXwXwXwXwXwX",
"wXwXwXwXwXwXwXwXwXwXwXwXwXwXwXwXwXwXwXwXwXwXwXwXwXwXwXwXwXwXwXwXwXwXwXwXwXwXwXwXwXwXwXwXwXwXwXwXwXwXwXwXwXwXwXwXwXwXwXwXwXwXwXwXwXwXwXwXwXwXwXwXwXwXwXwXwXwXwXwXwXwXwXwXwXwXwXwXwXwXwXwXwXwXwXwXwXwXwXwXwXwXwXwXwXwXwXwXwXwXwXwXwXwXwXwXwXwXwXwXwXwXwXwXwXwXwXwXwXwXwXwXeXeXeXeX<.<.<.<.u u u u q q q q % % % %         ^ ^ ^ ^ iXiXiXiXJ J G G # # # # # # # @ X X @ @ X X X X X X X X X X X X # # # # # # # # # # # # # # # # # # # # # # # # # # # $ $ $ $ # # # # , , , , $ $ $ $ , , , , 1 1 1 1 8 8 8 8 < < < < S S S S 8 8 8 8 < < < < < < < < < < < < < < < < < < < < , , , , @ @ @ @ X X X X . . . . . . . .       . X . . . . . . . . . . . . .           wXwXwXwXwXwXwXwXwXwXwXwXwXwXwXwXwXwXwXwXwXwXwXwXwXwXwXwXwXwXwXwXwXwXwXwXwXwXwXwXwXwXwXwXwXwXwX",
"wXwXwXwXwXwXwXwXwXwXwXwXwXwXwXwXwXwXwXwXwXwXwXwXwXwXwXwXwXwXwXwXwXwXwXwXwXwXwXwXwXwXwXwXwXwXwXwXwXwXwXwXwXwXwXwXwXwXwXwXwXwXwXwXwXwXwXwXwXwXwXwXwXwXwXwXwXwXwXwXwXwXwXwXwXwXwXwXwXwXwXwXwXwXwXwXwXwXwXwXwXwXwXwXwXwXwXwXwXwXwXwXwXwXwXwXwXwXwXwXwXwXwXwXwXwXwXwXwXwXwXwXeXeXeXeX<.<.<.<.u u u u q q q q % % % %         ^ ^ ^ ^ iXiXiXiXG G G G # # # # # # @ @ X O @ @ @ @ O @ X X X X X X X X # # # # # # # # # # # # # # # # # # # # # # # # # # # $ $ $ $ # # # # , , , , $ $ $ $ , , , , 1 1 1 1 8 8 8 8 < < < < S S S S 8 8 8 8 < < < < < < < < < < < < < < < < < , , < , , , , @ @ @ @ X X X X . . . . . . . .         X X X . . . . . . . . . . . .         wXwXwXwXwXwXwXwXwXwXwXwXwXwXwXwXwXwXwXwXwXwXwXwXwXwXwXwXwXwXwXwXwXwXwXwXwXwXwXwXwXwXwXwXwXwXwX",
"wXwXwXwXwXwXwXwXwXwXwXwXwXwXwXwXwXwXwXwXwXwXwXwXwXwXwXwXwXwXwXwXwXwXwXwXwXwXwXwXwXwXwXwXwXwXwXwXwXwXwXwXwXwXwXwXwXwXwXwXwXwXwXwXwXwXwXwXwXwXwXwXwXwXwXwXwXwXwXwXwXwXwXwXwXwXwXwXwXwXwXwXwXwXwXwXwXwXwXwXwXwXwXwXwXwXwXwXwXwXwXwXwXwXwXwXwXwXwXwXwXwXwXwXwXwXwXwXwXwXwXwXwXwXeXeX<.<.<.<.u u u u q q q q o o o o         ~ ~ ~ ~ G G G G S S S S # # # # # # # # @ @ @ @ @ @ @ @ @ @ @ @ X X X X @ O O O # # # # @ @ @ @ # # # # # # # # $ $ $ $ $ $ $ # # # # = $ $ $ $ $ $ $ $ $ $ $ < < < < # @ @ @ 1 1 1 1 S S S 8 7 7 7 7 8 8 8 8 < < < < , , , , < < < < 1 1 1 < < < < < , , , , # # # # O O O O . . . . . . . . . . . . X X X X X . . . . . . . .     # # # # wXwXwXwXwXwXwXwXwXwXwXwXwXwXwXwXwXwXwXwXwXwXwXwXwXwXwXwXwXwXwXwXwXwXwXwXwXwXwXwXwXwXwXwXwXwXwX",
"wXwXwXwXwXwXwXwXwXwXwXwXwXwXwXwXwXwXwXwXwXwXwXwXwXwXwXwXwXwXwXwXwXwXwXwXwXwXwXwXwXwXwXwXwXwXwXwXwXwXwXwXwXwXwXwXwXwXwXwXwXwXwXwXwXwXwXwXwXwXwXwXwXwXwXwXwXwXwXwXwXwXwXwXwXwXwXwXwXwXwXwXwXwXwXwXwXwXwXwXwXwXwXwXwXwXwXwXwXwXwXwXwXwXwXwXwXwXwXwXwXwXwXwXwXwXwXwXwXwXwXwXwXwXwXwX<.<.<.<.u u u u q q q q o o o o         ~ ~ ~ ~ G G G G S S S S # # # # # # # # @ @ @ @ @ @ X X X X X X X X X X @ @ @ @ @ @ @ @ @ @ @ @ # # $ $ # # # # $ $ $ $ $ $ $ # # # # $ = = = $ $ $ $ $ $ $ $ < < < < @ # # # 1 1 1 1 S S S S 7 7 7 7 8 8 8 8 < < < < , , , , < < < < < 1 1 1 < < < < , , , , # @ @ @ O O O O . . . . . . . . . . . . . X X X X . . . . . .         # # # # wXwXwXwXwXwXwXwXwXwXwXwXwXwXwXwXwXwXwXwXwXwXwXwXwXwXwXwXwXwXwXwXwXwXwXwXwXwXwXwXwXwXwXwXwXwXwX",
"wXwXwXwXwXwXwXwXwXwXwXwXwXwXwXwXwXwXwXwXwXwXwXwXwXwXwXwXwXwXwXwXwXwXwXwXwXwXwXwXwXwXwXwXwXwXwXwXwXwXwXwXwXwXwXwXwXwXwXwXwXwXwXwXwXwXwXwXwXwXwXwXwXwXwXwXwXwXwXwXwXwXwXwXwXwXwXwXwXwXwXwXwXwXwXwXwXwXwXwXwXwXwXwXwXwXwXwXwXwXwXwXwXwXwXwXwXwXwXwXwXwXwXwXwXwXwXwXwXwXwXwXwXwXwXwX<.<.<.<.u u u u q q q q o o o o         ~ ~ ~ ~ G G G G S S S S # # # # # # # # @ @ @ @ @ @ X X X X @ O X X X X @ @ @ @ @ @ @ @ @ @ @ @ # $ $ $ # # # # $ $ $ $ $ $ $ # # # # = = = = $ $ $ $ $ $ $ $ < < < < @ # # # 1 1 1 1 S S S S 7 7 7 7 8 8 8 8 < < < < , , , , < < < < < 1 1 1 < < < < , , , , # @ @ @ O O O O . . . . . . . . . . . . . X X X X . . . . . .         # # # # wXwXwXwXwXwXwXwXwXwXwXwXwXwXwXwXwXwXwXwXwXwXwXwXwXwXwXwXwXwXwXwXwXwXwXwXwXwXwXwXwXwXwXwXwXwXwX",
"wXwXwXwXwXwXwXwXwXwXwXwXwXwXwXwXwXwXwXwXwXwXwXwXwXwXwXwXwXwXwXwXwXwXwXwXwXwXwXwXwXwXwXwXwXwXwXwXwXwXwXwXwXwXwXwXwXwXwXwXwXwXwXwXwXwXwXwXwXwXwXwXwXwXwXwXwXwXwXwXwXwXwXwXwXwXwXwXwXwXwXwXwXwXwXwXwXwXwXwXwXwXwXwXwXwXwXwXwXwXwXwXwXwXwXwXwXwXwXwXwXwXwXwXwXwXwXwXwXwXwXwXwXwXwXwX9.9.<.<.u u u u q q q q o o o o         ~ ~ ~ ~ G G G G S S S S # # # # # # # # @ @ @ @ @ @ @ @ @ @ @ @ X X X X @ @ @ @ @ # # # @ @ @ @ # # $ $ # # # # $ $ $ $ $ $ $ # # # # = = = = $ $ $ $ $ $ $ $ < < < < # # # @ 1 1 1 1 S S 8 8 7 7 7 8 8 8 8 8 < < < < , , , , < < < < < 1 1 1 < < < < , , , , # # # # O @ @ O . . . . . . . . . . . . . . . X . . . . . . . .   . . # # # # wXwXwXwXwXwXwXwXwXwXwXwXwXwXwXwXwXwXwXwXwXwXwXwXwXwXwXwXwXwXwXwXwXwXwXwXwXwXwXwXwXwXwXwXwXwXwX",
"wXwXwXwXwXwXwXwXwXwXwXwXwXwXwXwXwXwXwXwXwXwXwXwXwXwXwXwXwXwXwXwXwXwXwXwXwXwXwXwXwXwXwXwXwXwXwXwXwXwXwXwXwXwXwXwXwXwXwXwXwXwXwXwXwXwXwXwXwXwXwXwXwXwXwXwXwXwXwXwXwXwXwXwXwXwXwXwXwXwXwXwXwXwXwXwXwXwXwXwXwXwXwXwXwXwXwXwXwXwXwXwXwXwXwXwXwXwXwXwXwXwXwXwXwXwXwXwXwXwXwXwXwXwXwXwXz z z z q q q q & & & &         ~ ~ ~ ~ iXiXiXiXG G G G < < < < @ @ @ @ @ @ @ @ @ @ @ @ @ @ @ @ @ @ @ @ X X X X X X X X @ @ @ @ = = = = # # # # # # # # @ @ @ , < < < @ @ @ @ # # # # , , , , $ $ $ $ , = = , 6 6 6 6 1 1 1 3 6 6 6 6 J J J J G G G G 1 1 1 1 , , , , < < < < < < < < < < < < < < < < = = = = , $ $ $ X X X X .     .         . . . . . . . . . . . . . . . $ $ $ $ wXwXwXwXwXwXwXwXwXwXwXwXwXwXwXwXwXwXwXwXwXwXwXwXwXwXwXwXwXwXwXwXwXwXwXwXwXwXwXwXwXwXwXwXwXwXwX",
"wXwXwXwXwXwXwXwXwXwXwXwXwXwXwXwXwXwXwXwXwXwXwXwXwXwXwXwXwXwXwXwXwXwXwXwXwXwXwXwXwXwXwXwXwXwXwXwXwXwXwXwXwXwXwXwXwXwXwXwXwXwXwXwXwXwXwXwXwXwXwXwXwXwXwXwXwXwXwXwXwXwXwXwXwXwXwXwXwXwXwXwXwXwXwXwXwXwXwXwXwXwXwXwXwXwXwXwXwXwXwXwXwXwXwXwXwXwXwXwXwXwXwXwXwXwXwXwXwXwXwXwXwXwXwXwXz z z z q q q q & & & &         ~ ~ ~ ~ iXiXiXiXG G G G < < < < @ @ @ @ @ @ @ @ @ @ @ @ @ @ O X @ @ X O X X X X X X X X @ @ @ @ , = = = # # # # # # # # @ @ @ , , , , @ @ @ @ # # # # , , , , $ $ $ $ = = = , 6 6 6 6 3 1 1 1 6 6 6 6 J J J J G G G G 1 1 1 1 , , , , < < < < < < < < < < < < < < < < = = = , , = $ $ X X X X .               . . . . . . . . . . . . . . . $ $ # # wXwXwXwXwXwXwXwXwXwXwXwXwXwXwXwXwXwXwXwXwXwXwXwXwXwXwXwXwXwXwXwXwXwXwXwXwXwXwXwXwXwXwXwXwXwXwX",
"wXwXwXwXwXwXwXwXwXwXwXwXwXwXwXwXwXwXwXwXwXwXwXwXwXwXwXwXwXwXwXwXwXwXwXwXwXwXwXwXwXwXwXwXwXwXwXwXwXwXwXwXwXwXwXwXwXwXwXwXwXwXwXwXwXwXwXwXwXwXwXwXwXwXwXwXwXwXwXwXwXwXwXwXwXwXwXwXwXwXwXwXwXwXwXwXwXwXwXwXwXwXwXwXwXwXwXwXwXwXwXwXwXwXwXwXwXwXwXwXwXwXwXwXwXwXwXwXwXwXwXwXwXwXwXwXz z z z q q q q & & & &         ~ ~ ~ ~ iXiXiXiXG G G G < < < < @ @ @ @ @ @ @ @ @ @ @ @ @ @ @ X @ @ X X X X X X X X X X @ @ @ @ = = , = # # # # # # # # @ @ @ , , , , @ @ @ @ # # # # , , , , $ $ $ $ , = = , 6 6 6 6 3 1 1 1 6 6 6 3 J J J J G G G G 1 1 1 1 , , , , < < < < < < < < < < < < < < < < = = = = , = $ = X X X X .               . . . . . . . . . . . . . . . $ $ # # wXwXwXwXwXwXwXwXwXwXwXwXwXwXwXwXwXwXwXwXwXwXwXwXwXwXwXwXwXwXwXwXwXwXwXwXwXwXwXwXwXwXwXwXwXwXwX",
"wXwXwXwXwXwXwXwXwXwXwXwXwXwXwXwXwXwXwXwXwXwXwXwXwXwXwXwXwXwXwXwXwXwXwXwXwXwXwXwXwXwXwXwXwXwXwXwXwXwXwXwXwXwXwXwXwXwXwXwXwXwXwXwXwXwXwXwXwXwXwXwXwXwXwXwXwXwXwXwXwXwXwXwXwXwXwXwXwXwXwXwXwXwXwXwXwXwXwXwXwXwXwXwXwXwXwXwXwXwXwXwXwXwXwXwXwXwXwXwXwXwXwXwXwXwXwXwXwXwXwXwXwXwXwXwXz z z z q q q q & & & &         ~ ~ ~ ~ iXiXiXiXG G G G < < < < @ @ @ @ @ @ @ @ @ @ @ @ @ @ X X @ X X X X X X X X X X X @ @ @ @ , , , , # # # # # # # # @ @ @ , , , , @ @ @ @ # # # # , , , , $ $ $ $ , $ = = 6 6 6 6 1 1 1 1 6 6 6 3 J J J J G G G G 1 1 1 1 , , , , < , , < < < < < < < < < < < < < = = = = , , , = X X X X . . .           . . . . . . . . . . . . . . . $ $ # # wXwXwXwXwXwXwXwXwXwXwXwXwXwXwXwXwXwXwXwXwXwXwXwXwXwXwXwXwXwXwXwXwXwXwXwXwXwXwXwXwXwXwXwXwXwXwX",
"wXwXwXwXwXwXwXwXwXwXwXwXwXwXwXwXwXwXwXwXwXwXwXwXwXwXwXwXwXwXwXwXwXwXwXwXwXwXwXwXwXwXwXwXwXwXwXwXwXwXwXwXwXwXwXwXwXwXwXwXwXwXwXwXwXwXwXwXwXwXwXwXwXwXwXwXwXwXwXwXwXwXwXwXwXwXwXwXwXwXwXwXwXwXwXwXwXwXwXwXwXwXwXwXwXwXwXwXwXwXwXwXwXwXwXwXwXwXwXwXwXwXwXwXwXwXwXwXwXwXwXwXh h h h h.h.h.h.q q e e o o o o         J J J J fXfXfXfXJ J J J 1 1 1 1 # # # # # # # # @ @ @ @ @ @ X X X X X X @ @ @ @ @ @ @ @ @ @ @ @ = , , , # # # # $ $ $ $ # # # , , , , = = = = $ $ $ $ $ $ $ , < < < < # # # # 1 1 1 1 1 1 1 1 < < < < < < < < 7 7 7 7 < < < < , , , , , , , , , < < < < < < < < < < < < < < < , , = = @ @ @ @ X X X X . . . . . . .         . . . . . . . . . . . . wXwXwXwXwXwXwXwXwXwXwXwXwXwXwXwXwXwXwXwXwXwXwXwXwXwXwXwXwXwXwXwXwXwXwXwXwXwXwXwXwXwXwXwXwXwXwX",
"wXwXwXwXwXwXwXwXwXwXwXwXwXwXwXwXwXwXwXwXwXwXwXwXwXwXwXwXwXwXwXwXwXwXwXwXwXwXwXwXwXwXwXwXwXwXwXwXwXwXwXwXwXwXwXwXwXwXwXwXwXwXwXwXwXwXwXwXwXwXwXwXwXwXwXwXwXwXwXwXwXwXwXwXwXwXwXwXwXwXwXwXwXwXwXwXwXwXwXwXwXwXwXwXwXwXwXwXwXwXwXwXwXwXwXwXwXwXwXwXwXwXwXwXwXwXwXwXwXwXwXwXh h h h d.d.d.d.e e e e o o o o         J J J J fXfXfXfXJ J J J 1 1 1 1 # # # # # @ @ @ @ @ @ @ @ @ X X X X X X X X @ @ @ @ @ @ @ @ @ @ = $ $ $ # # # # $ $ # # # # $ , , , , $ $ $ $ $ $ $ $ = $ $ , < < < < $ # # # 1 1 1 1 1 1 1 1 < < < < < < < < 7 7 7 7 < < < < , , , , , , , , < < < < < < < < < < < < < < < < $ , , $ @ @ @ @ X X X X . . . . . . .         . . . . . . . . . . . . wXwXwXwXwXwXwXwXwXwXwXwXwXwXwXwXwXwXwXwXwXwXwXwXwXwXwXwXwXwXwXwXwXwXwXwXwXwXwXwXwXwXwXwXwXwXwX",
"wXwXwXwXwXwXwXwXwXwXwXwXwXwXwXwXwXwXwXwXwXwXwXwXwXwXwXwXwXwXwXwXwXwXwXwXwXwXwXwXwXwXwXwXwXwXwXwXwXwXwXwXwXwXwXwXwXwXwXwXwXwXwXwXwXwXwXwXwXwXwXwXwXwXwXwXwXwXwXwXwXwXwXwXwXwXwXwXwXwXwXwXwXwXwXwXwXwXwXwXwXwXwXwXwXwXwXwXwXwXwXwXwXwXwXwXwXwXwXwXwXwXwXwXwXwXwXwXwXwXwXwXh h h h h.d.d.d.e e e e o o o o         J J J J fXfXfXfXJ J J J 1 1 1 1 # # # # # # # @ @ @ @ @ @ @ X X X X X X X O @ @ @ @ @ @ @ @ @ @ = = $ $ # # # # $ $ # # # $ $ , , , , $ $ $ $ $ $ $ $ = $ $ , < < < < $ # # # 1 1 1 1 1 1 1 1 < < < < < < < < 7 7 7 7 < < < < , , , , , , , , < < < < < < < < < < < < < < < < $ , , $ @ @ @ @ X X X X . . . . . . .         . . . . . . . . . . . . wXwXwXwXwXwXwXwXwXwXwXwXwXwXwXwXwXwXwXwXwXwXwXwXwXwXwXwXwXwXwXwXwXwXwXwXwXwXwXwXwXwXwXwXwXwXwX",
"wXwXwXwXwXwXwXwXwXwXwXwXwXwXwXwXwXwXwXwXwXwXwXwXwXwXwXwXwXwXwXwXwXwXwXwXwXwXwXwXwXwXwXwXwXwXwXwXwXwXwXwXwXwXwXwXwXwXwXwXwXwXwXwXwXwXwXwXwXwXwXwXwXwXwXwXwXwXwXwXwXwXwXwXwXwXwXwXwXwXwXwXwXwXwXwXwXwXwXwXwXwXwXwXwXwXwXwXwXwXwXwXwXwXwXwXwXwXwXwXwXwXwXwXwXwXwXwXwXwXwXwXh h h h h.h.d.d.e e e e o o o o         J J J J fXfXfXfXJ J J J 1 1 1 1 # # # # # # # # @ @ @ @ @ @ @ @ X X X X X X @ @ @ @ @ @ # # @ @ , , , , # # # # $ $ # # # # $ , , , , $ , , = $ $ $ $ $ $ , , < < < < # # # # 1 1 1 1 1 1 1 1 < < < < < < < < 7 7 7 7 < < < < , , , , , , , , < < < < < < < < < < < < < < < < $ = = $ @ @ @ @ X X X X . . . . . . .         . . . . . . . . . . . . wXwXwXwXwXwXwXwXwXwXwXwXwXwXwXwXwXwXwXwXwXwXwXwXwXwXwXwXwXwXwXwXwXwXwXwXwXwXwXwXwXwXwXwXwXwXwX",
"wXwXwXwXwXwXwXwXwXwXwXwXwXwXwXwXwXwXwXwXwXwXwXwXwXwXwXwXwXwXwXwXwXwXwXwXwXwXwXwXwXwXwXwXwXwXwXwXwXwXwXwXwXwXwXwXwXwXwXwXwXwXwXwXwXwXwXwXwXwXwXwXwXwXwXwXwXwXwXwXwXwXwXwXwXwXwXwXwXwXwXwXwXwXwXwXwXwXwXwXwXwXwXwXwXwXwXwXwXwXwXwXwXwXwXwXwXwXwXwXwXwXwXwXwXwXwXwXwXwXwXwXk k <.<.<.<.%.%.9 9 w w & & & &         D D G G yXyXyXyX~ ~ ~ ~ < < < < @ @ @ @ # # # # @ @ @ @ @ @ @ @ @ @ X X X X @ @ @ @ @ @ @ @ @ @ , , , , # # # # $ $ # # # # # $ $ $ $ , , , , , , , , $ $ $ $ 7 7 7 7 = = = , < < < < S S S S 1 1 1 1 , , , , < < < < , , , , $ $ $ $ $ $ $ $ $ = $ $ , , , , < < < < , , , , # # # # X X X X @ @ @ @ . . . .       . . . . X X X X         . . . . wXwXwXwXwXwXwXwXwXwXwXwXwXwXwXwXwXwXwXwXwXwXwXwXwXwXwXwXwXwXwXwXwXwXwXwXwXwXwXwXwXwXwXwXwXwXwX",
"wXwXwXwXwXwXwXwXwXwXwXwXwXwXwXwXwXwXwXwXwXwXwXwXwXwXwXwXwXwXwXwXwXwXwXwXwXwXwXwXwXwXwXwXwXwXwXwXwXwXwXwXwXwXwXwXwXwXwXwXwXwXwXwXwXwXwXwXwXwXwXwXwXwXwXwXwXwXwXwXwXwXwXwXwXwXwXwXwXwXwXwXwXwXwXwXwXwXwXwXwXwXwXwXwXwXwXwXwXwXwXwXwXwXwXwXwXwXwXwXwXwXwXwXwXwXwXwXeXwXwXwXu u u u <.<.<.<.w w w w & & & &         G G G D yXyXyXyX~ ~ ~ ~ < < < < @ @ @ @ # # # # @ @ @ @ @ @ X X @ @ @ @ @ @ @ @ @ @ @ @ @ @ @ @ = = = , # # # # $ # # # # # # $ $ $ $ , , , , , , , , $ $ $ $ 7 7 7 7 $ = = = < < < < S S S S 1 < < < , , , , < < < < , , , , $ $ $ $ , $ $ $ $ $ $ $ , , , , < < < < , , , , # # # # X X X X @ @ @ @ . . . .       . . . . X X X X         . . . . wXwXwXwXwXwXwXwXwXwXwXwXwXwXwXwXwXwXwXwXwXwXwXwXwXwXwXwXwXwXwXwXwXwXwXwXwXwXwXwXwXwXwXwXwXwXwX",
"wXwXwXwXwXwXwXwXwXwXwXwXwXwXwXwXwXwXwXwXwXwXwXwXwXwXwXwXwXwXwXwXwXwXwXwXwXwXwXwXwXwXwXwXwXwXwXwXwXwXwXwXwXwXwXwXwXwXwXwXwXwXwXwXwXwXwXwXwXwXwXwXwXwXwXwXwXwXwXwXwXwXwXwXwXwXwXwXwXwXwXwXwXwXwXwXwXwXwXwXwXwXwXwXwXwXwXwXwXwXwXwXwXwXwXwXwXwXwXwXwXwXwXwXwXwXwXwXeXeXwXwXu u u u <.<.<.<.w w w w & & & &         G G D D yXyXyXyX~ ~ ~ ~ < < < < @ @ @ @ # # # # @ @ @ @ @ @ @ X @ @ @ @ O X @ @ @ @ @ @ @ @ @ @ = = = , # # # # # # # # # # # $ $ $ $ , , , , , , , , $ $ $ $ 7 7 7 7 $ = = = < < < < S S S S 1 < < < , , , , < < < < , , , , $ $ $ $ , $ $ = $ $ $ $ , , , , < < < < , , , , # # # # X X X X @ @ @ @ . . . .       . . . . X X X X         . . . . wXwXwXwXwXwXwXwXwXwXwXwXwXwXwXwXwXwXwXwXwXwXwXwXwXwXwXwXwXwXwXwXwXwXwXwXwXwXwXwXwXwXwXwXwXwXwX",
"wXwXwXwXwXwXwXwXwXwXwXwXwXwXwXwXwXwXwXwXwXwXwXwXwXwXwXwXwXwXwXwXwXwXwXwXwXwXwXwXwXwXwXwXwXwXwXwXwXwXwXwXwXwXwXwXwXwXwXwXwXwXwXwXwXwXwXwXwXwXwXwXwXwXwXwXwXwXwXwXwXwXwXwXwXwXwXwXwXwXwXwXwXwXwXwXwXwXwXwXwXwXwXwXwXwXwXwXwXwXwXwXwXwXwXwXwXwXwXwXwXwXwXwXwXwXwXwXeXeXeXeXu k u u <.<.<.<.w w w w & & & &         G G G G yXyXyXyX~ ~ ~ ~ < < < < @ @ @ @ # # # # @ @ @ @ @ @ X X X X @ @ X X X X @ @ @ @ @ @ @ @ = = = = # # # # # # # # # # # $ $ $ $ , , , , , , , , $ $ $ $ 7 7 7 7 $ = = = < < < < S S S S 1 < < < , , , , < < < < , , , , $ $ $ $ , , , = , $ $ $ , , , , < < < < , , , , # # # # X X X X @ @ @ @ . . . .       . . . . X X X X         . . . . wXwXwXwXwXwXwXwXwXwXwXwXwXwXwXwXwXwXwXwXwXwXwXwXwXwXwXwXwXwXwXwXwXwXwXwXwXwXwXwXwXwXwXwXwXwXwX",
"wXwXwXwXwXwXwXwXwXwXwXwXwXwXwXwXwXwXwXwXwXwXwXwXwXwXwXwXwXwXwXwXwXwXwXwXwXwXwXwXwXwXwXwXwXwXwXwXwXwXwXwXwXwXwXwXwXwXwXwXwXwXwXwXwXwXwXwXwXwXwXwXwXwXwXwXwXwXwXwXwXwXwXwXwXwXwXwXwXwXwXwXwXwXwXwXwXwXwXwXwXwXwXwXwXwXwXwXwXwXwXwXwXwXwXwXwXwXwXwXwXwXwXwXwXwXwXwXeXeXeXeXk.k.k.k.6.6.6.6.y y y y & & & & . . . . S S S S uXuXyXyXJ J J J < < < < @ @ @ @ @ @ @ @ @ @ @ @ @ @ X X X @ @ @ X X X X X X X X @ @ @ @ @ @ @ @ # # # # # # # # # # # $ $ $ $ # # # # $ = = = $ $ $ $ , , , , = = = = , , , , < < < < 8 8 8 8 , , , , , , , , # # # # $ $ $ $ # # # # , , , , , , , , < < < < $ $ $ $ X X X X X X X X X X X X . . . . . . . .   . . @ @ @ @ @ @ @ @ @ @ @ @ @ @ @ @ wXwXwXwXwXwXwXwXwXwXwXwXwXwXwXwXwXwXwXwXwXwXwXwXwXwXwXwXwXwXwXwXwXwXwXwXwXwXwXwXwXwXwX",
"wXwXwXwXwXwXwXwXwXwXwXwXwXwXwXwXwXwXwXwXwXwXwXwXwXwXwXwXwXwXwXwXwXwXwXwXwXwXwXwXwXwXwXwXwXwXwXwXwXwXwXwXwXwXwXwXwXwXwXwXwXwXwXwXwXwXwXwXwXwXwXwXwXwXwXwXwXwXwXwXwXwXwXwXwXwXwXwXwXwXwXwXwXwXwXwXwXwXwXwXwXwXwXwXwXwXwXwXwXwXwXwXwXwXwXwXwXwXwXwXwXwXwXwXwXwXwXwXwXwXwXwXk.k.k.k.6.6.6.6.y y y y & & & & . . . . S S S S yXyXyXyXJ J J J < < < < @ @ @ @ @ @ @ @ @ @ @ @ @ @ @ @ @ @ @ @ X X X X X X X X @ @ @ @ @ @ @ @ # # # # # # # # # # # $ $ $ $ $ # # # = = = , $ $ $ $ , , , , $ $ $ , < < , , < < < < 8 8 8 8 , , , , , , , , # # # # $ $ $ $ # # # # , , , , , , , , < 1 1 1 $ $ $ $ X X X X X X X X X X X X . . . . . . . .       @ @ @ @ @ @ @ @ # # # # @ @ @ @ wXwXwXwXwXwXwXwXwXwXwXwXwXwXwXwXwXwXwXwXwXwXwXwXwXwXwXwXwXwXwXwXwXwXwXwXwXwXwXwXwXwXwX",
"wXwXwXwXwXwXwXwXwXwXwXwXwXwXwXwXwXwXwXwXwXwXwXwXwXwXwXwXwXwXwXwXwXwXwXwXwXwXwXwXwXwXwXwXwXwXwXwXwXwXwXwXwXwXwXwXwXwXwXwXwXwXwXwXwXwXwXwXwXwXwXwXwXwXwXwXwXwXwXwXwXwXwXwXwXwXwXwXwXwXwXwXwXwXwXwXwXwXwXwXwXwXwXwXwXwXwXwXwXwXwXwXwXwXwXwXwXwXwXwXwXwXwXwXwXwXwXwXwXwXwXwXk.k.k.k.6.1.1.1.y y y y & & & & . . . . S S S S yXyXyXyXJ J J J < < < < @ @ @ @ @ @ @ @ @ @ @ @ @ @ @ @ @ @ @ @ X X X X X X X X @ @ @ @ @ @ @ @ # # # # # # # # # # # $ $ $ $ $ # # # = = = , $ $ $ $ , < < , $ $ $ , , < , , < < < < 8 8 8 8 , , , , , , , , # # # # $ $ $ $ # # # # , , , , , , , , < 1 1 1 $ $ $ $ X X X X X X X X X X X X . . . . . . . .       @ @ @ @ @ @ @ @ # # # # @ @ @ @ wXwXwXwXwXwXwXwXwXwXwXwXwXwXwXwXwXwXwXwXwXwXwXwXwXwXwXwXwXwXwXwXwXwXwXwXwXwXwXwXwXwXwX",
"wXwXwXwXwXwXwXwXwXwXwXwXwXwXwXwXwXwXwXwXwXwXwXwXwXwXwXwXwXwXwXwXwXwXwXwXwXwXwXwXwXwXwXwXwXwXwXwXwXwXwXwXwXwXwXwXwXwXwXwXwXwXwXwXwXwXwXwXwXwXwXwXwXwXwXwXwXwXwXwXwXwXwXwXwXwXwXwXwXwXwXwXwXwXwXwXwXwXwXwXwXwXwXwXwXwXwXwXwXwXwXwXwXwXwXwXwXwXwXwXwXwXwXwXwXwXwXwXwXwXwXwXk.k.k.k.6.6.6.6.y y y y & & & & . . . . S S S S yXyXyXyXJ J J J < < < < @ @ @ @ @ @ @ @ @ @ @ @ X @ @ @ O @ X X X X X X X X X X @ @ @ @ @ @ @ @ # # # # # # # # # # # $ $ $ $ # # # # = = = , $ $ $ $ , < < < , $ $ $ , , , , < < < < 8 8 8 8 , , , , , , , , # # # # $ $ $ $ # # # # , , , , , , , , < 1 1 1 $ $ $ $ X X X X X X X X X X X X . . . . . . . . .     @ @ @ @ @ @ @ @ # # # # @ @ @ @ wXwXwXwXwXwXwXwXwXwXwXwXwXwXwXwXwXwXwXwXwXwXwXwXwXwXwXwXwXwXwXwXwXwXwXwXwXwXwXwXwXwXwX",
"wXwXwXwXwXwXwXwXwXwXwXwXwXwXwXwXwXwXwXwXwXwXwXwXwXwXwXwXwXwXwXwXwXwXwXwXwXwXwXwXwXwXwXwXwXwXwXwXwXwXwXwXwXwXwXwXwXwXwXwXwXwXwXwXwXwXwXwXwXwXwXwXwXwXwXwXwXwXwXwXwXwXwXwXwXwXwXwXwXwXwXwXwXwXwXwXwXwXwXwXwXwXwXwXwXwXwXwXwXwXwXwXwXwXwXwXwXwXwXwXwXwXwXwXwXwXwXwXwXwXwXwXl.l.l.l.d.d.d.d.u u u u & & & &         8 8 8 8 uXuXyXyX^ ^ ^ ^ < < < < @ @ @ @ @ @ @ @ @ @ @ @ X @ @ @ X X X X X X X X X X X X @ @ @ @ @ @ @ @ # # # # 1 1 1 1 # # # # # # # , , , , # # # # , , $ = $ , , , $ $ $ $ < < < < , , , , $ $ $ $ $ $ $ $ # # # # , , , , # # # # $ $ $ $ $ $ $ $ = $ $ $ $ $ $ $ # # # # @ @ @ @ X X X X . . . . @ @ @ @ 6 6 6 . . . . . . X X . . . . . . . .         wXwXwXwXwXwXwXwXwXwXwXwXwXwXwXwXwXwXwXwXwXwXwXwXwXwXwXwXwXwXwXwXwXwXwXwXwXwXwXwXwXwXwX",
"wXwXwXwXwXwXwXwXwXwXwXwXwXwXwXwXwXwXwXwXwXwXwXwXwXwXwXwXwXwXwXwXwXwXwXwXwXwXwXwXwXwXwXwXwXwXwXwXwXwXwXwXwXwXwXwXwXwXwXwXwXwXwXwXwXwXwXwXwXwXwXwXwXwXwXwXwXwXwXwXwXwXwXwXwXwXwXwXwXwXwXwXwXwXwXwXwXwXwXwXwXwXwXwXwXwXwXwXwXwXwXwXwXwXwXwXwXwXwXwXwXwXwXwXwXwXwXwXwXwXwXwXl.l.l.l.q.q.q.d.u u u u & & ; ; . .     8 8 8 8 uXuXuXuX^ ^ ^ ^ < < < < @ @ @ @ X X X @ @ @ @ @ X X X X @ @ X X X X X X X X X X @ @ @ @ # # # # # # # # 1 1 1 1 # # # # # # $ , , , , # # # # $ , = = = $ $ $ $ $ $ $ < < < < , , , , $ $ $ $ $ $ $ $ # # # # , , , , # # # $ $ $ $ $ $ $ $ $ , $ $ = $ $ $ $ # # # # @ @ @ @ X X X X . . . . @ @ @ @ 6 6 6 . . . . . . X X . . . . . . . .         wXwXwXwXwXwXwXwXwXwXwXwXwXwXwXwXwXwXwXwXwXwXwXwXwXwXwXwXwXwXwXwXwXwXwXwXwXwXwXwXwXwXwX",
"wXwXwXwXwXwXwXwXwXwXwXwXwXwXwXwXwXwXwXwXwXwXwXwXwXwXwXwXwXwXwXwXwXwXwXwXwXwXwXwXwXwXwXwXwXwXwXwXwXwXwXwXwXwXwXwXwXwXwXwXwXwXwXwXwXwXwXwXwXwXwXwXwXwXwXwXwXwXwXwXwXwXwXwXwXwXwXwXwXwXwXwXwXwXwXwXwXwXwXwXwXwXwXwXwXwXwXwXwXwXwXwXwXwXwXwXwXwXwXwXwXwXwXwXwXwXwXwXwXwXwXwXl.l.l.l.q.q.d.d.u u u u & & ; ; . .     8 8 8 8 uXuXuXuX^ ^ ^ ^ < < < < @ @ @ @ X X X X @ @ @ @ X X X X @ @ X X X X X X X X X X @ @ @ @ # # # # # # # # 1 1 1 1 # # # # # # # < , , , # # # # = , = , = $ $ $ $ $ $ $ < < < < , , , , $ $ $ $ $ $ $ $ # # # # , , , , # # # $ $ $ $ $ $ $ $ $ , $ $ $ $ $ $ $ # # # # @ @ @ @ X X X X . . . . @ @ @ @ 6 6 6 . . . . . . X X . . . . . . . .         wXwXwXwXwXwXwXwXwXwXwXwXwXwXwXwXwXwXwXwXwXwXwXwXwXwXwXwXwXwXwXwXwXwXwXwXwXwXwXwXwXwXwX",
"wXwXwXwXwXwXwXwXwXwXwXwXwXwXwXwXwXwXwXwXwXwXwXwXwXwXwXwXwXwXwXwXwXwXwXwXwXwXwXwXwXwXwXwXwXwXwXwXwXwXwXwXwXwXwXwXwXwXwXwXwXwXwXwXwXwXwXwXwXwXwXwXwXwXwXwXwXwXwXwXwXwXwXwXwXwXwXwXwXwXwXwXwXwXwXwXwXwXwXwXwXwXwXwXwXwXwXwXwXwXwXwXwXwXwXwXwXwXwXwXwXwXwXwXwXwXwXwXwXwXwXwXl.l.l.l.q.q.q.q.u u u u & ; ; ;         8 8 8 8 uXuXuXuX^ ^ ^ ^ < < < < @ @ @ @ X X X X @ @ @ @ @ @ O @ @ @ @ @ X X X X X X X X @ @ @ @ # # # # # # # # 1 1 1 1 # # # # # # # < , , , # # # # = $ $ , , $ $ $ $ $ $ $ < < < < , , , , $ $ $ $ $ $ $ $ # # # # , , , , # # # $ $ $ $ $ $ $ $ $ , , = = $ $ $ $ # # # # @ @ @ @ X X X X . . . . @ @ @ @ 6 6 6 . . . . . . X X . . . . . . . .         wXwXwXwXwXwXwXwXwXwXwXwXwXwXwXwXwXwXwXwXwXwXwXwXwXwXwXwXwXwXwXwXwXwXwXwXwXwXwXwXwXwXwX",
"wXwXwXwXwXwXwXwXwXwXwXwXwXwXwXwXwXwXwXwXwXwXwXwXwXwXwXwXwXwXwXwXwXwXwXwXwXwXwXwXwXwXwXwXwXwXwXwXwXwXwXwXwXwXwXwXwXwXwXwXwXwXwXwXwXwXwXwXwXwXwXwXwXwXwXwXwXwXwXwXwXwXwXwXwXwXwXwXwXwXwXwXwXwXwXwXwXwXwXwXwXwXwXwXwXwXwXwXwXwXwXwXwXwXwXwXwXwXwXwXwXwXwXwXwXwXwXwXwXwXwXwX4.4.4.4.<.<.<.<.w w w w     . . 8 7 8 7 uXuXiXiXiXiXiXiX^ ^ ^ ^ 8 8 8 8 @ @ @ @ X X X X @ @ @ @ @ @ @ @ @ @ @ @ @ @ X X @ @ @ @ @ @ @ @ @ @ @ @ # # # # $ $ $ # < < < $ $ $ $ < < < < < 1 1 1 < < < < $ $ $ $ , , , , , , , , < < < < , , < , # # # # $ $ $ $ = = $ = $ $ $ $ $ # # # = $ $ , , , = , # # # # # # # # @ @ @ @ @ @ @ @ X O @ @ . . . . . . . @ @ @ @ X X X X . . . . . . . . . . . . . . . . X X X X wXwXwXwXwXwXwXwXwXwXwXwXwXwXwXwXwXwXwXwXwXwXwXwXwXwXwXwXwXwXwXwXwXwXwX",
"wXwXwXwXwXwXwXwXwXwXwXwXwXwXwXwXwXwXwXwXwXwXwXwXwXwXwXwXwXwXwXwXwXwXwXwXwXwXwXwXwXwXwXwXwXwXwXwXwXwXwXwXwXwXwXwXwXwXwXwXwXwXwXwXwXwXwXwXwXwXwXwXwXwXwXwXwXwXwXwXwXwXwXwXwXwXwXwXwXwXwXwXwXwXwXwXwXwXwXwXwXwXwXwXwXwXwXwXwXwXwXwXwXwXwXwXwXwXwXwXwXwXwXwXwXwXwXwXwXwXwXwX4.4.4.4.<.<.<.<.e e e w         8 8 8 8 uXiXiXiXiXiXiXiX^ ^ ^ ^ 8 8 8 8 @ @ @ @ X X X X @ @ @ @ @ @ @ @ @ @ @ @ @ @ @ X O X X X @ @ @ O @ @ @ @ # # # # $ $ # # < < < $ $ $ $ < < < < 1 1 1 1 < < < < $ $ $ $ , , , , , , , , < < < < , , , , # # # # $ $ $ $ = = , , $ $ $ $ $ # # # = $ $ $ $ , , , # # # # # @ @ # @ @ @ @ @ @ @ @ X O O X . . . . . . . @ @ O O X X X X . . . .     . . . . . . . . . . X X X X wXwXwXwXwXwXwXwXwXwXwXwXwXwXwXwXwXwXwXwXwXwXwXwXwXwXwXwXwXwXwXwXwXwXwX",
"wXwXwXwXwXwXwXwXwXwXwXwXwXwXwXwXwXwXwXwXwXwXwXwXwXwXwXwXwXwXwXwXwXwXwXwXwXwXwXwXwXwXwXwXwXwXwXwXwXwXwXwXwXwXwXwXwXwXwXwXwXwXwXwXwXwXwXwXwXwXwXwXwXwXwXwXwXwXwXwXwXwXwXwXwXwXwXwXwXwXwXwXwXwXwXwXwXwXwXwXwXwXwXwXwXwXwXwXwXwXwXwXwXwXwXwXwXwXwXwXwXwXwXwXwXwXwXwXwXwXwXwX4.4.4.4.<.<.<.<.e e e e         8 8 8 8 iXiXiXiXiXiXiXiX^ ^ ^ ^ 8 8 8 8 @ @ @ @ X X X X @ @ @ @ @ @ @ @ @ @ @ @ @ @ @ O O X X O @ @ @ O @ @ @ @ # # # # $ $ # # < < < $ $ $ $ < < < < 1 1 1 1 < < < < $ $ $ $ , , , , , , , , < < < < , < < , # # # # $ $ $ $ = = = , $ $ $ $ $ # # # = $ $ , , , = , # # # # # @ # # @ @ @ @ @ @ @ @ X @ @ X . . . . . . . @ @ @ @ X . X X . . . .   . . . . . . . . . . . X X X X wXwXwXwXwXwXwXwXwXwXwXwXwXwXwXwXwXwXwXwXwXwXwXwXwXwXwXwXwXwXwXwXwXwXwX",
"wXwXwXwXwXwXwXwXwXwXwXwXwXwXwXwXwXwXwXwXwXwXwXwXwXwXwXwXwXwXwXwXwXwXwXwXwXwXwXwXwXwXwXwXwXwXwXwXwXwXwXwXwXwXwXwXwXwXwXwXwXwXwXwXwXwXwXwXwXwXwXwXwXwXwXwXwXwXwXwXwXwXwXwXwXwXwXwXwXwXwXwXwXwXwXwXwXwXwXwXwXwXwXwXwXwXwXwXwXwXwXwXwXwXwXwXwXwXwXwXwXwXwXwXwXwXwXwXwXwXwXwX4.4.4.4.<.<.<.<.e e e e         8 8 8 8 iXiXiXiXuXuXiXiX~ ~ ^ ^ 8 8 8 8 @ @ @ @ X X X X @ @ @ @ @ @ @ @ X X @ @ @ @ @ @ O @ @ O @ @ X O @ @ @ @ # # # # $ $ # # < < < $ $ $ $ < < < < < < 1 1 < < < < $ $ $ $ , , , , , , , , < < < < , < , , # # # # $ $ $ $ = = , , $ $ $ $ $ # # # = , , , , $ $ $ # $ # # @ # # # @ @ @ @ @ @ @ @ X @ O O . . . . . . . @ @ @ @ X X X X . . . .   .     . . . . . . . . X X X X wXwXwXwXwXwXwXwXwXwXwXwXwXwXwXwXwXwXwXwXwXwXwXwXwXwXwXwXwXwXwXwXwXwXwX",
"wXwXwXwXwXwXwXwXwXwXwXwXwXwXwXwXwXwXwXwXwXwXwXwXwXwXwXwXwXwXwXwXwXwXwXwXwXwXwXwXwXwXwXwXwXwXwXwXwXwXwXwXwXwXwXwXwXwXwXwXwXwXwXwXwXwXwXwXwXwXwXwXwXwXwXwXwXwXwXwXwXwXwXwXwXwXwXwXwXwXwXwXwXwXwXwXwXwXwXwXwXwXwXwXwXwXwXwXwXwXwXwXwXwXwXwXwXwXwXwXwXwXwXwXwXwXwXwXwXwXwXwXx.x.x.l.r.r.r.r.r r y y         7 7 6 6 OX( ( ( ~ ~ ~ ~ 6 6 6 6 @ @ @ @ X X X X @ @ @ @ @ @ @ @ @ @ @ @ X O @ @ @ @ @ @ X X X X @ @ X X @ @ @ @ # # # @ # # # # # # # < < < < # # # # 1 1 1 1 = = = = # # # # , , , , 1 1 1 1 # # # # , , , , $ $ $ $ # $ $ # # # # # # # # # $ $ $ $ , , , , , = $ $ # # # # @ @ @ @ @ @ @ @ @ @ @ @ X @ @ O . . . . . . . X X X X X X X X 7 7 7 7           .   . . . . . . . . . . . . . wXwXwXwXwXwXwXwXwXwXwXwXwXwXwXwXwXwXwXwXwXwXwXwXwXwXwXwXwXwXwX",
"wXwXwXwXwXwXwXwXwXwXwXwXwXwXwXwXwXwXwXwXwXwXwXwXwXwXwXwXwXwXwXwXwXwXwXwXwXwXwXwXwXwXwXwXwXwXwXwXwXwXwXwXwXwXwXwXwXwXwXwXwXwXwXwXwXwXwXwXwXwXwXwXwXwXwXwXwXwXwXwXwXwXwXwXwXwXwXwXwXwXwXwXwXwXwXwXwXwXwXwXwXwXwXwXwXwXwXwXwXwXwXwXwXwXwXwXwXwXwXwXwXwXwXwXwXwXwXwXwXwXwXwXx.x.l.l.r.r.r.r.r r r y         6 6 6 6 yXN.( ( ~ ~ ^ ^ 6 6 6 6 @ @ @ @ X X X X @ @ @ @ @ @ # # @ @ @ @ X X @ @ @ @ X O X X X X O O O X @ @ @ @ # # # # # # # # # # # < < < < # # # # 1 1 1 1 $ $ $ , # # # # , , , , 1 1 1 1 # # # # , , , , $ $ $ $ # # # # # $ # # # # # # $ $ $ $ , , $ $ $ , , $ # # # # @ @ @ @ @ @ @ @ @ @ @ @ X O O O . . . . . . . . X X X X X X X 7 7 7 7         . . .   . . . . . . . . . . . . wXwXwXwXwXwXwXwXwXwXwXwXwXwXwXwXwXwXwXwXwXwXwXwXwXwXwXwXwXwXwX",
"wXwXwXwXwXwXwXwXwXwXwXwXwXwXwXwXwXwXwXwXwXwXwXwXwXwXwXwXwXwXwXwXwXwXwXwXwXwXwXwXwXwXwXwXwXwXwXwXwXwXwXwXwXwXwXwXwXwXwXwXwXwXwXwXwXwXwXwXwXwXwXwXwXwXwXwXwXwXwXwXwXwXwXwXwXwXwXwXwXwXwXwXwXwXwXwXwXwXwXwXwXwXwXwXwXwXwXwXwXwXwXwXwXwXwXwXwXwXwXwXwXwXwXwXwXwXwXwXwXwXwXwXx.x.l.l.r.r.r.r.r r r r         6 6 6 6 yXN.( ( ~ ~ ^ ^ 6 7 6 6 @ @ @ @ X X X X @ @ @ @ @ @ # # @ @ @ @ X X @ @ @ @ X X X X X X O O O O @ @ @ @ # # # # # # # # # # # < < < < # # # # < 1 1 1 = = $ , # # # # , , , , 1 1 1 1 # # # # , , , , $ $ $ $ # # # # # # # # # # # # $ $ $ $ , $ $ $ $ , , $ # # # # @ @ @ @ @ @ @ @ @ @ @ @ X O O O . . . . . . . . X X X X X X X 7 7 7 7     .   . .     . . . . . . . . . . . . wXwXwXwXwXwXwXwXwXwXwXwXwXwXwXwXwXwXwXwXwXwXwXwXwXwXwXwXwXwXwX",
"wXwXwXwXwXwXwXwXwXwXwXwXwXwXwXwXwXwXwXwXwXwXwXwXwXwXwXwXwXwXwXwXwXwXwXwXwXwXwXwXwXwXwXwXwXwXwXwXwXwXwXwXwXwXwXwXwXwXwXwXwXwXwXwXwXwXwXwXwXwXwXwXwXwXwXwXwXwXwXwXwXwXwXwXwXwXwXwXwXwXwXwXwXwXwXwXwXwXwXwXwXwXwXwXwXwXwXwXwXwXwXwXwXwXwXwXwXwXwXwXwXwXwXwXwXwXwXwXwXwXwXwXx.x.x.l.r.r.r.r.r r r r         6 6 7 7 A.A.( ( ^ ^ ^ ^ 7 7 7 7 @ @ @ @ X X X X @ @ @ @ @ @ @ # @ @ @ @ X @ @ @ @ X X X X X X X @ @ @ @ @ @ @ @ # # # # # # # # # # # < < < < # # # # 1 1 1 1 $ = = = # # # # , , , , 1 1 1 1 # # # # , , , < $ $ $ $ # # # $ $ $ $ # # # # # $ $ $ $ = $ $ $ $ , , , # # # # @ @ @ @ @ @ @ @ @ @ @ @ O O O O . . . . . . . . X X X X X X X 7 7 7 7 . . . . . .     . . . . . . . . . . . . wXwXwXwXwXwXwXwXwXwXwXwXwXwXwXwXwXwXwXwXwXwXwXwXwXwXwXwXwXwXwX",
"wXwXwXwXwXwXwXwXwXwXwXwXwXwXwXwXwXwXwXwXwXwXwXwXwXwXwXwXwXwXwXwXwXwXwXwXwXwXwXwXwXwXwXwXwXwXwXwXwXwXwXwXwXwXwXwXwXwXwXwXwXwXwXwXwXwXwXwXwXwXwXwXwXwXwXwXwXwXwXwXwXwXwXwXwXwXwXwXwXwXwXwXwXwXwXwXwXwXwXwXwXwXwXwXwXwXwXwXwXwXwXwXwXwXwXwXwXwXwXwXwXwXwXwXwXwXwXwXwXwXwXwXwXwXwXwXI.I.I.I.l.l.l.l.; ; ; ; 6 6 6 6 yXA.( OX^ ^ ^ ^ 1 1 1 1 @ @ @ @ X X X X X X X X @ @ # # @ @ @ @ X X @ @ X X X X @ @ @ @ @ @ @ @ @ O O O < < < < # # # # @ @ @ , , , , = , , , < < < < , , , , , $ = = $ $ $ $ # # # # @ # # # # # # # # # # # # # # # $ $ $ # $ $ $ $ # $ $ $ = $ $ $ $ $ $ $ $ $ $ $ @ @ @ @ @ @ @ @ @ @ @ @ @ @ @ @ X X X X . . . . . . . . . . . X X X X . . . .         . . . . . . . . . . . . . . . . wXwXwXwXwXwXwXwXwXwXwXwXwXwXwXwXwXwXwXwXwXwXwXwXwXwXwX",
"wXwXwXwXwXwXwXwXwXwXwXwXwXwXwXwXwXwXwXwXwXwXwXwXwXwXwXwXwXwXwXwXwXwXwXwXwXwXwXwXwXwXwXwXwXwXwXwXwXwXwXwXwXwXwXwXwXwXwXwXwXwXwXwXwXwXwXwXwXwXwXwXwXwXwXwXwXwXwXwXwXwXwXwXwXwXwXwXwXwXwXwXwXwXwXwXwXwXwXwXwXwXwXwXwXwXwXwXwXwXwXwXwXwXwXwXwXwXwXwXwXwXwXwXwXwXwXwXwXwXwXwXwXwXwXwXI.I.I.I.l.l.l.l.; ; ; ; 6 6 6 6 z.( ( ( ^ ^ ^ ^ 1 1 1 1 @ @ @ @ X X X X @ @ @ O @ @ @ @ @ @ @ @ @ @ @ @ X X X X @ @ X X X O O @ @ @ @ @ < < < < # # # # @ @ @ , , , , $ = = , < < < < , , , , = , , , $ $ $ $ # # # # # # # # # # # $ # # # # # # # # # # # $ $ $ $ $ # # # # = , , , $ $ $ $ $ $ $ $ @ @ @ @ @ @ @ @ @ @ @ @ @ @ @ @ X X X X . . . . . . . . . . . X X X X . . . .         . . . . . . . . . . . . . . . . wXwXwXwXwXwXwXwXwXwXwXwXwXwXwXwXwXwXwXwXwXwXwXwXwXwXwX",
"wXwXwXwXwXwXwXwXwXwXwXwXwXwXwXwXwXwXwXwXwXwXwXwXwXwXwXwXwXwXwXwXwXwXwXwXwXwXwXwXwXwXwXwXwXwXwXwXwXwXwXwXwXwXwXwXwXwXwXwXwXwXwXwXwXwXwXwXwXwXwXwXwXwXwXwXwXwXwXwXwXwXwXwXwXwXwXwXwXwXwXwXwXwXwXwXwXwXwXwXwXwXwXwXwXwXwXwXwXwXwXwXwXwXwXwXwXwXwXwXwXwXwXwXwXwXwXwXwXwXwXwXwXwXwXwXI.I.I.I.l.l.l.l.; ; ; ; 6 6 6 6 z.z.( ( ^ ^ / / 1 1 1 1 @ @ @ @ X X X X @ @ O O @ @ @ @ @ @ @ @ @ @ @ @ X X X X @ @ @ X X X @ @ @ @ @ @ < < < < # # # # @ @ @ , , , , $ = = , < < < < , , , , = = , , $ $ $ $ # # # # # @ @ # # # # # # # # # # # # # # # # $ $ $ $ $ # # # $ = , , , $ $ $ $ $ $ $ $ @ @ @ @ @ @ @ @ @ @ @ @ @ @ @ @ X X X X . . . . . . . . . . . X X X X . . . .         . . . . . . . . . . . . . . . . wXwXwXwXwXwXwXwXwXwXwXwXwXwXwXwXwXwXwXwXwXwXwXwXwXwXwX",
"wXwXwXwXwXwXwXwXwXwXwXwXwXwXwXwXwXwXwXwXwXwXwXwXwXwXwXwXwXwXwXwXwXwXwXwXwXwXwXwXwXwXwXwXwXwXwXwXwXwXwXwXwXwXwXwXwXwXwXwXwXwXwXwXwXwXwXwXwXwXwXwXwXwXwXwXwXwXwXwXwXwXwXwXwXwXwXwXwXwXwXwXwXwXwXwXwXwXwXwXwXwXwXwXwXwXwXwXwXwXwXwXwXwXwXwXwXwXwXwXwXwXwXwXwXwXwXwXwXwXwXwXwXwXwXwXI.I.I.I.l.l.l.l.; ; ; ; 6 6 6 6 ( ( OXOX^ ^ ^ ^ 1 1 1 1 @ @ @ @ X X X X O @ O X @ @ @ @ @ @ @ @ O X @ @ X X X X @ @ @ X @ @ @ @ O @ X X < < < < # # # # @ @ @ , , , , = = = = < < < < , , , , = = = , $ $ $ $ # # # # # @ @ @ # # # # # # # # # # # # # # # # $ $ $ $ # # # # = , = , $ $ $ $ $ $ $ $ @ @ @ @ @ @ @ @ @ @ @ @ @ @ @ @ X X X X . . . . . . . . . . . X X O X . . . .         . . . . . . . . . . . . . . . . wXwXwXwXwXwXwXwXwXwXwXwXwXwXwXwXwXwXwXwXwXwXwXwXwXwXwX",
"wXwXwXwXwXwXwXwXwXwXwXwXwXwXwXwXwXwXwXwXwXwXwXwXwXwXwXwXwXwXwXwXwXwXwXwXwXwXwXwXwXwXwXwXwXwXwXwXwXwXwXwXwXwXwXwXwXwXwXwXwXwXwXwXwXwXwXwXwXwXwXwXwXwXwXwXwXwXwXwXwXwXwXwXwXwXwXwXwXwXwXwXwXwXwXwXwXwXwXwXwXwXwXwXwXwXwXwXwXwXwXwXwXwXwXwXwXwXwXwXwXwXwXwXwXwXwXwXwXwXwXwXwXwXwXwXMXMXNXNXDXDXDXDX# # # # 1 1 1 1 yXyXyXyX^ ^ ^ ^ 7 7 7 7 # # # # @ @ @ @ X X X X # # # # @ @ @ @ @ @ @ @ @ @ X O @ @ O X X X X X X X X X @ @ @ @ # # # # # # # # # # # , = = = = = = = < < < < $ $ $ $ @ @ @ @ # # # # @ @ @ @ @ @ @ @ @ @ @ @ # # # # # # # # # # # # # # # # # # # # $ $ $ $ # # # # # # @ # @ @ @ @ @ @ @ @ @ @ @ @ O O O @ X X X . . . . . . . . X X X X @ @ @ @   . . .         . . . . . . . .                 wXwXwXwXwXwXwXwXwXwXwXwXwXwXwXwXwXwXwXwXwXwXwX",
"wXwXwXwXwXwXwXwXwXwXwXwXwXwXwXwXwXwXwXwXwXwXwXwXwXwXwXwXwXwXwXwXwXwXwXwXwXwXwXwXwXwXwXwXwXwXwXwXwXwXwXwXwXwXwXwXwXwXwXwXwXwXwXwXwXwXwXwXwXwXwXwXwXwXwXwXwXwXwXwXwXwXwXwXwXwXwXwXwXwXwXwXwXwXwXwXwXwXwXwXwXwXwXwXwXwXwXwXwXwXwXwXwXwXwXwXwXwXwXwXwXwXwXwXwXwXwXwXwXwXwXwXwXwXwXwXMXNXMXMXDXDXDXDX# # # # 1 1 1 1 yXyXyXyX^ ^ ^ ~ 7 7 7 7 # # # # @ @ O X X X X X # # # # @ @ @ @ @ @ @ @ @ @ @ @ X O @ @ X X X X @ @ @ X @ @ @ @ # # # # # # # # # # # , = , , , = $ = < < < < $ $ $ $ @ @ @ @ # # # # @ @ @ @ @ @ @ @ @ @ @ @ # # # # # # # # # # # # # # # # $ # # # $ $ $ $ # # # # # # # # @ @ @ @ @ @ @ @ @ @ @ @ O @ @ @ X X X . . . . . . . . X X X X @ @ @ @ . . . .         . . . . . . . .                 wXwXwXwXwXwXwXwXwXwXwXwXwXwXwXwXwXwXwXwXwXwXwX",
"wXwXwXwXwXwXwXwXwXwXwXwXwXwXwXwXwXwXwXwXwXwXwXwXwXwXwXwXwXwXwXwXwXwXwXwXwXwXwXwXwXwXwXwXwXwXwXwXwXwXwXwXwXwXwXwXwXwXwXwXwXwXwXwXwXwXwXwXwXwXwXwXwXwXwXwXwXwXwXwXwXwXwXwXwXwXwXwXwXwXwXwXwXwXwXwXwXwXwXwXwXwXwXwXwXwXwXwXwXwXwXwXwXwXwXwXwXwXwXwXwXwXwXwXwXwXwXwXwXwXwXwXwXwXwXwXMXNXMXMXDXDXDXDX# # # # 1 1 1 1 yXyXyXyX^ ^ ~ ~ 7 7 7 7 # # # # @ @ @ O X X X X # # # # @ @ @ @ @ @ @ @ @ @ @ @ X @ @ @ X X X X @ @ O X @ @ @ @ # # # # # # # # # # # , $ , , , = $ = < < < < $ $ $ $ @ @ @ @ # # # # @ @ @ @ @ @ @ @ @ @ @ @ # # # # # # # # # $ # # # # # # $ # # # $ $ $ $ # # # # # @ @ # @ @ @ @ @ @ @ @ @ @ @ @ O @ @ @ X X X . . . . . . . . X X X X @ @ @ @   . . .         . . . . . . . .                 wXwXwXwXwXwXwXwXwXwXwXwXwXwXwXwXwXwXwXwXwXwXwX",
"wXwXwXwXwXwXwXwXwXwXwXwXwXwXwXwXwXwXwXwXwXwXwXwXwXwXwXwXwXwXwXwXwXwXwXwXwXwXwXwXwXwXwXwXwXwXwXwXwXwXwXwXwXwXwXwXwXwXwXwXwXwXwXwXwXwXwXwXwXwXwXwXwXwXwXwXwXwXwXwXwXwXwXwXwXwXwXwXwXwXwXwXwXwXwXwXwXwXwXwXwXwXwXwXwXwXwXwXwXwXwXwXwXwXwXwXwXwXwXwXwXwXwXwXwXwXwXwXwXwXwXwXwXwXwXwXNXNXMXMXDXDXDXDX# # # # 1 1 1 1 yXyXyXyX~ ~ ~ ~ 7 7 7 7 # # # # @ @ @ O X X X X # # # # @ @ @ @ @ @ @ @ @ @ @ @ @ @ @ @ X X X X @ @ @ @ @ @ @ @ # # # # # # # # # # # $ $ $ , , , , = < < < < $ $ $ $ @ @ @ @ # # # # @ @ @ @ @ @ @ @ @ @ @ @ # # # # # # # # # $ # $ # # # # $ # # # $ $ $ $ # $ # # # @ @ @ @ @ @ @ @ @ @ @ @ @ @ @ @ @ @ X X X X . . . . . . . . X X X X @ @ @ @                 . . . . . . . .                 wXwXwXwXwXwXwXwXwXwXwXwXwXwXwXwXwXwXwXwXwXwXwX",
"wXwXwXwXwXwXwXwXwXwXwXwXwXwXwXwXwXwXwXwXwXwXwXwXwXwXwXwXwXwXwXwXwXwXwXwXwXwXwXwXwXwXwXwXwXwXwXwXwXwXwXwXwXwXwXwXwXwXwXwXwXwXwXwXwXwXwXwXwXwXwXwXwXwXwXwXwXwXwXwXwXwXwXwXwXwXwXwXwXwXwXwXwXwXwXwXwXwXwXwXwXwXwXwXwXwXwXwXwXwXwXwXwXwXwXwXwXwXwXwXwXwXwXwXwXwXwXwXwXwXwXwXwXwXwXwXE.E.E.E.GXGXGXGX@ @ @ @ 3 3 3 3 ( ( ( ( ^ ^ ^ ^ 8 8 8 8 # # # # @ @ @ X X X X X @ @ @ @ @ @ @ @ @ @ @ @ @ @ @ @ @ @ @ @ @ @ @ @ @ @ @ @ @ @ @ @ @ @ @ @ # # # $ $ $ $ $ $ $ , < < < < 1 1 1 1 @ @ @ @ # @ @ @ @ @ @ @ @ @ @ @ @ @ @ @ @ @ @ @ @ @ @ @ @ @ @ @ @ @ @ @ # # # # $ $ $ $ < < < < , , , , $ $ $ $ @ @ @ @ @ @ @ @ # # # # @ @ @ @ . X X . . . . . . . . X X X X . . . .           . .       . . . . . . . . . . X X X X X X X X wXwXwXwXwXwXwXwXwXwXwXwXwXwXwXwXwXwXwX",
"wXwXwXwXwXwXwXwXwXwXwXwXwXwXwXwXwXwXwXwXwXwXwXwXwXwXwXwXwXwXwXwXwXwXwXwXwXwXwXwXwXwXwXwXwXwXwXwXwXwXwXwXwXwXwXwXwXwXwXwXwXwXwXwXwXwXwXwXwXwXwXwXwXwXwXwXwXwXwXwXwXwXwXwXwXwXwXwXwXwXwXwXwXwXwXwXwXwXwXwXwXwXwXwXwXwXwXwXwXwXwXwXwXwXwXwXwXwXwXwXwXwXwXwXwXwXwXwXwXwXwXwXwXwXwXwXE.E.E.E.GXGXGXGX# # # # 3 3 3 3 ( ( ( ( ^ ^ ^ ^ 8 8 8 8 # # # # @ @ @ @ X X X X @ @ @ @ # # # # @ @ @ @ @ @ @ @ @ @ @ @ X X O @ @ @ @ @ @ @ @ @ @ @ @ @ # # # $ $ $ $ = $ $ $ < < < < 1 1 1 1 @ @ @ @ @ @ @ # @ @ @ @ @ @ @ @ @ @ @ @ @ @ @ @ @ @ @ @ @ @ @ @ @ @ @ @ # # # # $ $ $ $ < < < < , , , , $ $ $ $ @ @ @ @ @ @ @ @ # # # # @ @ @ @ . X X . . . . . . . . X X X X . . . . . . .       . . .     . . . . . . . . . X X X X X X X X wXwXwXwXwXwXwXwXwXwXwXwXwXwXwXwXwXwXwX",
"wXwXwXwXwXwXwXwXwXwXwXwXwXwXwXwXwXwXwXwXwXwXwXwXwXwXwXwXwXwXwXwXwXwXwXwXwXwXwXwXwXwXwXwXwXwXwXwXwXwXwXwXwXwXwXwXwXwXwXwXwXwXwXwXwXwXwXwXwXwXwXwXwXwXwXwXwXwXwXwXwXwXwXwXwXwXwXwXwXwXwXwXwXwXwXwXwXwXwXwXwXwXwXwXwXwXwXwXwXwXwXwXwXwXwXwXwXwXwXwXwXwXwXwXwXwXwXwXwXwXwXwXwXwXwXwXE.E.E.E.GXGXGXGX# # # # 3 3 3 3 ( ( ( ( ^ ^ ^ ^ 8 8 8 8 # # # # @ @ @ @ X X X X @ @ @ @ # # # # @ @ @ @ @ @ @ @ @ @ @ @ X X @ @ @ @ @ @ @ @ @ @ @ @ @ @ # # # $ $ $ $ = $ $ $ < < < < 1 1 1 1 @ @ @ @ @ @ @ # @ @ @ @ @ @ @ @ @ @ @ @ @ @ @ @ @ @ @ @ @ @ @ @ @ @ @ @ # # # # $ $ $ $ < < < < , , , = $ $ $ $ @ @ @ @ @ @ @ @ # # # # @ @ @ @ X X X . . . . . . . . X X X X . . . . . . . .     . .     . . . . . . . . . . X X X X X X X X wXwXwXwXwXwXwXwXwXwXwXwXwXwXwXwXwXwXwX",
"wXwXwXwXwXwXwXwXwXwXwXwXwXwXwXwXwXwXwXwXwXwXwXwXwXwXwXwXwXwXwXwXwXwXwXwXwXwXwXwXwXwXwXwXwXwXwXwXwXwXwXwXwXwXwXwXwXwXwXwXwXwXwXwXwXwXwXwXwXwXwXwXwXwXwXwXwXwXwXwXwXwXwXwXwXwXwXwXwXwXwXwXwXwXwXwXwXwXwXwXwXwXwXwXwXwXwXwXwXwXwXwXwXwXwXwXwXwXwXwXwXwXwXwXwXwXwXwXwXwXwXwXwXwXwXwXE.E.E.E.GXGXGXGX@ @ # # 3 3 3 3 ( ( ( ( ^ ^ ^ ^ 8 8 8 8 # # # # @ @ @ @ X X X X @ @ @ @ # # # # @ @ @ @ @ @ @ @ @ @ @ @ X X @ @ X X @ @ @ @ X X @ @ @ @ # # # $ $ $ $ = $ $ , < < < < 1 1 1 1 @ @ @ @ @ @ @ # @ @ @ @ @ @ @ @ @ @ @ @ @ @ @ @ @ @ @ @ @ @ @ @ @ @ @ @ # # # # $ $ $ $ < < < < , , , = $ $ $ $ @ @ @ @ @ @ @ @ # $ # # @ @ @ @ X X X . . . . . . . . X X X X . . . . . .               . .   . . . . . . . . X X X X X X X X wXwXwXwXwXwXwXwXwXwXwXwXwXwXwXwXwXwXwX",
"wXwXwXwXwXwXwXwXwXwXwXwXwXwXwXwXwXwXwXwXwXwXwXwXwXwXwXwXwXwXwXwXwXwXwXwXwXwXwXwXwXwXwXwXwXwXwXwXwXwXwXwXwXwXwXwXwXwXwXwXwXwXwXwXwXwXwXwXwXwXwXwXwXwXwXwXwXwXwXwXwXwXwXwXwXwXwXwXwXwXwXwXwXwXwXwXwXwXwXwXwXwXwXwXwXwXwXwXwXwXwXwXwXwXwXwXwXwXwXwXwXwXwXwXwXwXwXwXwXwXwXwXwXwXwXwXS.S.S.S.GXGXGXGX@ @ @ @ 3 3 3 3 yXyXyXyX^ ^ ^ ^ 7 7 7 7 @ @ @ @ @ @ @ @ X X X X O O O O # # # # # # # # @ @ @ @ @ X @ @ X X X @ @ @ @ @ @ O O X @ @ @ @ X X X @ @ @ @ = $ $ = , , , , @ # # # @ @ @ @ @ @ @ @ @ @ @ @ @ @ @ @ @ @ @ @ @ @ @ @ @ @ @ @ @ @ @ @ @ @ @ @ # # # # $ $ $ $ $ $ $ $ < < < < < < < < , < < < @ @ @ @ @ @ @ @ @ @ @ @ @ @ @ . . . . . . . . . . . . . . . . . . . . . . . .   .         . . . . . . . . . .                 wXwXwXwXwXwXwXwXwXwXwXwXwXwXwX",
"wXwXwXwXwXwXwXwXwXwXwXwXwXwXwXwXwXwXwXwXwXwXwXwXwXwXwXwXwXwXwXwXwXwXwXwXwXwXwXwXwXwXwXwXwXwXwXwXwXwXwXwXwXwXwXwXwXwXwXwXwXwXwXwXwXwXwXwXwXwXwXwXwXwXwXwXwXwXwXwXwXwXwXwXwXwXwXwXwXwXwXwXwXwXwXwXwXwXwXwXwXwXwXwXwXwXwXwXwXwXwXwXwXwXwXwXwXwXwXwXwXwXwXwXwXwXwXwXwXwXwXwXwXwXwXwXS.S.S.S.GXGXGXGX@ @ @ @ 3 3 3 3 yXyXyXyX^ ^ ^ ^ 7 7 7 7 @ @ @ @ @ @ @ @ X X X X O O O O # # # # @ @ @ @ @ @ @ @ @ @ X X X X @ @ @ @ @ @ @ @ X X @ @ @ @ @ @ X @ @ @ @ $ $ $ , , , , , @ # # # @ @ @ @ @ @ @ @ @ @ @ @ @ @ @ @ @ @ @ @ @ @ @ @ @ @ @ @ @ @ @ @ @ @ @ @ # # # # $ $ $ $ $ $ $ $ < < < < < < < < , < < , @ @ @ @ @ @ @ @ @ @ @ X @ @ @ . . . . . . . . . . . . . . . . . . . . . . . .   . . . . . . . . . . . . . . .                 wXwXwXwXwXwXwXwXwXwXwXwXwXwXwX",
"wXwXwXwXwXwXwXwXwXwXwXwXwXwXwXwXwXwXwXwXwXwXwXwXwXwXwXwXwXwXwXwXwXwXwXwXwXwXwXwXwXwXwXwXwXwXwXwXwXwXwXwXwXwXwXwXwXwXwXwXwXwXwXwXwXwXwXwXwXwXwXwXwXwXwXwXwXwXwXwXwXwXwXwXwXwXwXwXwXwXwXwXwXwXwXwXwXwXwXwXwXwXwXwXwXwXwXwXwXwXwXwXwXwXwXwXwXwXwXwXwXwXwXwXwXwXwXwXwXwXwXwXwXwXwXwXS.S.S.S.GXGXGXGX@ @ @ @ 3 3 3 3 yXyXyXyX^ ^ ^ ^ 7 7 7 7 @ @ @ @ @ @ @ @ X X X X O O O O # # # # @ @ @ @ @ @ @ @ @ @ X @ X X @ @ @ @ @ @ @ @ O @ @ @ @ @ @ @ X @ @ @ @ = = = , , , , , @ # # # @ @ @ @ O @ @ @ @ @ @ @ @ @ @ @ @ @ @ @ @ @ @ @ @ @ @ @ @ @ @ @ @ @ @ @ # # # # $ $ $ $ $ $ $ $ < < < < < < < < , , < , @ @ @ @ @ @ @ @ @ @ @ X @ @ @ . . . . . . . . . . . . . . . . . . . . . . . .   . . . . . . . . . . . . . . .                 wXwXwXwXwXwXwXwXwXwXwXwXwXwXwX",
"wXwXwXwXwXwXwXwXwXwXwXwXwXwXwXwXwXwXwXwXwXwXwXwXwXwXwXwXwXwXwXwXwXwXwXwXwXwXwXwXwXwXwXwXwXwXwXwXwXwXwXwXwXwXwXwXwXwXwXwXwXwXwXwXwXwXwXwXwXwXwXwXwXwXwXwXwXwXwXwXwXwXwXwXwXwXwXwXwXwXwXwXwXwXwXwXwXwXwXwXwXwXwXwXwXwXwXwXwXwXwXwXwXwXwXwXwXwXwXwXwXwXwXwXwXwXwXwXwXwXwXwXwXwXwXwXS.S.S.S.GXGXGXGX@ @ @ @ 1 3 1 3 yXyXyXyX^ ^ ^ ^ 7 7 7 7 @ @ @ @ @ @ @ @ X X X X O O O O # # # # @ @ @ @ @ @ @ @ @ @ @ O @ @ @ @ @ @ @ @ @ O O @ @ @ @ @ @ @ @ @ @ @ @ = = , , , , , , @ # # # @ @ @ @ @ @ @ X O X X @ @ @ @ @ @ @ @ @ @ @ @ @ @ @ @ @ @ @ @ @ @ @ @ @ # # # # $ $ $ $ $ $ $ $ < < < < < < < < , , , , @ @ @ @ @ @ @ @ @ @ @ @ @ @ @ . . . . . . . . . . . . . . . . . . . . . . . .     . .         . . . . . . . .                 wXwXwXwXwXwXwXwXwXwXwXwXwXwXwX",
"wXwXwXwXwXwXwXwXwXwXwXwXwXwXwXwXwXwXwXwXwXwXwXwXwXwXwXwXwXwXwXwXwXwXwXwXwXwXwXwXwXwXwXwXwXwXwXwXwXwXwXwXwXwXwXwXwXwXwXwXwXwXwXwXwXwXwXwXwXwXwXwXwXwXwXwXwXwXwXwXwXwXwXwXwXwXwXwXwXwXwXwXwXwXwXwXwXwXwXwXwXwXwXwXwXwXwXwXwXwXwXwXwXwXwXwXwXwXwXwXwXwXwXwXwXwXwXwXwXwXwXwXC.C.C.C.GXGXGXGX* * * * < < < , < < < < ( ( ( ( 7 7 7 7 # # # # X X X X X X X X O O O O O O O O # # # # @ @ @ @ @ @ @ @ @ @ @ @ @ @ @ @ X O @ @ @ @ X O X X X X @ @ @ @ @ @ @ $ $ $ $ @ @ @ @ @ @ @ @ O X X X @ @ @ X @ @ @ @ O @ @ @ @ @ @ @ @ @ @ @ @ @ @ @ @ @ @ @ @ @ @ @ @ @ @ @ # # # # # # # # , , , , < < < < , , , , $ $ $ $ $ $ $ $ @ @ @ @ $ $ $ # # # # @ @ @ @ . . . . . . . . . . . . . . . . @ @ @ @         . . . . @ @ @ @ @ @ @ @ # # # # @ @ @ @ wXwXwXwXwXwXwXwXwXwXwX",
"wXwXwXwXwXwXwXwXwXwXwXwXwXwXwXwXwXwXwXwXwXwXwXwXwXwXwXwXwXwXwXwXwXwXwXwXwXwXwXwXwXwXwXwXwXwXwXwXwXwXwXwXwXwXwXwXwXwXwXwXwXwXwXwXwXwXwXwXwXwXwXwXwXwXwXwXwXwXwXwXwXwXwXwXwXwXwXwXwXwXwXwXwXwXwXwXwXwXwXwXwXwXwXwXwXwXwXwXwXwXwXwXwXwXwXwXwXwXwXwXwXwXwXwXwXwXwXwXwXwXwXwXC.C.C.C.GXGXGXGX* * * * , , , , < < < < ( z.z.z.7 7 7 7 @ # # # X O O @ X X X X O X X X @ @ @ @ # # # # @ @ @ @ @ @ @ @ @ @ @ @ @ @ @ @ @ @ X X @ @ @ @ X X X X X X @ @ @ @ @ $ $ $ $ @ @ @ @ @ @ @ @ @ @ @ @ @ @ @ @ @ @ @ @ @ @ @ @ @ @ @ @ @ @ @ @ @ @ @ @ @ @ @ X @ @ @ @ @ @ @ @ @ @ @ # # # # # , , , , < < < 1 , , , , $ $ $ $ $ $ $ $ @ # # @ $ $ $ # # # # @ @ @ @ . . . . . . . . . . . . . . . . @ @ @ @         . . . . @ @ @ @ @ @ @ @ # # # # @ @ @ @ wXwXwXwXwXwXwXwXwXwXwX",
"wXwXwXwXwXwXwXwXwXwXwXwXwXwXwXwXwXwXwXwXwXwXwXwXwXwXwXwXwXwXwXwXwXwXwXwXwXwXwXwXwXwXwXwXwXwXwXwXwXwXwXwXwXwXwXwXwXwXwXwXwXwXwXwXwXwXwXwXwXwXwXwXwXwXwXwXwXwXwXwXwXwXwXwXwXwXwXwXwXwXwXwXwXwXwXwXwXwXwXwXwXwXwXwXwXwXwXwXwXwXwXwXwXwXwXwXwXwXwXwXwXwXwXwXwXwXwXwXwXwXwXwXC.C.C.C.GXGXGXGX* * * * , < , , < < < < ( ( z.z.7 7 7 7 # # # # X X O O X X X X X X X X @ @ @ @ # # # # @ @ @ @ @ @ @ @ @ @ @ @ @ @ @ O @ @ X X @ @ @ @ X X X X X O @ @ @ @ @ $ $ $ $ @ @ @ @ @ @ @ @ @ @ @ @ X @ @ O @ @ @ @ @ @ @ @ @ @ @ @ @ @ @ @ @ @ @ @ @ O @ X @ @ @ @ @ @ @ @ @ @ @ # # # # # , , , , < < < < , = , , $ $ $ $ $ $ $ $ @ # # @ $ $ $ # # # # @ @ @ @ . . . . . . . . . . . . . . . . @ @ @ @         . . . . @ @ @ @ @ @ @ @ # # # # @ @ @ @ wXwXwXwXwXwXwXwXwXwXwX",
"wXwXwXwXwXwXwXwXwXwXwXwXwXwXwXwXwXwXwXwXwXwXwXwXwXwXwXwXwXwXwXwXwXwXwXwXwXwXwXwXwXwXwXwXwXwXwXwXwXwXwXwXwXwXwXwXwXwXwXwXwXwXwXwXwXwXwXwXwXwXwXwXwXwXwXwXwXwXwXwXwXwXwXwXwXwXwXwXwXwXwXwXwXwXwXwXwXwXwXwXwXwXwXwXwXwXwXwXwXwXwXwXwXwXwXwXwXwXwXwXwXwXwXwXwXwXwXwXwXwXwXwXA.A.A.A.GXJXJXJX< < : : < < < < yXyXyXyX^ ^ ^ ^ 8 8 8 8 # # # # X X X X X X X X @ @ @ @ $ $ $ $ # @ @ @ @ @ @ @ @ @ @ @ @ @ @ @ @ @ @ @ @ @ X X X X X X @ @ @ @ X X @ @ X X @ @ @ @ @ @ @ @ @ @ @ @ @ X X X X @ @ X X X O @ @ @ @ @ @ @ X X X @ X X @ @ @ @ X X X X X X @ @ @ @ @ @ @ @ @ @ @ @ @ @ @ # # # # = = = $ , , , , < < < < $ $ $ $ # # # # = , , 8 8 8 8 < < < < O O O O . . . . . . . . . . . .     . .         . . . . @ @ @ @ @ @ @ @ O O O O @ @ @ @ wXwXwXwXwXwXwXwXwXwXwX",
"wXwXwXwXwXwXwXwXwXwXwXwXwXwXwXwXwXwXwXwXwXwXwXwXwXwXwXwXwXwXwXwXwXwXwXwXwXwXwXwXwXwXwXwXwXwXwXwXwXwXwXwXwXwXwXwXwXwXwXwXwXwXwXwXwXwXwXwXwXwXwXwXwXwXwXwXwXwXwXwXwXwXwXwXwXwXwXwXwXwXwXwXwXwXwXwXwXwXwXwXwXwXwXwXwXwXwXwXwXwXwXwXwXwXwXwXwXwXwXwXwXwXwXwXwXwXwXwXwXwXwXwXA.A.A.A.GXJXJXJX< < 2 2 < < < < yXyXyXyX^ ^ ^ ^ 8 8 8 8 # # # # X X X X X X X X @ @ @ @ $ $ $ $ @ @ @ @ @ @ @ @ @ @ @ @ @ @ @ @ @ @ @ @ @ @ @ @ X X X X O @ @ @ O X @ @ X X @ @ @ @ @ @ @ @ @ @ @ @ @ X X X X @ @ X X X @ @ @ @ @ @ @ O X X X O X X X X @ O X X X X X X @ @ @ @ @ @ @ @ @ @ @ @ @ @ @ # # # # = = = $ , , , , < < < < $ $ $ $ # # # # = , , 8 8 8 8 < < < < O O O O . . . . . . . . . . . .     .           . . . . @ @ @ @ @ @ @ @ O O O O @ @ @ @ wXwXwXwXwXwXwXwXwXwXwX",
"wXwXwXwXwXwXwXwXwXwXwXwXwXwXwXwXwXwXwXwXwXwXwXwXwXwXwXwXwXwXwXwXwXwXwXwXwXwXwXwXwXwXwXwXwXwXwXwXwXwXwXwXwXwXwXwXwXwXwXwXwXwXwXwXwXwXwXwXwXwXwXwXwXwXwXwXwXwXwXwXwXwXwXwXwXwXwXwXwXwXwXwXwXwXwXwXwXwXwXwXwXwXwXwXwXwXwXwXwXwXwXwXwXwXwXwXwXwXwXwXwXwXwXwXwXwXwXwXwXwXwXwXA.A.A.A.JXJXJXJX< - - - , , , < yXyXyXyX^ ^ ^ ^ 8 8 8 8 # # # # O O O O X X X X @ @ @ @ $ $ $ $ # @ @ @ @ @ @ @ @ @ @ @ @ @ @ @ @ @ @ @ @ @ @ @ X X X X O @ @ @ @ @ @ @ O @ @ @ @ @ @ @ @ @ @ @ @ X X X X X X @ @ @ @ @ @ @ @ @ @ @ X X O X X X X O @ @ X X X X X X X X @ @ X @ @ @ @ @ @ @ @ @ @ @ @ # # # # = = = = , , , , < < < < $ $ $ $ # # # # = , , 8 8 8 8 < < < < O O O O . . . . . . . . . . . . . . . .     . . . .   . @ @ @ @ @ @ @ @ X X O O @ @ @ @ wXwXwXwXwXwXwXwXwXwXwX",
"wXwXwXwXwXwXwXwXwXwXwXwXwXwXwXwXwXwXwXwXwXwXwXwXwXwXwXwXwXwXwXwXwXwXwXwXwXwXwXwXwXwXwXwXwXwXwXwXwXwXwXwXwXwXwXwXwXwXwXwXwXwXwXwXwXwXwXwXwXwXwXwXwXwXwXwXwXwXwXwXwXwXwXwXwXwXwXwXwXwXwXwXwXwXwXwXwXwXwXwXwXwXwXwXwXwXwXwXwXwXwXwXwXwXwXwXwXwXwXwXwXwXwXwXwXwXwXwXwXwXwXwXA.A.A.A.JXJXJXJX< < - - - - , < yXyXyXyX^ ^ ^ ~ 8 8 8 8 # # # # O O O O X X X X @ @ @ @ $ $ $ $ # @ @ @ @ @ @ @ @ @ @ @ @ @ @ @ @ @ @ @ @ @ X @ X X X X @ @ @ @ O X @ @ @ @ @ @ @ @ @ @ @ @ @ @ @ O O X X X X @ @ @ @ @ O O @ O @ @ X X O X X X X X @ @ O @ X X X X X X @ @ X @ @ @ @ @ @ @ @ @ @ @ @ # # # # = = = = , , , , < < < < $ $ $ $ # # # # = , , 8 8 8 8 < < < < X X O X . . . . . . . . . . . . . . . .         . .   . @ @ @ @ @ @ @ @ X X O O @ @ @ @ wXwXwXwXwXwXwXwXwXwXwX",
"wXwXwXwXwXwXwXwXwXwXwXwXwXwXwXwXwXwXwXwXwXwXwXwXwXwXwXwXwXwXwXwXwXwXwXwXwXwXwXwXwXwXwXwXwXwXwXwXwXwXwXwXwXwXwXwXwXwXwXwXwXwXwXwXwXwXwXwXwXwXwXwXwXwXwXwXwXwXwXwXwXwXwXwXwXwXwXwXwXwXwXwXwXwXwXwXwXwXwXwXwXwXwXwXwXwXwXwXwXwXwXwXwXwXwXwXwXwXwXwXwXwXwXwXwXwXwXwXwXwXwXwXj.j.j.j.NXNXNXNXg g g g - - - - ( ( ( ( ^ ^ ^ ^ 8 8 8 8 @ @ @ @ @ @ @ @ X X X X @ @ @ @ $ $ $ $ # # # # # # # # @ @ @ @ @ @ @ @ @ @ @ @ X X X X @ @ @ X X X X X X X X X @ @ @ @ @ @ X X @ X @ @ @ O X O X X O @ @ @ X O X X X @ @ @ @ @ @ @ @ X @ @ @ @ @ @ @ @ @ @ X X @ O X X @ @ @ @ @ @ @ @ @ @ @ @ @ @ @ # # # # , , , , < < < < $ $ $ $ # # # # # # # , , , , < < < < X X O O . . . . . . . .     . .         . . . . . . . . . . . . # # # # O X O X X X X X @ O @ @ wXwXwXwXwXwXwX",
"wXwXwXwXwXwXwXwXwXwXwXwXwXwXwXwXwXwXwXwXwXwXwXwXwXwXwXwXwXwXwXwXwXwXwXwXwXwXwXwXwXwXwXwXwXwXwXwXwXwXwXwXwXwXwXwXwXwXwXwXwXwXwXwXwXwXwXwXwXwXwXwXwXwXwXwXwXwXwXwXwXwXwXwXwXwXwXwXwXwXwXwXwXwXwXwXwXwXwXwXwXwXwXwXwXwXwXwXwXwXwXwXwXwXwXwXwXwXwXwXwXwXwXwXwXwXwXwXwXwXwXwXj.j.j.j.NXNXNXNXg g g g - - - - ( ( ( ( ^ ^ ^ ^ 8 8 8 8 @ @ @ @ @ @ @ @ X X X X @ @ @ @ $ $ $ $ # # # # # # # # @ @ @ @ @ @ @ @ @ @ @ X X X X X @ @ @ X X X X X X X X X O @ @ @ O X X X X X @ @ @ X X X X X X @ @ @ X X X X X @ @ @ @ @ @ @ @ @ @ @ @ @ @ @ @ @ @ @ O @ @ @ O X @ @ @ @ @ @ @ @ @ @ @ @ @ @ @ # # @ # , , , , < < < < $ $ $ $ # # # # # # @ , , , , < < < < O O O O . . . . . . . .     . .         . . . . . . . . . . . . # # # # X X O X X X X X O O @ @ wXwXwXwXwXwXwX",
"wXwXwXwXwXwXwXwXwXwXwXwXwXwXwXwXwXwXwXwXwXwXwXwXwXwXwXwXwXwXwXwXwXwXwXwXwXwXwXwXwXwXwXwXwXwXwXwXwXwXwXwXwXwXwXwXwXwXwXwXwXwXwXwXwXwXwXwXwXwXwXwXwXwXwXwXwXwXwXwXwXwXwXwXwXwXwXwXwXwXwXwXwXwXwXwXwXwXwXwXwXwXwXwXwXwXwXwXwXwXwXwXwXwXwXwXwXwXwXwXwXwXwXwXwXwXwXwXwXwXwXwXj.j.j.j.NXNXNXNXf f g f , , , , ( ( ( ( ^ ^ ^ ^ 8 8 8 8 @ @ @ @ @ @ @ @ X X X X @ @ @ @ $ $ $ $ # # # # @ @ @ @ @ @ @ @ @ @ @ @ @ @ @ @ @ @ @ @ @ @ X X X X X X @ O X X X X X O @ @ O X X @ @ @ @ @ @ @ @ @ @ O X X X O @ @ @ @ @ @ @ @ @ @ @ @ @ X X X X X X X X X @ @ @ @ X X @ @ @ @ @ @ @ @ @ @ @ @ @ @ @ @ # # # , , , , < < < < # $ $ $ # # # # # # # , , , , < < < < O O O O . . . . . . . . . . .           . . . . . . X X . . . . # # # # O O X X X X X X @ @ @ @ wXwXwXwXwXwXwX",
"wXwXwXwXwXwXwXwXwXwXwXwXwXwXwXwXwXwXwXwXwXwXwXwXwXwXwXwXwXwXwXwXwXwXwXwXwXwXwXwXwXwXwXwXwXwXwXwXwXwXwXwXwXwXwXwXwXwXwXwXwXwXwXwXwXwXwXwXwXwXwXwXwXwXwXwXwXwXwXwXwXwXwXwXwXwXwXwXwXwXwXwXwXwXwXwXwXwXwXwXwXwXwXwXwXwXwXwXwXwXwXwXwXwXwXwXwXwXwXwXwXwXwXwXwXwXwXwXwXwXwXwXj.j.j.j.NXNXNXNXf f f f , , , , ( ( ( ( ^ ^ ^ ^ 8 8 8 8 @ @ @ @ @ @ @ @ X X X X @ @ @ @ $ $ $ $ # # # # # @ @ @ @ @ @ @ @ @ @ @ @ @ @ @ @ @ @ @ @ @ X X X X X X @ O X X X X X X @ @ @ @ O O @ @ @ @ @ @ @ @ X X O @ X X @ @ @ @ @ @ @ @ @ @ @ @ @ @ O X O @ X X @ O @ @ @ X X X @ @ @ @ @ @ @ @ @ @ @ @ @ @ @ @ # # # , , , , < < < < # $ $ $ # # # # # # # , , , , < < < < O O X O . . . . . . . . . .             . . . . . . X X . . . . # # # # O O X X X X X X @ @ @ @ wXwXwXwXwXwXwX",
"wXwXwXwXwXwXwXwXwXwXwXwXwXwXwXwXwXwXwXwXwXwXwXwXwXwXwXwXwXwXwXwXwXwXwXwXwXwXwXwXwXwXwXwXwXwXwXwXwXwXwXwXwXwXwXwXwXwXwXwXwXwXwXwXwXwXwXwXwXwXwXwXwXwXwXwXwXwXwXwXwXwXwXwXwXwXwXwXwXwXwXwXwXwXwXwXwXwXwXwXwXwXwXwXwXwXwXwXwXwXwXwXwXwXwXwXwXwXwXwXwXwXwXwXwXwXwXwXwXwXwXwX^ ^ ^ ^ sXsXsXsXY Y Y Y - - - - / / / / ~ ~ ~ ~ S S S S @ @ @ @ @ @ @ @ X X X X @ @ @ @ @ # @ @ , , , , @ @ @ @ @ @ @ @ @ @ @ @ @ @ @ @ @ @ @ @ @ @ @ @ O @ @ @ @ @ O @ @ X X @ @ @ @ X X X X X X X X X X X X X @ @ @ @ @ @ @ @ @ @ @ @ @ @ @ @ @ @ @ @ @ @ @ @ @ @ @ @ @ @ @ @ @ @ @ @ @ @ @ @ @ @ @ @ @ @ @ @ @ @ @ $ $ $ $ , , , , # # $ # # # # # # # # # $ $ # 3 3 3 6 # # # # @ @ @ @ . . . . . . . .                         X X X X # # # # $ $ $ $ @ @ @ @ X X X X @ @ @ @ wXwXwX",
"wXwXwXwXwXwXwXwXwXwXwXwXwXwXwXwXwXwXwXwXwXwXwXwXwXwXwXwXwXwXwXwXwXwXwXwXwXwXwXwXwXwXwXwXwXwXwXwXwXwXwXwXwXwXwXwXwXwXwXwXwXwXwXwXwXwXwXwXwXwXwXwXwXwXwXwXwXwXwXwXwXwXwXwXwXwXwXwXwXwXwXwXwXwXwXwXwXwXwXwXwXwXwXwXwXwXwXwXwXwXwXwXwXwXwXwXwXwXwXwXwXwXwXwXwXwXwXwXwXwXwXwX^ ^ ^ ^ sXsXsXsXh.Y Y Y - - - - / / / / ~ ~ ~ ~ S S S S @ @ @ @ @ @ @ @ X X X X O @ @ @ @ @ @ @ , , , , @ @ @ @ @ @ @ @ @ @ @ @ @ @ @ @ @ @ @ @ @ @ @ @ @ @ @ @ @ @ @ @ @ @ @ @ @ @ @ X X X X X X X X X X X X X @ @ @ @ X O @ @ @ @ @ @ @ @ @ @ @ @ @ @ @ @ @ @ @ @ @ @ @ @ @ @ @ @ @ @ @ @ @ @ @ @ @ @ @ @ @ @ @ @ @ $ $ $ $ , , , , # # # # # # # # # # # # $ $ # 1 1 6 6 # # # # @ @ @ @ . . . . . . . .                         X X X X # # # # $ $ $ $ @ @ @ @ X X X X @ @ @ @ wXwXwX",
"wXwXwXwXwXwXwXwXwXwXwXwXwXwXwXwXwXwXwXwXwXwXwXwXwXwXwXwXwXwXwXwXwXwXwXwXwXwXwXwXwXwXwXwXwXwXwXwXwXwXwXwXwXwXwXwXwXwXwXwXwXwXwXwXwXwXwXwXwXwXwXwXwXwXwXwXwXwXwXwXwXwXwXwXwXwXwXwXwXwXwXwXwXwXwXwXwXwXwXwXwXwXwXwXwXwXwXwXwXwXwXwXwXwXwXwXwXwXwXwXwXwXwXwXwXwXwXwXwXwXwXwX^ ^ ^ ^ sXsXsXsXh.h.h.h.* - - - / / / / ~ ~ ~ ~ S S S S @ @ @ @ @ @ @ @ O O @ @ X X X X @ @ @ @ , , , , @ @ @ @ @ @ @ @ @ @ @ @ @ @ @ @ @ @ @ @ @ @ @ @ @ @ @ @ @ @ @ @ @ @ @ @ @ @ @ X X X X X X X X X X X X @ @ @ @ X X O X @ @ @ @ @ @ O @ @ @ @ @ @ O @ @ @ @ @ @ @ @ @ @ @ @ @ @ @ @ @ @ @ @ @ @ @ @ @ @ @ @ @ @ $ $ $ $ , , , , # # # # # # # # # # # $ $ $ $ 3 3 1 1 # # # # X X @ @ . . . . . . . .                         X X X X # # # # $ $ $ $ @ @ @ @ X X X X @ @ @ @ wXwXwX",
"wXwXwXwXwXwXwXwXwXwXwXwXwXwXwXwXwXwXwXwXwXwXwXwXwXwXwXwXwXwXwXwXwXwXwXwXwXwXwXwXwXwXwXwXwXwXwXwXwXwXwXwXwXwXwXwXwXwXwXwXwXwXwXwXwXwXwXwXwXwXwXwXwXwXwXwXwXwXwXwXwXwXwXwXwXwXwXwXwXwXwXwXwXwXwXwXwXwXwXwXwXwXwXwXwXwXwXwXwXwXwXwXwXwXwXwXwXwXwXwXwXwXwXwXwXwXwXwXwXwXwXwX^ ^ ^ ^ sXsXsXsXh.h.h.h.* * - - / / / / ~ ~ ~ ~ S S S S @ @ @ @ @ @ @ @ O O @ @ X X X X @ @ @ @ , , , , @ @ @ @ @ @ @ @ @ @ @ @ @ @ @ @ @ @ @ @ @ @ @ @ @ @ @ @ @ @ O @ @ @ @ @ @ @ @ X X X X X X X X X X X X @ X @ @ @ X X X @ @ @ @ @ @ @ @ @ @ @ @ @ X X @ @ @ @ @ @ @ @ @ @ @ @ @ @ @ @ @ @ @ @ @ @ @ @ @ @ @ @ @ $ $ $ $ , , , , # # # # # # # # # # # $ $ $ $ 3 3 1 1 # # # # X X @ @ . . . . . . . .                         X X X X # # # # $ $ $ $ @ @ @ @ X X X X @ @ @ @ wXwXwX",
"wXwXwXwXwXwXwXwXwXwXwXwXwXwXwXwXwXwXwXwXwXwXwXwXwXwXwXwXwXwXwXwXwXwXwXwXwXwXwXwXwXwXwXwXwXwXwXwXwXwXwXwXwXwXwXwXwXwXwXwXwXwXwXwXwXwXwXwXwXwXwXwXwXwXwXwXwXwXwXwXwXwXwXwXwXwXwXwXwXwXwXwXwXwXwXwXwXwXwXwXwXwXwXwXwXwXwXwXwXwXwXwXwXwXwXwXwXwXwXwXwXwXwXwXwXwXwXwXwXwXwXwX~ ~ ^ ^ S.S.S.S.sXsXsXsX- - - - ~ ~ ~ ~ ~ ~ ~ ~ S S S S @ @ @ @ @ @ @ @ X X X X X X X X , , , , , , , , @ @ @ @ @ @ @ @ @ @ @ @ @ @ @ @ @ @ @ @ @ @ @ @ @ @ @ @ X X X X X X @ X X X X X @ @ @ @ X O @ @ @ @ @ X X X X @ @ @ @ O X X X X @ @ @ X X X X @ X X X X @ @ @ @ @ @ @ @ @ @ @ @ @ @ @ @ @ @ @ @ @ @ @ @ @ # # # # # # # # # # # # # # # # # # # # # # # @ # @ @ @ @ @ @ @ @ X X X X X X . . @ @ @ @ . . . .         . . . . X X X . # # # # # # # # X X X X X X X X @ @ @ @ wXwXwX",
"wXwXwXwXwXwXwXwXwXwXwXwXwXwXwXwXwXwXwXwXwXwXwXwXwXwXwXwXwXwXwXwXwXwXwXwXwXwXwXwXwXwXwXwXwXwXwXwXwXwXwXwXwXwXwXwXwXwXwXwXwXwXwXwXwXwXwXwXwXwXwXwXwXwXwXwXwXwXwXwXwXwXwXwXwXwXwXwXwXwXwXwXwXwXwXwXwXwXwXwXwXwXwXwXwXwXwXwXwXwXwXwXwXwXwXwXwXwXwXwXwXwXwXwXwXwXwXwXwXwXwXwX~ ~ ~ ^ S.S.S.S.sXsXsXsX- - - - ~ ~ ~ ~ ~ ~ ~ ~ S S S S @ @ @ @ @ @ @ @ X X X X X X X X , , , , , , , , @ @ @ @ @ @ @ @ @ @ @ @ @ @ @ @ @ @ @ @ @ @ @ @ @ @ @ @ X X X X X @ @ X X X X X @ @ @ @ X X @ @ @ @ @ X X X X @ @ @ @ @ X O @ X O @ @ X X X X @ X X O X O @ @ @ @ @ @ @ @ @ @ O @ @ @ @ @ @ @ @ @ @ @ @ # # # # # # # # # # # @ # # # # # # # # # # # @ @ # @ @ @ @ @ @ @ @ X X X X . . . . @ @ @ @ . . . .         . . . . X X X . # # # # # # # # X X X X X X X X @ @ @ @ wXwXwX",
"wXwXwXwXwXwXwXwXwXwXwXwXwXwXwXwXwXwXwXwXwXwXwXwXwXwXwXwXwXwXwXwXwXwXwXwXwXwXwXwXwXwXwXwXwXwXwXwXwXwXwXwXwXwXwXwXwXwXwXwXwXwXwXwXwXwXwXwXwXwXwXwXwXwXwXwXwXwXwXwXwXwXwXwXwXwXwXwXwXwXwXwXwXwXwXwXwXwXwXwXwXwXwXwXwXwXwXwXwXwXwXwXwXwXwXwXwXwXwXwXwXwXwXwXwXwXwXwXwXwXwXwX^ ^ ^ ^ S.S.S.S.sXsXsXsX- - - - ~ ~ ~ ~ ~ ~ ~ ~ S S S S @ @ @ @ @ @ @ @ X X X X X X X X , , , , , , , , @ @ @ @ @ @ @ @ @ @ @ @ @ @ @ @ @ @ @ @ @ @ @ @ @ @ @ @ X X X @ @ @ @ X X X X X X X @ @ @ O X X @ @ @ X X X X @ @ @ @ @ @ @ @ @ @ @ X . X X X @ @ @ @ @ @ @ @ @ @ @ @ @ @ @ @ X @ @ @ @ @ @ @ @ @ @ @ # # # # # # # # # # # # # # # # # # # # # # # # # # # @ @ @ @ O O @ @ X X X X . X X X @ @ @ @ . . . .         . . . . X X . . # # # # # # # # X X X X X X X X @ @ @ @ wXwXwX",
"wXwXwXwXwXwXwXwXwXwXwXwXwXwXwXwXwXwXwXwXwXwXwXwXwXwXwXwXwXwXwXwXwXwXwXwXwXwXwXwXwXwXwXwXwXwXwXwXwXwXwXwXwXwXwXwXwXwXwXwXwXwXwXwXwXwXwXwXwXwXwXwXwXwXwXwXwXwXwXwXwXwXwXwXwXwXwXwXwXwXwXwXwXwXwXwXwXwXwXwXwXwXwXwXwXwXwXwXwXwXwXwXwXwXwXwXwXwXwXwXwXwXwXwXwXwXwXwXwXwXwXwX^ ^ ~ ^ S.S.S.S.sXsXsXsX- - - - ~ ~ ~ ~ ~ ~ ~ ~ S S S S @ @ @ @ @ @ @ @ X X X X X X X X , , , , , , , , @ @ @ @ @ @ @ @ @ @ @ @ @ @ @ @ @ @ @ @ @ @ @ @ @ @ @ @ X X X @ @ @ @ X X X X X X O @ @ @ X X X @ @ @ X X X X @ @ @ @ @ @ @ @ @ @ @ X . X X X @ @ @ @ X @ @ X @ @ @ @ @ @ @ @ X @ @ @ @ @ @ @ @ @ @ @ # # # # # # # # # # # # # # # # # # # # # # # # # # # @ @ @ @ @ @ @ @ X X X X . . X X @ @ @ @ . . . .         . . . . X X . X # # # # # # # # X X X X X X X X @ @ @ @ wXwXwX",
"wXwXwXwXwXwXwXwXwXwXwXwXwXwXwXwXwXwXwXwXwXwXwXwXwXwXwXwXwXwXwXwXwXwXwXwXwXwXwXwXwXwXwXwXwXwXwXwXwXwXwXwXwXwXwXwXwXwXwXwXwXwXwXwXwXwXwXwXwXwXwXwXwXwXwXwXwXwXwXwXwXwXwXwXwXwXwXwXwXwXwXwXwXwXwXwXwXwXwXwXwXwXwXwXwXwXwXwXwXwXwXwXwXwXwXwXwXwXwXwXwXwXwXwXwXwXwXwXwXwXwXwXC.C.C.C.lXlXkXkX$ $ $ $ $ $ $ $ ~ ~ ~ ~ ^ ^ ^ ^ S S S S @ @ @ @ @ @ @ @ X X X X @ @ @ @ # # # # $ $ = $ # # # # # # # # @ @ @ @ @ @ @ @ @ @ @ @ @ @ @ @ @ @ @ @ X X X X X X X @ @ @ @ @ X X @ @ @ @ X X X X X X X X X @ @ @ @ @ @ @ X X X X X X @ @ @ X X X X @ @ X X @ @ @ @ @ @ @ @ @ @ @ @ @ @ @ @ # # # # # # # # @ @ @ @ # # # # # # # # # # # # # # # # # # # O O @ @ @ @ @ @ @ @ @ @ 1 1 1 1 # # # # . . . . . . . . O O X X X X X X X X X X X X . X X X . . . . X X # # @ @ wXwXwX",
"wXwXwXwXwXwXwXwXwXwXwXwXwXwXwXwXwXwXwXwXwXwXwXwXwXwXwXwXwXwXwXwXwXwXwXwXwXwXwXwXwXwXwXwXwXwXwXwXwXwXwXwXwXwXwXwXwXwXwXwXwXwXwXwXwXwXwXwXwXwXwXwXwXwXwXwXwXwXwXwXwXwXwXwXwXwXwXwXwXwXwXwXwXwXwXwXwXwXwXwXwXwXwXwXwXwXwXwXwXwXwXwXwXwXwXwXwXwXwXwXwXwXwXwXwXwXwXwXwXwXwXwXC.C.C.C.lXlXkXkX$ $ $ $ $ $ $ $ ~ ~ ~ ~ ^ ^ ^ ^ S S S S @ @ @ @ @ @ @ @ X X X X @ @ @ @ # # # # $ $ $ $ # # # # # # # # # @ @ @ @ @ @ @ @ @ @ @ @ @ @ @ @ @ @ @ X X X X X X X @ @ @ @ @ X X @ @ @ @ X X X X X X X X X @ @ @ @ @ O X X X X X X X @ @ @ X X X X @ @ X X @ @ @ @ @ @ @ @ @ @ @ @ @ @ @ @ # # # # # # # # @ @ @ @ # # # # # # # # # # # # # # # # # # # O O @ @ @ @ @ @ @ @ @ @ 1 1 1 1 # # # # . . . . . . . . O O X X X X X X X X X X X X . X X X . . . . X X # @ @ @ wXwXwX",
"wXwXwXwXwXwXwXwXwXwXwXwXwXwXwXwXwXwXwXwXwXwXwXwXwXwXwXwXwXwXwXwXwXwXwXwXwXwXwXwXwXwXwXwXwXwXwXwXwXwXwXwXwXwXwXwXwXwXwXwXwXwXwXwXwXwXwXwXwXwXwXwXwXwXwXwXwXwXwXwXwXwXwXwXwXwXwXwXwXwXwXwXwXwXwXwXwXwXwXwXwXwXwXwXwXwXwXwXwXwXwXwXwXwXwXwXwXwXwXwXwXwXwXwXwXwXwXwXwXwXwXwXC.C.C.C.kXkXkXkX* * # # $ $ $ $ ~ ~ ~ ~ ^ ^ ^ ^ S S S S @ @ @ @ O X X X X X X X @ @ @ @ # # # # $ $ = = # # # # # # # # # # # # @ @ @ @ @ @ @ @ @ @ @ @ @ @ @ @ X X X X X X X @ @ @ @ @ X @ @ @ @ @ @ X X X X X X X X @ @ @ O @ @ @ X X X X X @ @ @ @ X X X X @ @ @ @ @ @ @ @ @ @ @ @ @ @ @ O @ @ @ @ # # # # # # # # @ @ @ @ # # # # # # # # # # # # # # # # # @ @ @ @ @ @ @ @ @ @ @ @ @ @ 1 1 1 1 # # # # . . . . . . . . X O X X X X X X X X X X . X X . . . . X X X . . @ @ @ @ wXwXwX",
"wXwXwXwXwXwXwXwXwXwXwXwXwXwXwXwXwXwXwXwXwXwXwXwXwXwXwXwXwXwXwXwXwXwXwXwXwXwXwXwXwXwXwXwXwXwXwXwXwXwXwXwXwXwXwXwXwXwXwXwXwXwXwXwXwXwXwXwXwXwXwXwXwXwXwXwXwXwXwXwXwXwXwXwXwXwXwXwXwXwXwXwXwXwXwXwXwXwXwXwXwXwXwXwXwXwXwXwXwXwXwXwXwXwXwXwXwXwXwXwXwXwXwXwXwXwXwXwXwXwXwXwXC.C.C.C.kXkXkXkX* * # # $ $ $ $ ~ ~ ~ ~ ^ ^ ^ ^ S S S S @ @ @ @ O O X X X X X X @ @ @ @ # # # # $ $ , , # # # # # # # # # # # # @ @ @ @ @ @ @ @ @ @ @ @ @ @ @ @ X X X X X X X @ X X @ @ O O @ @ @ @ @ X X X X X X X X @ X O X X @ @ O X X X X @ @ @ @ X X X X @ @ @ @ @ @ @ @ @ @ @ @ @ O @ X @ @ @ @ # # # # # # # # @ @ @ @ # # # # # # # # # # # # # # # # # @ @ @ @ O O @ @ @ @ @ @ @ @ 1 1 1 1 # # # # . . . . . . . . X O X X X X X X X X X X . X X . . . . X X X X X @ @ @ @ wXwXwX",
"wXwXwXwXwXwXwXwXwXwXwXwXwXwXwXwXwXwXwXwXwXwXwXwXwXwXwXwXwXwXwXwXwXwXwXwXwXwXwXwXwXwXwXwXwXwXwXwXwXwXwXwXwXwXwXwXwXwXwXwXwXwXwXwXwXwXwXwXwXwXwXwXwXwXwXwXwXwXwXwXwXwXwXwXwXwXwXwXwXwXwXwXwXwXwXwXwXwXwXwXwXwXwXwXwXwXwXwXwXwXwXwXwXwXwXwXwXwXwXwXwXwXwXwXwXwXwXwX#X#X#X#Xj.z.j.j.JXJXJXJX* * # # ~ ~ ~ ~ I I ~ ~ 8 8 8 8 @ @ @ @ X X X X @ @ X X . . . . X X X X $ $ $ $ $ $ $ $ # # # # # # # # # # # # @ @ @ @ X X @ @ @ @ @ @ @ @ @ @ X X X @ @ @ @ X X X X X X X X @ @ @ @ X X X X X X X X X X X X X @ @ @ X X X X X X X X X X X X X X @ @ @ @ @ @ @ @ @ @ @ O X X @ @ @ @ @ @ @ @ # # # # # # # # # # # # $ $ $ $ # # # # # # # $ $ # # @ @ O X X X X X @ @ @ @ # # # # < < < < X X X X . . . . # # # # , , , , < < < < $ $ $ $ . . X X X X . X @ @ @ @ wXwXwX",
"wXwXwXwXwXwXwXwXwXwXwXwXwXwXwXwXwXwXwXwXwXwXwXwXwXwXwXwXwXwXwXwXwXwXwXwXwXwXwXwXwXwXwXwXwXwXwXwXwXwXwXwXwXwXwXwXwXwXwXwXwXwXwXwXwXwXwXwXwXwXwXwXwXwXwXwXwXwXwXwXwXwXwXwXwXwXwXwXwXwXwXwXwXwXwXwXwXwXwXwXwXwXwXwXwXwXwXwXwXwXwXwXwXwXwXwXwXwXwXwXwXwXwXwXwXwXwXwX#X#X#X#Xj.z.j.j.JXJXJXJX# * # # ~ ~ ~ ~ I ~ I ~ 8 8 8 8 @ @ @ @ X X X X @ @ O O . . . . X X X X $ $ $ $ $ $ $ $ # # # # # # # # # # # # @ @ @ @ X X @ @ @ @ @ @ @ @ @ @ X X X @ @ @ @ X X X X X X X X @ @ @ @ X X X X X X X X X X X X X @ @ @ X X X X X X X X X X X X X O @ @ @ @ @ @ @ @ @ @ @ O X X @ @ @ @ @ @ @ @ # # # # # # # # # # # # $ $ $ $ # # # # # # # $ $ $ # @ @ O X X X X X @ @ @ @ # # # # < < < < X X X X . . . . # # # # , , , , < < < < $ $ $ $ . X X X X X . . @ @ @ @ wXwXwX",
"wXwXwXwXwXwXwXwXwXwXwXwXwXwXwXwXwXwXwXwXwXwXwXwXwXwXwXwXwXwXwXwXwXwXwXwXwXwXwXwXwXwXwXwXwXwXwXwXwXwXwXwXwXwXwXwXwXwXwXwXwXwXwXwXwXwXwXwXwXwXwXwXwXwXwXwXwXwXwXwXwXwXwXwXwXwXwXwXwXwXwXwXwXwXwXwXwXwXwXwXwXwXwXwXwXwXwXwXwXwXwXwXwXwXwXwXwXwXwXwXwXwXwXwXwXwXwXwX#X#X#X#XA.A.A.A.JXJXJXJX# # # # I ~ ~ ~ ~ ~ ~ ~ 8 8 8 8 @ @ @ @ X X X X O O O O . . . . X X X X $ $ $ $ $ $ $ $ # # # # # # # # @ @ @ @ @ @ @ @ X X @ @ @ @ @ @ O O @ @ X X X @ @ @ @ X X X X X X X X @ @ @ @ X X X X X X X X X X X X O @ @ @ X X X X X X X X X X X X @ @ @ X X @ @ @ @ @ @ @ @ @ @ O @ @ @ @ @ @ @ @ # # # # # # # # # # # # $ $ $ $ # # # # # # # $ $ $ $ @ @ @ @ X X X X @ @ @ @ # # # # < < < < X X X X . . . . # # # # , , , , , , < < $ $ $ $ X X . . . . . X @ @ @ @ wXwXwX",
"wXwXwXwXwXwXwXwXwXwXwXwXwXwXwXwXwXwXwXwXwXwXwXwXwXwXwXwXwXwXwXwXwXwXwXwXwXwXwXwXwXwXwXwXwXwXwXwXwXwXwXwXwXwXwXwXwXwXwXwXwXwXwXwXwXwXwXwXwXwXwXwXwXwXwXwXwXwXwXwXwXwXwXwXwXwXwXwXwXwXwXwXwXwXwXwXwXwXwXwXwXwXwXwXwXwXwXwXwXwXwXwXwXwXwXwXwXwXwXwXwXwXwXwXwXwXwXwX#X#X#X#XA.A.A.A.JXJXJXJX# # # # I I ~ ~ ~ ~ ~ ~ 8 8 8 8 @ @ @ @ X X X X O O O O . . . . X X X X $ $ $ $ $ # $ $ # # # # # # # # # @ @ @ @ @ @ @ @ @ @ @ @ O @ @ X X @ @ X X X @ @ @ @ X X X X X X X X @ @ @ @ X X X X X X X X X X X X @ @ @ @ X X X X X X X X X X X X @ @ @ @ @ @ @ @ @ @ @ @ @ @ @ @ @ @ @ @ @ @ @ @ # # # # # # # # # # # # $ $ $ $ # # # # # # # $ $ $ $ @ @ @ @ X X X X @ @ @ @ # # # # < < < < X X X X . . . . # # # # , , , , , , < < $ $ $ $ X X . . . . X X @ @ @ @ wXwXwX",
"wXwXwXwXwXwXwXwXwXwXwXwXwXwXwXwXwXwXwXwXwXwXwXwXwXwXwXwXwXwXwXwXwXwXwXwXwXwXwXwXwXwXwXwXwXwXwXwXwXwXwXwXwXwXwXwXwXwXwXwXwXwXwXwXwXwXwXwXwXwXwXwXwXwXwXwXwXwXwXwXwXwXwXwXwXwXwXwXwXwXwXwXwXwXwXwXwXwXwXwXwXwXwXwXwXwXwXwXwXwXwXwXwXwXwXwXwXwXwXwXwXwXwXwXwXwXwXwXwXwXwXwXA.A.A.A.LXLXKXLX- - - - I I I I ^ ^ ^ ^ S S f f @ @ @ @ @ @ @ @ * * * * X X X X @ @ @ @ $ $ $ $ < < < < = = = $ # # # # @ @ @ @ @ @ @ @ @ @ @ @ @ @ @ @ X X X O X X X @ @ @ @ X X X X X X X X X X X X X X X X X X X X X X X X X X X X X X X X @ @ @ @ X X X X X X X X @ @ @ @ @ X O @ @ @ @ @ @ @ @ @ @ @ @ @ $ $ $ $ , , , , $ $ $ $ , , , , < < < < $ $ $ # # # # @ @ @ @ X X X X X X X X X X X X . . . . @ @ @ @ @ @ @ @ < < < < @ @ @ @ # # # # $ $ $ $ X X X X X X X X @ @ @ @ wXwXwX",
"wXwXwXwXwXwXwXwXwXwXwXwXwXwXwXwXwXwXwXwXwXwXwXwXwXwXwXwXwXwXwXwXwXwXwXwXwXwXwXwXwXwXwXwXwXwXwXwXwXwXwXwXwXwXwXwXwXwXwXwXwXwXwXwXwXwXwXwXwXwXwXwXwXwXwXwXwXwXwXwXwXwXwXwXwXwXwXwXwXwXwXwXwXwXwXwXwXwXwXwXwXwXwXwXwXwXwXwXwXwXwXwXwXwXwXwXwXwXwXwXwXwXwXwXwXwXwXwXwXwX4XwXA.A.A.A.LXLXLXLX- - - - I I I I ^ ^ ^ ^ S S S f @ @ @ @ @ @ @ @ * * * * X X X X @ @ @ @ $ $ $ $ < < < < = = = = # # # # @ @ @ @ @ @ @ @ @ @ @ @ @ @ @ @ X X X @ X X X @ @ @ @ X X X X X X X X X X X X X X X X X X X X X X X X X X X X X X X X @ @ @ @ X X X X X X X X @ @ @ @ X O @ @ @ @ @ @ @ @ @ @ @ @ @ @ $ $ $ $ , , , , $ $ $ $ , , , , < < < < $ $ $ # # # # @ @ @ @ X X X X X X O X X X X X . . . . @ @ @ @ @ @ @ @ < < < < @ @ @ @ # # # # $ $ $ $ X X X X X X X X @ @ @ @ wXwXwX",
"wXwXwXwXwXwXwXwXwXwXwXwXwXwXwXwXwXwXwXwXwXwXwXwXwXwXwXwXwXwXwXwXwXwXwXwXwXwXwXwXwXwXwXwXwXwXwXwXwXwXwXwXwXwXwXwXwXwXwXwXwXwXwXwXwXwXwXwXwXwXwXwXwXwXwXwXwXwXwXwXwXwXwXwXwXwXwXwXwXwXwXwXwXwXwXwXwXwXwXwXwXwXwXwXwXwXwXwXwXwXwXwXwXwXwXwXwXwXwXwXwXwXwXwXwXwXwXwX4X4XwXwXA.A.A.A.LXLXLXLX- - - - I I J J ^ ^ ^ ^ S S 8 S @ @ @ @ @ @ X X * * * * X X @ @ @ @ @ @ $ $ $ $ < < < < = = , , # # @ # @ @ @ @ @ @ @ @ @ @ @ @ @ @ @ @ @ @ O @ X X X @ @ @ O X X X X X X X X X X X X X X X X X X X X X X X X X X X X X X X X @ @ @ @ X X X X X X X X @ @ @ @ X @ @ @ @ @ @ @ @ @ @ @ @ @ @ @ $ $ $ $ , , , , $ $ $ $ , , , , < < < < $ $ $ # # # # @ @ @ @ X X X X X X O O X X X X . . . . @ @ @ @ @ @ @ @ < < < < @ @ @ @ # # # # $ $ $ $ X X X X X X X X @ @ @ @ wXwXwX",
"wXwXwXwXwXwXwXwXwXwXwXwXwXwXwXwXwXwXwXwXwXwXwXwXwXwXwXwXwXwXwXwXwXwXwXwXwXwXwXwXwXwXwXwXwXwXwXwXwXwXwXwXwXwXwXwXwXwXwXwXwXwXwXwXwXwXwXwXwXwXwXwXwXwXwXwXwXwXwXwXwXwXwXwXwXwXwXwXwXwXwXwXwXwXwXwXwXwXwXwXwXwXwXwXwXwXwXwXwXwXwXwXwXwXwXwXwXwXwXwXwXwXwXwXwXwXwXwXwXwXwXwXA.A.A.A.LXLXLXLX- - - - I I J J ^ ^ ^ ^ S S 8 8 @ @ @ @ @ @ X X * * * * X X @ @ @ @ @ @ $ $ $ $ < < < < = = , , # # @ @ @ @ @ @ @ @ @ @ @ @ @ @ @ @ @ @ @ @ @ @ X X X @ O @ X X X X X X X X X X X X X X X X X X X X X X X X X X X X X X X X X @ @ @ @ X X X X X X X X @ @ @ @ X @ @ @ @ @ @ @ @ @ @ X @ @ @ @ $ $ $ $ , , , , $ $ $ $ , < < , < < < < $ $ $ # # # # @ @ @ @ X X X X X X O O X X X X . . . . @ @ @ @ @ @ @ @ < < < < @ @ @ @ # # # # $ $ # # X X X X X X X X @ @ O @ wXwXwX",
"wXwXwXwXwXwXwXwXwXwXwXwXwXwXwXwXwXwXwXwXwXwXwXwXwXwXwXwXwXwXwXwXwXwXwXwXwXwXwXwXwXwXwXwXwXwXwXwXwXwXwXwXwXwXwXwXwXwXwXwXwXwXwXwXwXwXwXwXwXwXwXwXwXwXwXwXwXwXwXwXwXwXwXwXwXwXwXwXwXwXwXwXwXwXwXwXwXwXwXwXwXwXwXwXwXwXwXwXwXwXwXwXwXwXwXwXwXwXwXwXwXwXwXwXwXwXwXwXwXwXwXwXz.z.z.z.JXJXJXJXh h h h F G G G ^ ^ ^ ^ S S S S # # # # @ @ @ @ . X X X X X X X @ @ @ @ $ $ $ $ , , , , , , , , # # # # # # # # @ @ @ @ @ @ @ @ @ @ @ @ @ @ O X @ @ @ @ O X X X X X X @ X X @ @ @ @ @ X X X X @ X X @ @ @ @ @ @ @ @ @ X X X X @ X X X O @ @ @ X X X X @ @ @ @ @ @ @ @ @ @ @ @ @ X X X @ @ @ @ @ @ @ @ # # # # # # # # # # # # # @ @ @ $ $ $ # # # # @ @ @ @ X X X X X X X X X X X X . . . . . . . . . . . . . . . . O O @ @ # @ @ # $ $ # # @ @ @ @ @ @ @ @ # # # # wXwXwX",
"wXwXwXwXwXwXwXwXwXwXwXwXwXwXwXwXwXwXwXwXwXwXwXwXwXwXwXwXwXwXwXwXwXwXwXwXwXwXwXwXwXwXwXwXwXwXwXwXwXwXwXwXwXwXwXwXwXwXwXwXwXwXwXwXwXwXwXwXwXwXwXwXwXwXwXwXwXwXwXwXwXwXwXwXwXwXwXwXwXwXwXwXwXwXwXwXwXwXwXwXwXwXwXwXwXwXwXwXwXwXwXwXwXwXwXwXwXwXwXwXwXwXwXwXwXwXwXwXwXwXwXwXz.z.z.z.JXJXJXJXh h h h F F G G ^ ^ ^ ^ S S S S # # # # @ @ @ @ X X X X X X X X @ @ @ @ $ $ $ $ , , , , , , , , # # # # # # # # @ @ @ @ @ @ @ @ @ @ @ @ @ @ @ X O O @ @ O X X X X X X @ X X @ @ @ @ @ X X X X @ X X @ @ @ @ @ @ @ @ @ X X X X O X X X X @ @ @ X X X X @ @ @ @ @ @ @ @ @ @ @ @ X X X X @ @ @ @ @ @ @ @ # # # # # # # # # # # # @ @ @ @ $ $ $ # # # # @ @ @ @ X X X X X X X X X X X X . . . . . . . . . . . . . . . . O O @ @ # @ @ @ $ $ # # @ @ @ @ @ @ @ @ # # # # wXwXwX",
"wXwXwXwXwXwXwXwXwXwXwXwXwXwXwXwXwXwXwXwXwXwXwXwXwXwXwXwXwXwXwXwXwXwXwXwXwXwXwXwXwXwXwXwXwXwXwXwXwXwXwXwXwXwXwXwXwXwXwXwXwXwXwXwXwXwXwXwXwXwXwXwXwXwXwXwXwXwXwXwXwXwXwXwXwXwXwXwXwXwXwXwXwXwXwXwXwXwXwXwXwXwXwXwXwXwXwXwXwXwXwXwXwXwXwXwXwXwXwXwXwXwXwXwXwXwXwXwX4X4X4X4Xz.z.z.z.JXJXJXJXh h h h G G F F ^ ^ ^ ^ S S S S # # # # @ @ @ @ X X X X X X X X # # # # $ $ # # , , , , , , , , # # # # # # # # @ @ @ @ @ @ @ @ @ @ @ @ @ @ @ @ @ @ X O @ @ @ X X X X @ @ @ X X @ @ @ X X X X @ @ @ X O @ @ @ @ @ @ @ X X X X @ @ @ @ @ @ @ @ X X X X @ @ @ @ @ @ @ @ @ @ @ @ @ @ @ @ @ @ @ @ @ @ @ @ # # # # # # # # # # # # # # # # $ $ $ # # # # @ @ @ @ X X X X X X X X X X X X . . . . . . . . . . . . . . . . @ @ O @ # # @ @ # # # # @ @ @ @ @ @ @ @ # # # # wXwXwX",
"wXwXwXwXwXwXwXwXwXwXwXwXwXwXwXwXwXwXwXwXwXwXwXwXwXwXwXwXwXwXwXwXwXwXwXwXwXwXwXwXwXwXwXwXwXwXwXwXwXwXwXwXwXwXwXwXwXwXwXwXwXwXwXwXwXwXwXwXwXwXwXwXwXwXwXwXwXwXwXwXwXwXwXwXwXwXwXwXwXwXwXwXwXwXwXwXwXwXwXwXwXwXwXwXwXwXwXwXwXwXwXwXwXwXwXwXwXwXwXwXwXwXwXwXwXwXwXwX4X4X4X4Xz.z.z.z.JXJXJXJXh h h h G F F F ^ ^ ^ ^ S S S S # # # # @ @ @ @ X X X X X X X X # # # # $ # # # , , , , , , , , # # # # # # # # @ @ @ @ @ @ @ @ @ @ @ @ @ @ @ @ O @ X X @ @ @ X X X X @ @ @ @ @ @ @ @ X X X X @ @ @ @ @ @ @ @ @ @ @ @ X X X X @ @ @ @ @ @ @ @ X X X X @ @ @ @ @ @ @ @ @ @ @ @ @ @ @ @ @ @ @ @ @ @ @ @ # # # # # # # # # # # # # # # # $ $ $ # # # # @ @ @ @ X X X X X X X X X X X X . . . . . . . . . . . . . . . . O @ O @ # # # @ # # # # @ @ @ @ @ @ @ @ # # # # wXwXwX",
"wXwXwXwXwXwXwXwXwXwXwXwXwXwXwXwXwXwXwXwXwXwXwXwXwXwXwXwXwXwXwXwXwXwXwXwXwXwXwXwXwXwXwXwXwXwXwXwXwXwXwXwXwXwXwXwXwXwXwXwXwXwXwXwXwXwXwXwXwXwXwXwXwXwXwXwXwXwXwXwXwXwXwXwXwXwXwXwXwXwXwXwXwXwXwXwXwXwXwXwXwXwXwXwXwXwXwXwXwXwXwXwXwXwXwXwXwXwXwXwXwXwXwXwXwXwXwXwX4X4X4X4XA.A.A.A.JXJXJXJXh.h.z.z.1 1 1 1 J J ~ ~ G D G G # # # # @ @ @ @ X X X X O O O O @ @ @ @ @ @ @ @ , , , , , , , , $ $ $ $ # # # # # # # # @ @ @ @ @ @ @ @ @ @ X X X X X X X X X X X X X X X X X X X X X X X X X X X X X X X X X X X X X X X X X X . X X @ @ @ @ @ X X X @ @ @ @ @ O @ X @ @ @ @ @ @ @ @ @ @ @ @ # # # # # # # # # # # # @ @ @ @ # # # # # # # $ $ $ $ @ @ @ @ X X X X X X X X . . . . . . . . . . . .   .   .     . . O O X X @ @ @ @ # @ @ @ X X X X @ @ X X , , , , @ @ # ",
"wXwXwXwXwXwXwXwXwXwXwXwXwXwXwXwXwXwXwXwXwXwXwXwXwXwXwXwXwXwXwXwXwXwXwXwXwXwXwXwXwXwXwXwXwXwXwXwXwXwXwXwXwXwXwXwXwXwXwXwXwXwXwXwXwXwXwXwXwXwXwXwXwXwXwXwXwXwXwXwXwXwXwXwXwXwXwXwXwXwXwXwXwXwXwXwXwXwXwXwXwXwXwXwXwXwXwXwXwXwXwXwXwXwXwXwXwXwXwXwXwXwXwXwXwXwXwXwXwX4X4X4XA.A.A.A.JXJXJXJXh.h.z.z.1 1 < < J J ~ ~ D D G G # # # # @ @ @ @ X X X X O O O O @ @ @ @ # # @ @ , , , , , , , , $ $ $ $ # # # # # # # # @ @ @ @ @ @ @ @ @ O X X X X X X X X X X X X X X X X X X X X X X X X X X X X X X X X X X X X X X X X X X . . . @ @ @ @ O X X O @ @ @ @ @ X X X @ @ @ @ @ @ @ @ @ @ @ @ # # # # # # # # # # # # @ @ @ @ # # # # # # # $ $ $ $ @ @ @ @ X X X X X . X X . . . . . . . . . . . .     . .   .     O O X X @ @ @ @ # # @ @ X X X X @ @ X X , , , , @ @ # ",
"wXwXwXwXwXwXwXwXwXwXwXwXwXwXwXwXwXwXwXwXwXwXwXwXwXwXwXwXwXwXwXwXwXwXwXwXwXwXwXwXwXwXwXwXwXwXwXwXwXwXwXwXwXwXwXwXwXwXwXwXwXwXwXwXwXwXwXwXwXwXwXwXwXwXwXwXwXwXwXwXwXwXwXwXwXwXwXwXwXwXwXwXwXwXwXwXwXwXwXwXwXwXwXwXwXwXwXwXwXwXwXwXwXwXwXwXwXwXwXwXwXwXwXwXwXwXwXwXwXwXwXwXA.A.A.A.JXJXJXJXz.z.z.z.1 1 1 1 J J ~ ~ D D D G # # # # @ @ @ @ X X X X O O O O @ @ @ @ # # # # , , , , , , , , $ $ $ $ # # # # # # # # @ @ @ @ @ @ @ @ O X X X X X X X X X X X X X X X X X X X X X X X X X X X X X X X X X X X X X X X X X X X . X X @ X X X O @ @ X X @ @ X X X O @ @ @ @ @ @ @ @ @ @ @ @ @ # # # # # # # # # # # # @ @ @ @ # # # # # # # $ $ $ $ @ @ @ @ X X X X . . X . . . . . . . . . . . . .             . . O @ X X @ @ @ @ # # @ # X X X X O @ X O , , , , @ @ # ",
"wXwXwXwXwXwXwXwXwXwXwXwXwXwXwXwXwXwXwXwXwXwXwXwXwXwXwXwXwXwXwXwXwXwXwXwXwXwXwXwXwXwXwXwXwXwXwXwXwXwXwXwXwXwXwXwXwXwXwXwXwXwXwXwXwXwXwXwXwXwXwXwXwXwXwXwXwXwXwXwXwXwXwXwXwXwXwXwXwXwXwXwXwXwXwXwXwXwXwXwXwXwXwXwXwXwXwXwXwXwXwXwXwXwXwXwXwXwXwXwXwXwXwXwXwXwXwXwXwXwXwXwXA.A.A.A.JXJXJXJXz.z.z.z.1 1 1 1 J J ~ ~ D D G G # # # # @ @ @ @ X X X X O O O O @ @ @ @ # # # # , , , , , , , , $ $ $ $ # # # # # # # # @ @ @ @ @ @ @ @ @ @ X X X X X X X X X X X X X X X X X X X X X X X X X X X X X X X X X X X X X X X X X X . . X @ X X X X @ O O X @ @ X X @ @ @ @ @ @ @ @ @ @ @ @ @ @ @ # # # # # # # # # # # # @ @ @ @ # # # $ # # # $ $ $ $ @ @ @ @ X X X X . . X . . . . . . . . . . . . .     .       . . O O X X @ @ @ @ # # @ # X X X X @ @ X X , , , , @ @ # ",
"wXwXwXwXwXwXwXwXwXwXwXwXwXwXwXwXwXwXwXwXwXwXwXwXwXwXwXwXwXwXwXwXwXwXwXwXwXwXwXwXwXwXwXwXwXwXwXwXwXwXwXwXwXwXwXwXwXwXwXwXwXwXwXwXwXwXwXwXwXwXwXwXwXwXwXwXwXwXwXwXwXwXwXwXwXwXwXwXwXwXwXwXwXwXwXwXwXwXwXwXwXwXwXwXwXwXwXwXwXwXwXwXwXwXwXwXwXwXwXwXwXwXwXwXwXwXwXwXwXwXwXwXY Y Y Y NXNXNXNXsXsXsXsX+ + + + 7 7 7 7 S S S S # # # # @ @ @ @ X X X X X X X X @ @ @ @ $ $ $ $ @ @ @ @ < < < < , , , , # # # # $ $ # # @ @ @ @ @ @ @ @ @ @ @ @ @ @ @ X X X X @ @ @ @ X X X X X X X X X X X X X X X X @ O @ @ X X X X X X X X X X X X @ O X @ @ @ @ X @ @ @ @ X @ @ @ @ @ @ @ @ @ @ @ @ @ @ @ @ @ @ @ # # # # # # # # # # # # # # # # # # # @ @ @ @ X X X X X X X X . . . . . . . .         . .     . . . . . . . . . . X X X X X X @ @ @ @ @ @ X X X X O O               ",
"wXwXwXwXwXwXwXwXwXwXwXwXwXwXwXwXwXwXwXwXwXwXwXwXwXwXwXwXwXwXwXwXwXwXwXwXwXwXwXwXwXwXwXwXwXwXwXwXwXwXwXwXwXwXwXwXwXwXwXwXwXwXwXwXwXwXwXwXwXwXwXwXwXwXwXwXwXwXwXwXwXwXwXwXwXwXwXwXwXwXwXwXwXwXwXwXwXwXwXwXwXwXwXwXwXwXwXwXwXwXwXwXwXwXwXwXwXwXwXwXwXwXwXwXwXwXwXwXwXwXwXwXY Y Y Y NXNXNXNXsXsXsXsX+ + + + 7 7 7 7 S S S S # # # # @ @ @ @ X X X X X X X X @ @ @ @ $ $ $ $ @ @ @ @ < < < < , , , , # # # # $ $ # # @ @ @ @ @ @ @ @ @ @ @ @ @ @ X X X X X @ @ @ @ X X X X X X X X X X X X X X X X @ @ @ @ X X X X X X X X X X X X @ @ @ @ @ @ @ X @ @ @ @ X @ @ @ @ @ @ @ @ @ @ @ @ @ @ @ @ @ @ @ # # # # # # # # # # # # # # # # # # # @ @ @ @ X X X X X X X X . . . . . . . .           .     . . . . . . . . . . . X X X X X @ @ @ @ @ @ X X X X X O               ",
"wXwXwXwXwXwXwXwXwXwXwXwXwXwXwXwXwXwXwXwXwXwXwXwXwXwXwXwXwXwXwXwXwXwXwXwXwXwXwXwXwXwXwXwXwXwXwXwXwXwXwXwXwXwXwXwXwXwXwXwXwXwXwXwXwXwXwXwXwXwXwXwXwXwXwXwXwXwXwXwXwXwXwXwXwXwXwXwXwXwXwXwXwXwXwXwXwXwXwXwXwXwXwXwXwXwXwXwXwXwXwXwXwXwXwXwXwXwXwXwXwXwXwXwXwXwXwXwXwXwXwXwXY Y Y Y NXNXNXNXsXsXsXsX+ + + + 7 7 7 7 S S S S # # # # @ @ @ @ X X X X X X X X @ @ @ @ $ $ # # @ @ @ @ < < < < , , , , # # # # # # # # @ @ @ @ @ @ @ @ @ @ @ @ @ @ X X X X X @ X X @ X X X X X X X X X X X X X X X X @ @ @ @ X X X X X X X X X X X X @ X X X O @ @ O @ @ @ @ X @ @ @ @ @ @ @ @ @ @ @ @ @ @ @ @ @ @ @ # # # # # # # # # # # # # # # # # # # @ @ @ @ X X X X X X X X . . . . . . . .               . . . . . . . . . . X X X X X X X @ @ @ @ @ @ @ X X X O O               ",
"wXwXwXwXwXwXwXwXwXwXwXwXwXwXwXwXwXwXwXwXwXwXwXwXwXwXwXwXwXwXwXwXwXwXwXwXwXwXwXwXwXwXwXwXwXwXwXwXwXwXwXwXwXwXwXwXwXwXwXwXwXwXwXwXwXwXwXwXwXwXwXwXwXwXwXwXwXwXwXwXwXwXwXwXwXwXwXwXwXwXwXwXwXwXwXwXwXwXwXwXwXwXwXwXwXwXwXwXwXwXwXwXwXwXwXwXwXwXwXwXwXwXwXwXwXwXwXwXwXwXwXwXY Y Y Y NXNXNXNXsXsXsXsX+ + + + 7 7 7 7 S S S S # # # # @ @ @ @ X X X X X X X X @ @ @ @ $ $ # # @ @ @ @ < < < < , , , , # # # # # # # # @ @ @ @ @ @ @ @ @ @ @ @ @ @ X X X X X @ O X O X X X X X X X X X X X X X X X X @ X @ @ X X X X X X X X X X X X @ X X X X @ @ @ @ @ @ @ X @ @ @ @ @ @ @ @ @ @ @ @ @ @ @ @ @ @ @ # # # # # # # # # # # # # # # # # # # @ @ @ @ X X X X X X X X . . . . . . . .             . . . . . . . . . . X X X X X X X X @ @ @ @ @ @ O X X X O O               ",
"wXwXwXwXwXwXwXwXwXwXwXwXwXwXwXwXwXwXwXwXwXwXwXwXwXwXwXwXwXwXwXwXwXwXwXwXwXwXwXwXwXwXwXwXwXwXwXwXwXwXwXwXwXwXwXwXwXwXwXwXwXwXwXwXwXwXwXwXwXwXwXwXwXwXwXwXwXwXwXwXwXwXwXwXwXwXwXwXwXwXwXwXwXwXwXwXwXwXwXwXwXwXwXwXwXwXwXwXwXwXwXwXwXwXwXwXwXwXwXwXwXwXwXwXwXwXwXwXz.z.z.z.A.A.A.A.sXsXsXsXlXlXlXlXf f f f < < < < # # # # + + + + @ @ @ @ . . . . X . X X X X X X @ @ @ @ @ @ @ @ 3 6 1 1 < < < < # # # # # # # # @ @ @ # @ @ # # @ @ @ @ @ @ @ X X X @ @ @ @ @ X X X X X X X X X X X X X X X X X X X X @ @ @ @ X X X X X X X X @ X X @ @ @ @ @ @ @ @ @ @ @ @ @ @ @ @ @ @ @ @ @ @ @ @ @ @ @ @ @ @ @ @ @ # # # # @ @ @ @ # # # # # # # X X O O X X X X X X X X . . . . . . . . . .   . . . . . . . . . X . X X X X . X . . X . X X X X @ @ @ @ # # # # @ @ @ @ # # # ",
"wXwXwXwXwXwXwXwXwXwXwXwXwXwXwXwXwXwXwXwXwXwXwXwXwXwXwXwXwXwXwXwXwXwXwXwXwXwXwXwXwXwXwXwXwXwXwXwXwXwXwXwXwXwXwXwXwXwXwXwXwXwXwXwXwXwXwXwXwXwXwXwXwXwXwXwXwXwXwXwXwXwXwXwXwXwXwXwXwXwXwXwXwXwXwXwXwXwXwXwXwXwXwXwXwXwXwXwXwXwXwXwXwXwXwXwXwXwXwXwXwXwXwXwXwXwXwXwXz.z.z.z.A.A.A.A.sXsXsXsXlXlXlXlXf f f f < < < < # # # # + + + + @ @ @ @ . . . . X X X X X X X X @ @ @ @ @ @ @ @ 3 1 1 1 < < < < # # # # # # # # @ @ @ @ @ # # # @ @ @ @ @ @ @ X X X @ @ @ @ @ X X X X X X X X X X X X X X X X X X X X @ @ @ @ X X X X X X X X @ X @ @ @ @ @ @ @ @ @ @ @ @ @ @ @ @ @ @ @ @ @ @ @ @ @ @ @ @ @ @ @ @ @ @ # # # # @ @ @ @ # # # # # # # @ X O O X X X X X X X X . . . . . . . .   .     . . . . . . . . X X X X X X . . . . X . X X X X @ @ @ O # # # # @ @ @ @ # # # ",
"wXwXwXwXwXwXwXwXwXwXwXwXwXwXwXwXwXwXwXwXwXwXwXwXwXwXwXwXwXwXwXwXwXwXwXwXwXwXwXwXwXwXwXwXwXwXwXwXwXwXwXwXwXwXwXwXwXwXwXwXwXwXwXwXwXwXwXwXwXwXwXwXwXwXwXwXwXwXwXwXwXwXwXwXwXwXwXwXwXwXwXwXwXwXwXwXwXwXwXwXwXwXwXwXwXwXwXwXwXwXwXwXwXwXwXwXwXwXwXwXwXwXwXwXwXwXwXwX( ( A.A.A.A.A.A.sXsXsXsXlXlXlXlXf f f f < < < < # # # # + + + + @ @ @ @ . . . . X X X X X X X X @ @ @ @ @ @ @ @ 1 1 1 1 < < < < # # # # # # # # # # # # @ # # # @ @ @ @ @ @ @ X X @ @ @ @ @ @ X X X X X X X X X X X X X X X X X X X X @ @ O X X X X X X X X X @ @ @ @ @ @ @ @ @ @ @ @ @ @ @ @ @ @ @ @ @ @ @ @ @ @ @ @ @ @ @ @ @ @ @ @ # # # # @ @ @ @ # # # # # @ @ X X X X X X X X X X X X . . . . . . . . . .     . . . . . . . . X X X X . . X X X . . . X X X X @ @ @ @ # # # # @ @ @ @ # # # ",
"wXwXwXwXwXwXwXwXwXwXwXwXwXwXwXwXwXwXwXwXwXwXwXwXwXwXwXwXwXwXwXwXwXwXwXwXwXwXwXwXwXwXwXwXwXwXwXwXwXwXwXwXwXwXwXwXwXwXwXwXwXwXwXwXwXwXwXwXwXwXwXwXwXwXwXwXwXwXwXwXwXwXwXwXwXwXwXwXwXwXwXwXwXwXwXwXwXwXwXwXwXwXwXwXwXwXwXwXwXwXwXwXwXwXwXwXwXwXwXwXwXwXwXwXwXwXwXwX( ( z.A.A.A.A.A.sXsXsXsXlXlXlXlXf f f f < < - < # # # # + + + + @ @ @ @ . . . . X X X X X X X X @ @ @ @ @ @ @ @ 1 1 1 1 < < < < # # # # # # # # # # # # @ # # # @ @ @ @ @ @ @ X O @ @ @ @ @ @ X X X X X X X X X X X X X X X X X X X X X @ @ X X X X X X X X X @ @ @ @ @ @ @ @ @ @ @ X @ @ @ @ @ @ @ @ @ @ @ @ @ @ @ @ @ @ @ @ @ @ @ @ # # # # @ @ @ @ # # # # # @ @ X X X X X X X X . . X X . . . . . . . .   .     . . . . . . . . X X X X . . X X . . . . X X X X @ @ @ @ # # # # @ @ @ @ # # # ",
"wXwXwXwXwXwXwXwXwXwXwXwXwXwXwXwXwXwXwXwXwXwXwXwXwXwXwXwXwXwXwXwXwXwXwXwXwXwXwXwXwXwXwXwXwXwXwXwXwXwXwXwXwXwXwXwXwXwXwXwXwXwXwXwXwXwXwXwXwXwXwXwXwXwXwXwXwXwXwXwXwXwXwXwXwXwXwXwXwXwXwXwXwXwXwXwXwXwXwXwXwXwXwXwXwXwXwXwXwXwXwXwXwXwXwXwXwXwXwXwXwXwXwXwXwXwXwXwXA.A.A.A.A.A.A.A.kXkXkXkXY Y Y Y I I I I A.A.A.A.S.S.S.S.pXpXpXpX+ + + + + + + + - - - - 5 5 5 6 5 5 5 5 @ @ @ @ < < < < + + @ @ X X X X X X X X . . . . # # # # @ @ @ @ @ @ @ X @ @ @ X X X X @ @ @ @ X X X X X X X X X X X X X X X X X X X X @ @ @ @ X X X X X X X X X X X X @ X X X @ @ @ @ @ @ @ @ @ @ @ @ @ @ @ @ @ @ @ @ # # # # # # # # @ @ @ @ # # # # @ @ @ @ @ @ @ O O @ @ X X X X . . . . . . . . . . . .     . .         X X X X . . X X X X . . X X X X X X . . X X O O X X X X @ @ @ ",
"wXwXwXwXwXwXwXwXwXwXwXwXwXwXwXwXwXwXwXwXwXwXwXwXwXwXwXwXwXwXwXwXwXwXwXwXwXwXwXwXwXwXwXwXwXwXwXwXwXwXwXwXwXwXwXwXwXwXwXwXwXwXwXwXwXwXwXwXwXwXwXwXwXwXwXwXwXwXwXwXwXwXwXwXwXwXwXwXwXwXwXwXwXwXwXwXwXwXwXwXwXwXwXwXwXwXwXwXwXwXwXwXwXwXwXwXwXwXwXwXwXwXwXwXwXwXwXwXA.A.A.A.A.A.A.A.kXkXkXkXY Y Y Y I I I I A.A.A.A.S.S.S.S.pXpXpXpX+ + + + @ + + + - - - - 6 5 5 5 5 5 5 5 @ @ @ @ < < < < @ + @ @ X X X X X X X X . . . . # # # # @ @ @ @ @ @ @ O @ @ @ X X X X @ @ @ @ X X X X X X X X X X X X X X X X X X X X @ @ @ @ X X X X X X X X X X X X X X X X @ @ @ @ @ @ @ @ @ @ @ @ @ @ @ @ @ @ @ @ # # # # # # # # @ @ @ @ # # # # @ @ @ @ @ @ @ O O @ @ X X X X . . . . . . . . . . . .   . . .         X X X . . . X X X X X X X X X X . . . . X X O O X X X X @ @ @ ",
"wXwXwXwXwXwXwXwXwXwXwXwXwXwXwXwXwXwXwXwXwXwXwXwXwXwXwXwXwXwXwXwXwXwXwXwXwXwXwXwXwXwXwXwXwXwXwXwXwXwXwXwXwXwXwXwXwXwXwXwXwXwXwXwXwXwXwXwXwXwXwXwXwXwXwXwXwXwXwXwXwXwXwXwXwXwXwXwXwXwXwXwXwXwXwXwXwXwXwXwXwXwXwXwXwXwXwXwXwXwXwXwXwXwXwXwXwXwXwXwXwXwXwXwXwXwXwXwXA.A.A.A.z.z.z.A.kXkXkXkXY Y Y Y I I I I A.A.A.A.S.S.pXpXpXpXpXpX+ + + + + + + + - - - - 6 6 6 5 5 5 5 5 @ @ @ @ < < < < @ @ @ @ X X X X X X X X . . . . # # # # @ @ @ @ @ @ @ @ @ @ @ X X X X @ @ @ @ X X X X X X X X X X X X X X X X X X X X @ @ @ @ X X X X X X X X X X X X @ @ @ @ @ @ @ @ @ @ @ @ @ @ @ @ @ @ @ @ @ @ @ @ # # # # # # # # @ @ @ @ # # # # @ @ @ @ @ @ @ X X O @ X O O O . . . . . . . . . . . . .               X . . . X X X X X X X X X X X . . . X X O X X X X X X X @ @ @ ",
"wXwXwXwXwXwXwXwXwXwXwXwXwXwXwXwXwXwXwXwXwXwXwXwXwXwXwXwXwXwXwXwXwXwXwXwXwXwXwXwXwXwXwXwXwXwXwXwXwXwXwXwXwXwXwXwXwXwXwXwXwXwXwXwXwXwXwXwXwXwXwXwXwXwXwXwXwXwXwXwXwXwXwXwXwXwXwXwXwXwXwXwXwXwXwXwXwXwXwXwXwXwXwXwXwXwXwXwXwXwXwXwXwXwXwXwXwXwXwXwXwXwXwXwXwXwXwXwXA.A.A.A.z.z.A.A.kXkXkXkXY Y Y Y I I I I A.A.A.A.S.S.pXpXpXpXpXpX+ + + + + + + + - - - - 6 6 5 5 5 5 5 5 @ @ @ @ < < < < @ @ @ @ X X X X X X X X . . . . @ # # # @ @ @ @ @ @ @ @ @ @ @ X X X X O @ @ @ X X X X X X X X X X X X X X X X X X X X @ @ @ @ X X X X X X X X X X X X @ @ @ @ @ @ @ @ @ @ @ @ @ @ @ @ @ @ @ @ @ @ @ @ # # # # # # # # @ @ @ @ # # # # @ @ @ @ @ @ @ X X O X X X X X . . . . . . . . . . . . . .             X X . . X X X X . X X . X X . . X . X X O O X X X X X X @ @ @ ",
"< < 1 1 1 1 < < < < 1 1 1 1 < < < < < < < < < < 1 1 1 1 < < < < < < < < 1 1 1 1 < < < < < < < < < < 1 1 1 1 < < < < 1 1 1 1 < < < < 1 1 1 1 < < < < 1 1 1 1 < < < < < < < < < < 1 1 1 1 < < < < < < < < 1 1 1 1 < < < < < < < < < < 1 1 1 1 < < < < 1 1 1 1 < < < 1 < < < < < < 1 1 1 1 1 1 1 1 1 1 1 1 < < < 1 1 1 1 1 1 1 1 1 < < < < < < < < 1 1 1 1 1 1 1 1 < < < < 1 1 1 1 < < < < < < < < 1 1 1 1 1 < < < 1 1 1 1 1 1 1 1 1 1 1 1 < < < < < < < < 1 1 < < < < 1 1 1 1 < < < < 1 1 1 1 < < 1 < < < 1 1 1 1 < < < < < 1 1 1 < 1 < < 1 1 1 1 < < < < < < < < < < 1 1 1 1 < < < < 1 1 1 1 < 1 1 1 1 1 1 1 1 1 1 1 1 1 1 1 1 1 1 1 1 1 < < < < < < < < 1 1 1 1 1 1 1 1 1 1 1 1 1 1 1 1 < < < < 1 1 1 1 1 1 1 1 < < < < < < < < 1 1 1 1 1 1 1 1 < < < < 1 1 1 1 1 "
};
